**kern	**dynam	**kern	**dynam	**kern	**dynam	**kern	**dynam	**mxhm
*part4	*part4	*part3	*part3	*part2	*part2	*part1	*part1	*part1
*staff4	*	*staff3	*	*staff2	*	*staff1	*	*
*I"Cello	*	*I"Viola	*	*I"2nd Violin	*	*I"1st Violin	*	*
*clefF4	*	*clefC3	*	*clefG2	*	*clefG2	*	*
*k[f#c#g#]	*	*k[f#c#g#]	*	*k[f#c#g#]	*	*k[f#c#g#]	*	*
*M2/4	*	*M2/4	*	*M2/4	*	*M2/4	*	*
=1	=1	=1	=1	=1	=1	=1	=1	=1
!LO:TX:b:t=pizz.	!	!	!	!	!	!LO:TX:a:B:t=No 4.  Andante ma non troppo e molto cantabile	!	!
8r	p	8r	p	8r	.	8r	.	.
!	!	!	!LO:DY:a	!	!	!	!	!
8AA	.	[4.E	p	(4.c#	.	(4a	p	.A.I
8AAL	.	.	.	.	.	.	.	.
!	!	!	!	!	!	!LO:TX:b:i:t=dolce	!	!
8AAJ	.	.	.	.	.	16bLL	.	.
.	.	.	.	.	.	16aJJ	.	.
=2	=2	=2	=2	=2	=2	=2	=2	=2
!	!	!	!	!LO:TX:b:i:t=dolce	!	!	!	!
8r	.	2E_	.	8d)	.	8g#)	.	V43
8BB	.	.	.	(4g#	.	8r	.	.
8BBL	.	.	.	.	.	4r	.	.
8BBJ	.	.	.	16aLL	.	.	.	.
.	.	.	.	16g#JJ	.	.	.	.
=3	=3	=3	=3	=3	=3	=3	=3	=3
8r	.	2E_	.	8dd)	.	8r	.	V65
8GG#	.	.	.	(4.B	.	(4dd	.	.
8GG#L	.	.	.	.	.	.	.	.
8GG#J	.	.	.	.	.	16eeLL	.	.
.	.	.	.	.	.	16ddJJ	.	.
=4	=4	=4	=4	=4	=4	=4	=4	=4
8r	.	2E_	.	8A)	.	8cc#)	.	I
8AA	.	.	.	(4cc#	.	8r	.	.
8AAL	.	.	.	.	.	4r	.	.
8AAJ	.	.	.	16ddLL	.	.	.	.
.	.	.	.	16cc#JJ	.	.	.	.
=5	=5	=5	=5	=5	=5	=5	=5	=5
8r	.	(4E]	.	4aa)	.	8r	.	I6
8CC#	.	.	.	.	.	(4aa	<	.
8CC#L	.	[4A)	.	4r	.	.	.	.
8CC#J	.	.	.	.	.	16ggnLL	>	.
.	.	.	.	.	.	16ee#XJJ)	]]	.
=6	=6	=6	=6	=6	=6	=6	=6	=6
8r	.	(8A]	.	8r	.	(8ee#XL	]	IV(#2)
8DD	.	[4.F#)	.	(4ff#	<	8ff#J)	.	IV
8AA#XL	.	.	.	.	.	4r	.	V65/II
8AA#J	.	.	.	16eeLL	>	.	.	.
.	.	.	.	16cc#JJ	]]	.	.	.
=7	=7	=7	=7	=7	=7	=7	=7	=7
8BBL	.	8F#L]	.	8dd#XL)	]	8r	.	V/V
8EEJ	.	(8G#J	.	(8BJ	.	(16eenLL	.	V7
.	.	.	.	.	.	16ddJJ	.	.
8AAnL	.	8AL)	.	8c#L)	.	8cc#)	.	I
8FF#J	.	(8D#XJ	.	(16bL	.	8r	.	V43/V
.	.	.	.	16aJJ	.	.	.	.
=8	=8	=8	=8	=8	=8	=8	=8	=8
8EE	.	8E)	.	8g#)	.	8r	.	V7
8r	.	8r	.	4r	.	(16f#LL	.	.
.	.	.	.	.	.	16eJJ	.	.
4r	.	4r	.	.	.	8d#X)	.	.
.	.	.	.	(16dnLL	.	8r	.	.
.	.	.	.	16BJJ	.	.	.	.
=9	=9	=9	=9	=9	=9	=9	=9	=9
8r	.	((2E 2c#	.	8A)	.	2r	.	I
8AA 8E	.	.	.	(4A	.	.	.	.
8AAL 8E	.	.	.	.	.	.	.	.
8AAJ 8E	.	.	.	16BLL	.	.	.	.
.	.	.	.	16AJJ)	.	.	.	.
=10	=10	=10	=10	=10	=10	=10	=10	=10
8r	.	2E)) 2d	.	8G#	.	8r	.	V43
8BB 8E	.	.	.	8r	.	(4g#	.	.
8BBL 8E	.	.	.	4r	.	.	.	.
8BBJ 8E	.	.	.	.	.	16aLL	.	.
.	.	.	.	.	.	16g#JJ	.	.
=11	=11	=11	=11	=11	=11	=11	=11	=11
8r	.	((2E 2B	.	8r	.	8dd)	.	V65
8GG# 8E	.	.	.	(4d	.	8r	.	.
8GG#L 8E	.	.	.	.	.	4r	.	.
8GG#J 8E	.	.	.	16eLL	.	.	.	.
.	.	.	.	16dJJ	.	.	.	.
=12	=12	=12	=12	=12	=12	=12	=12	=12
8r	.	[2E)) [2A	.	8c#)	.	8r	.	I
8AA 8E	.	.	.	[4.c#	.	(4cc#	.	.
8AAL 8E	.	.	.	.	.	.	.	.
8AAJ 8E	.	.	.	.	.	16ddLL	.	.
.	.	.	.	.	.	16cc#JJ	.	.
=13	=13	=13	=13	=13	=13	=13	=13	=13
8r	.	8EL] 8A]	.	8c#]	.	8aa)	.	I6
8CC# 8AA	.	(8EJ	.	(4a	<	8r	.	.
8CC#L 8AA	.	[4A)	.	.	.	4r	.	V65/IV
8CC#J 8AA	.	.	.	16gnLL	>	.	.	.
.	.	.	.	16e#XJJ)	]]	.	.	.
=14	=14	=14	=14	=14	=14	=14	=14	=14
8r	.	(8A]	.	(8e#XL	]	8r	.	IV(#2)
8DD	.	[4.F#)	.	8f#J)	.	(4ff#	<	V65/II
8AA#XL	.	.	.	4r	.	.	.	.
8AA#J	.	.	.	.	.	16eeLL	>	.
.	.	.	.	.	.	16cc#JJ	]]	.
=15	=15	=15	=15	=15	=15	=15	=15	=15
8BBL	.	8F#L]	.	8r	.	8dd#XL)	]	V/V
8EEJ	.	(8G#J	.	(16eenLL	.	(8BJ	.	V7
.	.	.	.	16ddJJ	.	.	.	.
8AAnL	.	8EL)	.	8cc#)	.	8c#L)	.	I
8FF#J	.	(8D#XJ	.	8r	.	(16bL	.	V43/V
.	.	.	.	.	.	16aJJ	.	.
=16	=16	=16	=16	=16	=16	=16	=16	=16
8EE	.	8E)	.	8r	.	8g#)	.	V7
8r	.	8r	.	(16f#LL	.	4r	.	.
.	.	.	.	16eJJ	.	.	.	.
4r	.	4r	.	8d#X)	.	.	.	.
.	.	.	.	8r	.	(16dnLL	.	.
.	.	.	.	.	.	16BJJ	.	.
=17	=17	=17	=17	=17	=17	=17	=17	=17
8r	.	8r	.	8r	.	8G#)	.	V
8EE	.	[4.E	.	(4G#	<	(4b	<	.
8EEL	.	.	.	.	.	.	.	.
8EEJ	.	.	.	16ALL	>	16cc#LL	>	.
.	.	.	.	16G#JJ)	]]	16bJJ)	]]	.
=18	=18	=18	=18	=18	=18	=18	=18	=18
8r	.	2E_	.	(4G#	]	(4b	]	V2
8D	.	.	.	.	.	.	.	.
8C#L	.	.	.	8AL	.	8cc#L	.	I6
8GG#J	.	.	.	8BJ)	.	8ddJ)	.	V65
=19	=19	=19	=19	=19	=19	=19	=19	=19
8AAL	.	8E]	.	8c#	.	8cc#	.	I
8AAJ	.	[4.A [4.a	.	(4c#	<	(4ee	<	.
8AAL	.	.	.	.	.	.	.	.
8AAJ	.	.	.	16dLL	[ >	16ff#LL	[ >	.
.	.	.	.	16c#JJ)	]]	16eeJJ)	]]	.
=20	=20	=20	=20	=20	=20	=20	=20	=20
8r	.	2A_ 2a_	.	(4c#	.	(4ee	.	V2/IV
8Gn	.	.	.	.	.	.	.	.
8F#L	.	.	.	8dL	.	8ff#L	.	IV6
8C#J	.	.	.	8eJ)	.	8ggnJ)	.	V65/IV
=21	=21	=21	=21	=21	=21	=21	=21	=21
!LO:TX:b:i:t=cr\\c.	!	!LO:TX:b:i:t=cresc.	!	!LO:TX:b:i:t=cresc.	!	!LO:TX:b:i:t=cresc.	!	!
8DL	.	(8AL] 8a]	.	(4.d	.	(4ff#	.	IV
8DJ	.	8f#J	.	.	.	.	.	.
8BBL	.	4e)	.	.	.	4gg#X)	.	V64
8EJ	.	.	.	8B	.	.	.	.
=22	=22	=22	=22	=22	=22	=22	=22	=22
8r	.	8C#	.	8e	.	(8gg#	.	vi
8C#	>	4E	>	[4.A	>]	4aa	>	I6
8CC#L	.	.	.	.	.	.	.	.
8DDJ	]]	8F#	]]	.	.	16ff#LL	.	IV
.	.	.	.	.	.	16ddJJ	]]	.
=23	=23	=23	=23	=23	=23	=23	=23	=23
!	!	!	!	!	!LO:DY:a	!	!	!
8EEL	p	8EL	p	8AL])	p p	8cc#'L)	.	V(64)
8DDJ	.	(8F#J	.	(16f#L	.	(16ddL	.	ii6
.	.	.	.	16dJJ	.	16bJJ	.	.
8EEL	.	8EL)	.	8c#L)	.	8aL)	.	V(64)
8EEJ	.	((16EL 16d	.	[8eJ	.	(16bL	.	V7
.	.	16BJJ	.	.	.	16g#JJ	.	.
=24	=24	=24	=24	=24	=24	=24	=24	=24
8AA	.	8E)) 8c#	.	8e]	.	8aL)	.	I\\
4r	.	4r	.	4r	.	(16f#L	.	.
.	.	.	.	.	.	16eJJ	.	.
.	.	.	.	.	.	8d#X)	.	V65
(16BBLL	.	[8E	.	(16dLL	.	8r	.	.
16GG#JJ)	.	.	.	16BJJ	.	.	.	.
=25	=25	=25	=25	=25	=25	=25	=25	=25
!LO:TX:b:t=pizz.	!	!	!	!	!	!	!	!
!LO:TX:b:t=arco	!	!	!	!	!	!	!	!
8EEL	.	8E]	.	8G#)	.	8r	.	V7
8EEJ	.	(4G#	<	(4b	<	(8e	<	.
8EEL	.	.	.	.	.	[4ee)	>]	.
8EEJ	.	16ALL	[ >	16cc#LL	[ >	.	.	.
.	.	16G#JJ)	]]	16bJJ)	]]	.	.	.
=26	=26	=26	=26	=26	=26	=26	=26	=26
8r	.	(4G#	.	(4b	.	(2ee]	]	V65
8D	.	.	.	.	.	.	.	.
8C#L	.	8AL	.	8cc#L	.	.	.	.
8GG#J	.	8BJ)	.	8ddJ)	.	.	.	.
=27	=27	=27	=27	=27	=27	=27	=27	=27
8AAL	.	8A	.	8cc#	.	8ee)	.	I
8AJ	.	(4c#	<	[4.a	.	(4ee	<	.
8AL	.	.	.	.	.	.	.	.
8AJ	.	16dLL	[ >	.	.	16ff#LL	>	.
.	.	16c#JJ)	]]	.	.	16eeJJ)	]]	.
=28	=28	=28	=28	=28	=28	=28	=28	=28
8r	.	(4c#	.	2a]	.	(4ee	]	V2/IV
8Gn	.	.	.	.	.	.	.	.
8F#L	.	8dL	.	.	.	8ff#L	.	IV6
8C#J	.	8eJ)	.	.	.	8ggnJ)	.	V65/IV
=29	=29	=29	=29	=29	=29	=29	=29	=29
!LO:TX:b:i:t=cresc.	!	!LO:TX:b:i:t=cresc.	!	!LO:TX:b:i:t=cresc.	!	!LO:TX:b:i:t=cresc.	!	!
8DL	.	8d	.	(8aL	.	(4ff#	.	IV
8DJ	.	4d	.	8f#J	.	.	.	.
8BBL	.	.	.	[4e)	.	4gg#X)	.	V7
8EJ	.	(8B	.	.	.	.	.	.
=30	=30	=30	=30	=30	=30	=30	=30	=30
8r	.	(8C#)	.	4e]	>	(8gg#	.	vi
8C#	>	4E	>	.	.	4aa	>	I6
8CC#L	.	.	.	[4A	]]	.	.	.
8DDJ	]]	8F#	]]	.	.	16ff#LL	.	IV
.	.	.	.	.	.	16ddJJ	]]	.
=31	=31	=31	=31	=31	=31	=31	=31	=31
8EEL	p	8EL)	p ]	8AL]	p	8cc#'L)	p	V(64)
8DDJ	.	(8F#J	.	(16BL	.	(16ddL	.	ii6
.	.	.	.	16dJJ	.	16bJJ	.	.
8EEL	.	8EL)	.	8c#L)	.	8aL)	.	V(64)
*	*	*^	*	*	*	*	*	*
8EEJ	.	(16dL	8E	.	[8eJ	.	(16bL	.	V7
.	.	16EJJ) 16B	.	.	.	.	16g#JJ)	.	.
*	*	*v	*v	*	*	*	*	*	*
=32	=32	=32	=32	=32	=32	=32	=32	=32
8AA	.	8E 8c#	.	8e]	.	(8a	.	I\\
8r	.	8r	.	8r	.	[4.e)	.	I
8r	.	8r	.	4r	.	.	.	.
!LO:TX:b:t=arco	!	!	!	!	!	!	!	!
[8AA	.	[8C#	.	.	.	.	.	.
=33	=33	=33	=33	=33	=33	=33	=33	=33
4AA]	<	4C#]	<	4A	<	2e_	.	V65
8..GG#L	[ >	8..DL	[ >	8..BL	[ >	.	.	.
32AAJkk	]]	32C#Jkk	]]	32AJkk	]]	.	.	.
=34	=34	=34	=34	=34	=34	=34	=34	=34
8BB	.	8D	.	8G#	.	16eLL]	.	V43
.	.	.	.	.	.	(16ff#	.	.
8r	.	4r	.	4r	.	16ee	.	.
.	.	.	.	.	.	16dd#XJJ	.	.
4r	.	.	.	.	.	16ddnLL	.	.
.	.	.	.	.	.	16b	.	.
.	.	[8D	.	[8B	.	16g#	.	iio6
.	.	.	.	.	.	16fnJJ)	.	.
=35	=35	=35	=35	=35	=35	=35	=35	=35
4GG#	<	4D]	<	4B]	<	[2e	< > ]]	vi7
8..FF#L	[ >	8..EL	[ >	8..c#L	[ >	.	.	.
32GG#Jkk	]]	32DJkk	]]	32BJkk	]]	.	.	.
=36	=36	=36	=36	=36	=36	=36	=36	=36
(16GG#LL	.	(16DLL	.	(16BLL	.	16eLL]	]	I
16AAJJ)	.	16C#JJ)	.	16AJJ)	.	(16ee	.	.
8r	.	8r	.	8r	.	16bb	.	.
.	.	.	.	.	.	16bb-XJJ	.	.
4r	.	4r	.	4r	.	16aaLL	.	.
.	.	.	.	.	.	16ee	.	.
.	.	.	.	.	.	16cc#	.	.
.	.	.	.	.	.	16b-XJJ)	.	.
=37	=37	=37	=37	=37	=37	=37	=37	=37
(4c#	<	2r	.	(4e	<	(4a	<	I6
8..eL	[ >	.	.	8..gnL	[ >	4aa)	[ > ]]	V43/IV
32c#Jkk)	]]	.	.	32e#XJkk)	]]	.	.	.
=38	=38	=38	=38	=38	=38	=38	=38	=38
8d	.	(4dd	<	(8f#L	<	(4ff#	<	IV
8r	.	.	.	8ff#J	.	.	.	.
4r	.	8..cc#L	>	8..eenL	[ >	[4fff#)	[ > ]]	V65/II
.	.	32a#XJkk)	]]	32cc#Jkk)	]]	.	.	.
=39	=39	=39	=39	=39	=39	=39	=39	=39
!	!	!LO:TX:b:i:t=cresc.	!	!LO:TX:b:i:t=cresc.	!	!LO:TX:b:i:t=cresc.	!	!
4r	.	(4b	]	(8dd#XL	.	(8fff#L]	.	V/V
.	.	.	.	16.eeL	.	8ggg#J	.	V43
.	.	.	.	32ddnJJk)	.	.	.	.
4f#	.	8.anL	.	(8cc#L	.	8.aaaL	.	vi
.	.	.	.	8dd#XJ)	p	.	.	.
.	.	16bJk)	p	.	.	16aaJk)	p	V43/V
=40	=40	=40	=40	=40	=40	=40	=40	=40
(16f#KL	.	(8bL	.	(16dd#XLL	.	(16aaLL	.	V
8e)	.	.	.	16ee	.	16gg#	.	.
.	.	16f#L	.	16a	.	16dd#X	.	.
16eJk	.	16BJJ)	.	16g#JJ)	.	16eeJJ)	.	.
!LO:TX:b:i:t=cresc.	!	!LO:TX:b:i:t=cresc.	!	!LO:TX:b:i:t=cresc.	!	!LO:TX:b:i:t=cresc.	!	!
(16eLL	.	(8BL	.	(8.g#L	.	(16.eeLL	.	V2
16d)	.	.	.	.	.	.	.	.
.	.	.	.	.	.	32ff#K)	.	.
(16d	.	16eL	.	.	.	(16.ff#	.	V43
16BJJ)	.	16dJJ)	.	16eeJk)	.	.	.	.
.	.	.	.	.	.	32gg#JJk)	.	.
=41	=41	=41	=41	=41	=41	=41	=41	=41
*	*	*	*	*^	*	*	*	*
(8A	p	(8c#	p	(4cc#	2ee	p	(4aa	p	I
[4.e)	.	8a	.	.	.	.	.	.	.
.	.	[8b	.	[8ddn	.	.	8..gg#	.	V7
.	.	16.bLL]	.	16.ddLL]	.	.	.	.	.
.	.	32aJJk)	.	32cc#JJk)	.	.	32aa)	.	.
*	*	*	*	*v	*v	*	*	*	*
=42	=42	=42	=42	=42	=42	=42	=42	=42
16eLL]	.	8g#	.	8b 8ee	.	8bb	.	V
(16f#JJ	.	.	.	.	.	.	.	.
16eLL	.	8r	.	8r	.	8r	.	.
16d#XJJ	.	.	.	.	.	.	.	.
16dnLL	.	4r	.	4r	.	4r	.	.
16BJJ	.	.	.	.	.	.	.	.
16G#LL	.	.	.	.	.	.	.	.
16FnJJ)	.	.	.	.	.	.	.	.
=43	=43	=43	=43	=43	=43	=43	=43	=43
8E	.	4g#	<	2dd 2ee	.	(4bb	<	V7
8r	.	.	.	.	.	.	.	.
8r	.	8..f#L	[ >	.	.	8..ccc#L	>	.
[8e	.	.	.	.	.	.	.	.
.	.	32g#Jkk	]]	.	.	32bbJkk)	]]	.
=44	=44	=44	=44	=44	=44	=44	=44	=44
16eKL]	.	8a	.	8cc# 8ee	.	8aa	]	I
(8a	.	.	.	.	.	.	.	.
.	.	8r	.	8r	.	8r	.	.
16g#Jk	.	.	.	.	.	.	.	.
16gnLL	.	4r	.	4r	.	4r	.	.
16eJJ	.	.	.	.	.	.	.	.
16c#LL	.	.	.	.	.	.	.	.
16B-XJJ)	.	.	.	.	.	.	.	.
=45	=45	=45	=45	=45	=45	=45	=45	=45
(16ALL	.	2r	.	2r	.	(8ee	<	V/IV
16GnJJ	.	.	.	.	.	.	.	.
16ELL	.	.	.	.	.	[8ggn)	.	V/IV
16DJJ	.	.	.	.	.	.	.	.
16C#LL	.	.	.	.	.	(8.ggL]	[ >	.
16AJJ	.	.	.	.	.	.	.	.
16ELL	.	.	.	.	.	.	.	.
16C#JJ)	.	.	.	.	.	32ff#LL	.	.
.	.	.	.	.	.	32ee#XJJJ)	]]	.
=46	=46	=46	=46	=46	=46	=46	=46	=46
8D	.	16r	.	(8f#	<	(16ee#XLL	.	IV
.	.	(16d	.	.	.	16ff#JJ)	.	.
8r	.	16c#LL	.	[8ee)	.	8r	.	.
.	.	16BJJ	.	.	.	.	.	.
4r	.	16A#XLL	.	(8.eeL]	[ >	4r	.	V65/II
.	.	16f#JJ	.	.	.	.	.	.
.	.	16c#LL	.	.	.	.	.	.
.	.	16A#JJ)	.	32dd#XLL	.	.	.	.
.	.	.	.	32cc#JJJ)	]]	.	.	.
=47	=47	=47	=47	=47	=47	=47	=47	=47
8r	.	(16BLL	.	(16cc#LL	.	2r	.	V43/V
.	.	16f#JJ)	.	16dd#XJJ)	.	.	.	.
(16GG#LL	.	8r	.	(16cc#LL	.	.	.	.
16EJJ)	.	.	.	16ddnJJ)	.	.	.	.
8r	.	(16G#LL	.	(16bLL	.	.	.	.
.	.	16AnJJ)	.	16cc#JJ)	.	.	.	.
(16FF#LL	.	(16ALL	.	(16cc#LL	.	.	.	.
16D#XJJ)	.	16f#JJ)	.	32bL	.	.	.	.
.	.	.	.	32aJJJ)	.	.	.	.
=48	=48	=48	=48	=48	=48	=48	=48	=48
8r	.	(16ELL	.	(16bLL	.	(16gg#LL	.	V[V
.	.	16eJJ)	.	16cc#JJ)	.	16aaJJ)	.	.
(16EELL	.	8r	.	(16cc#LL	.	(16aaLL	.	I
16EJJ)	.	.	.	32bL	.	32gg#L	.	.
.	.	.	.	32aJJJ)	.	32ff#JJJ)	.	.
8r	.	(16ELL	.	(16aLL	.	(16ff#LL	.	V43/V
.	.	16eJJ)	.	32g#L	.	32eeL	.	.
.	.	.	.	32f#JJJ)	.	32dd#XJJJ)	.	.
(16EELL	.	(16ALL	.	(16f#LL	.	(16dd#LL	.	V2/V]
16EJJ)	.	32F#L	.	32d#XL	.	32ff#L	.	.
.	.	32G#JJJ)	.	32eJJJ)	.	32eeJJJ)	.	.
=49	=49	=49	=49	=49	=49	=49	=49	=49
!	!	!LO:TX:b:i:t=cresc.	!	!LO:TX:b:i:t=cresc.	!	!LO:TX:b:i:t=cresc.	!	!
4r	.	(16.DLL	.	(16.BLL	.	[2eee	.	V2
.	.	32C#JJk)	.	32A#XJJk)	.	.	.	.
.	.	(16.C#LL	.	(16.A#LL	.	.	.	.
.	.	32DJJk)	.	32BJJk)	.	.	.	.
*clefC4	*	*	*	*	*	*	*	*
!LO:TX:b:i:t=cresc.	!	!	!	!	!	!	!	!
(8e	.	(16.DLL	.	(16.BLL	.	.	.	.
.	.	32A#XJJk)	.	32c#JJk)	.	.	.	.
(16.eLL)	.	(16.A#LL	.	(16.c#LL	.	.	.	.
32G#JJk)	.	32BJJk)	.	32dnJJk)	.	.	.	.
=50	=50	=50	=50	=50	=50	=50	=50	=50
(16.G#LL	.	8B	.	8d	.	8eee]	.	V65
32AJJk)	.	.	.	.	.	.	.	.
(16.BLL	.	(16.G#LL	.	8r	.	(16.bbLL	.	.
32c#JJk)	.	32AnJJk)	.	.	.	32aaJJk)	.	.
(16.dLL	.	8B	.	8r	.	(16aaLL	.	.
.	.	.	.	.	.	32gg#L	.	.
32eJJk)	.	.	.	.	.	32ff#JJJ)	.	.
!	!	!	!	!	!LO:DY:a	!	!	!
(16.f#LL	p	8B	p	(16.anLL	p p	(16ff#LL	.	V7/V
.	.	.	.	.	.	32dd#XL	.	.
32g#JJk)	.	.	.	32bJJk)	.	32eeJJJ)	.	.
=51	=51	=51	=51	=51	=51	=51	=51	=51
!LO:TX:b:i:t=cresc.	!	!LO:TX:b:i:t=cresc.	!	!LO:TX:b:i:t=cresc.	!	!LO:TX:b:i:t=cresc.	!	!
[2a	.	8A	.	(16.c#LL	.	(16.eeLL	.	I
.	.	.	.	32B#XJJk)	.	32dd#XJJk)	.	.
.	.	(16.ALL	.	(16.B#LL	.	(16.dd#LL	.	.
.	.	32GnJJk)	.	32c#JJk)	.	32eeJJk)	.	.
.	.	(16.GLL	.	(16.c#LL	.	(16.eeLL	.	V2/IV
.	.	32F#JJk)	.	32dJJk)	.	32ff#JJk)	.	.
.	.	(16.F#LL	.	(16.dLL	.	(16.ff#LL	.	IV6
.	.	32C#JJk)	.	32eJJk)	.	32ggnJJk)	.	.
=52	=52	=52	=52	=52	=52	=52	=52	=52
(16aLL]	.	8C#	.	8e	.	(16.ggnLL	.	V65/IV
32gnL	.	.	.	.	.	.	.	.
32f#JJJ)	.	.	.	.	.	32aaJJk)	.	.
(16eLL	.	8r	.	(16gnLL	.	(16.bbLL	.	.
32dL	.	.	.	32f#L	.	.	.	.
32c#JJJ)	.	.	.	32eJJJ)	.	32ccc#JJk)	.	.
(16c#LL	.	8r	.	(16eLL	.	(16.dddnLL	.	.
32BL	.	.	.	32dL	.	.	.	.
32AJJJ)	.	.	.	32c#JJJ)	.	32eeeJJk)	.	.
*clefF4	*	*	*	*	*	*	*	*
(16C#LL	.	(16ELL	.	32c#LLL	.	(16.fff#LL	.	.
.	.	.	.	(32cc#	.	.	.	.
32BBL	.	32DL	.	32dd	.	.	.	.
32AAJJJ)	.	32C#JJJ)	.	32eeJJJ)	.	32gggnJJk)	.	.
=53	=53	=53	=53	=53	=53	=53	=53	=53
!LO:TX:b:i:t=cresc.	!	!	!	!LO:TX:b:i:t=cresc.	!	!LO:TX:b:i:t=cresc.	!	!
(32AALLL	p	(32C#LLL	.	8ff#	p	4.fff#	p	IV
32A	.	32c#	p	.	.	.	.	.
32B	.	32d	.	.	.	.	.	.
32c#JJJ)	.	32eJJJ)	.	.	.	.	.	.
*clefC4	*	*	*	*	*	*	*	*
!	!	!LO:TX:b:i:t=cresc.	!	!	!	!	!	!
[8d	.	[8f#	.	(16ff#LL	.	.	.	.
.	.	.	.	32eeL	.	.	.	.
.	.	.	.	32ddJJJ)	.	.	.	.
(16.dLL]	.	(16.f#LL]	.	[4dd	.	.	.	.
32eJJk)	.	32g#JJk)	.	.	.	.	.	.
[8e	.	[8g#	.	.	.	(16fff#LL	.	V7
.	.	.	.	.	.	32eeeL	.	.
.	.	.	.	.	.	32dddJJJ)	.	.
=54	=54	=54	=54	=54	=54	=54	=54	=54
(16.eLL]	.	(16.g#LL]	.	8dd]	.	4.ddd	.	IV6
32f#JJk)	.	32aJJk)	.	.	.	.	.	.
8f#	.	8a	.	(16ff#LL	.	.	.	.
.	.	.	.	32eeL	.	.	.	.
.	.	.	.	32ddJJJ)	.	.	.	.
*clefF4	*	*	*	*	*	*	*	*
(16.FF#LL	.	(16.ALL	.	8dd	.	.	.	.
32GG#JJk)	.	32BJJk)	.	.	.	.	.	.
8GG#	>]	8B	>]	(16ddLL	>	(16fff#LL	>	V65
.	.	.	.	32cc#L	.	32eeeL	.	.
.	.	.	.	32bJJJ)	]]	32dddJJJ)	]]	.
=55	=55	=55	=55	=55	=55	=55	=55	=55
!	!	!	!	!	!	!LO:TX:b:i:t=dolce	!	!
(16GG#LL	p	(16BLL	p	(16bLL	p	(16dddLL	p	I
16AAJJ)	.	16EJJ)	.	16cc#JJ)	.	32ccc#L	.	.
.	.	.	.	.	.	32eeeJJJ)	.	.
(16AA#XLL	.	(16F#LL	.	(16cc#LL	.	(16eeeLL	.	V65/vi
16BBJJ)	.	16dJJ)	.	16f#JJ)	.	32ff#L	.	vi
.	.	.	.	.	.	32dddJJJ)	.	.
(16GG#LL	.	(16ELL	.	(16bLL	.	(16dddLL	.	V65
16AAnJJ)	.	16c#JJ)	.	16eJJ)	.	32eeL	.	I
.	.	.	.	.	.	32ccc#JJJ)	.	.
(16EELL	.	(16c#LL	.	(16aLL	.	(16ccc#LL	.	V
16EJJ)	.	16BJJ)	.	16g#JJ)	.	32eeL	.	.
.	.	.	.	.	.	32eeeJJJ)	.	.
=56	=56	=56	=56	=56	=56	=56	=56	=56
(16EELL	.	(16BLL	.	(16g#LL	.	(16eeeLL	.	.
16AAJJ)	.	16c#JJ)	.	16aJJ)	.	32dddL	.	I
.	.	.	.	.	.	32ccc#JJJ)	.	.
8r	.	8r	.	(16eeLL	.	(16ccc#LL	.	.
.	.	.	.	32ddL	.	32bbL	.	.
.	.	.	.	32cc#JJJ)	.	32aaJJJ)	.	.
.	.	.	.	.	.	32qqaa/LLL	.	I6
.	.	.	.	.	.	32qqbb/JJJ	.	.
4r	.	(16eeLL	.	(16cc#LL	.	(16aaLL	.	.
.	.	32ddL	.	32bL	.	32gg#L	.	.
.	.	32cc#JJJ)	.	32aJJJ)	.	32aaJJJ)	.	.
.	.	(16ddLL	.	8g#	.	[8bb	.	V65
.	.	32cc#L	.	.	.	.	.	.
.	.	32ddJJJ)	.	.	.	.	.	.
=57	=57	=57	=57	=57	=57	=57	=57	=57
!LO:TX:b:i:t=cresc.	!	!LO:TX:b:i:t=cresc.	!	!LO:TX:b:i:t=cresc.	!	!LO:TX:b:i:t=cresc.	!	!
[4e	.	[4g#	.	(16.ddLL	.	(16.bbLL]	.	V7
.	.	.	.	32cc#JJk)	.	32aa#XJJk)	.	.
.	.	.	.	(16.cc#LL	.	(16.aa#LL	.	.
.	.	.	.	32ddJJk)	.	32bbJJk)	.	.
(8..eL]	.	(16.g#LL]	.	[4dd	.	(16.bbLL	.	.
.	.	32a#XJJk)	.	.	.	32ccc#JJk)	.	.
.	.	(16.a#LL	.	.	.	(16.ccc#LL	.	.
32G#Jkk)	.	32bJJk)	.	.	.	32dddJJk)	.	.
=58	=58	=58	=58	=58	=58	=58	=58	=58
(16.G#LL	.	(16.BLL	.	16ddLL]	.	8ddd	.	V65
.	.	.	.	32dddL	.	.	.	.
32AJJk)	.	32c#JJk)	.	32ccc#JJJ	.	.	.	.
(16.BLL	.	(16.dLL	.	(16ccc#LL	.	8r	.	.
.	.	.	.	32bbL	.	.	.	.
32c#JJk)	.	32eJJk)	.	32aaJJJ)	.	.	.	.
(16.dLL	.	(16.f#LL	.	(16aaLL	.	8r	.	.
.	.	.	.	32gg#L	.	.	.	.
32eJJk)	.	32g#JJk)	.	32ff#JJJ)	.	.	.	.
(16.f#LL	p	(16.anLL	p	(16ff#LL	p	(16.ddd#XLL	p	.
.	.	.	.	32eeL	.	.	.	.
32g#JJk)	.	32bJJk)	.	32ddJJJ)	.	32eeeJJk)	.	.
=59	=59	=59	=59	=59	=59	=59	=59	=59
!LO:TX:b:i:t=cresc.	!	!LO:TX:b:i:t=cresc.	!	!LO:TX:b:i:t=cresc.	!	!LO:TX:b:i:t=cresc.	!	!
(8a	.	16r	.	(16.cc#LL	.	(16.eeeLL	.	I
.	.	16A	.	.	.	.	.	.
.	.	.	.	32b#XJJk)	.	32ddd#XJJk)	.	.
[8gn)	.	[4.A [4.a	.	(16.b#LL	.	(16.ddd#LL	.	V7/IV
.	.	.	.	32cc#JJk)	.	32eeeJJk)	.	.
(16.gLL]	.	.	.	(16.cc#LL	.	(16.eeeLL	.	.
32f#JJk)	.	.	.	32ddJJk)	.	32fff#JJk)	.	.
(16.f#LL	.	.	.	(16.ddLL	.	(16.fff#LL	.	IV64
32c#JJk)	.	.	.	32eeJJk)	.	32gggnJJk)	.	.
=60	=60	=60	=60	=60	=60	=60	=60	=60
16c#LL	.	16ALL] 16a]	.	(16eeLL	.	(32gggnLLL	.	V65/IV
.	.	.	.	.	.	32a	.	.
(32EL	.	(32GnL	.	32cc#L	.	32aa	.	.
32DJJJ)	.	32F#JJJ)	.	32ddJJJ)	.	32bbJJJ)	.	.
(16DLL	.	(16F#LL	.	(16eeLL	.	(16ccc#LL	.	.
32C#L	.	32EL	.	32ff#L	.	32dddnL	.	.
32BBJJJ)	.	32DJJJ)	.	32ggnJJJ)	.	32eeeJJJ)	.	.
(16BBLL	.	(16dLL	.	(16ggLL	.	(16eeeLL	.	.
32AAL	.	32c#L	.	32ff#L	.	32fff#L	.	.
32GGnJJJ)	.	32BJJJ)	.	32eeJJJ)	.	32gggJJJ)	.	.
(16GGLL	.	(16BLL	.	(16eeLL	.	(16gggLL	.	.
32FF#L	.	32AL	.	32ddL	.	32ggg#XL	.	.
32EEJJJ)	.	32GJJJ)	.	32cc#JJJ)	.	32aaaJJJ)	.	.
=61	=61	=61	=61	=61	=61	=61	=61	=61
!LO:TX:b:i:t=cresc.	!	!LO:TX:b:i:t=cresc.	!	!LO:TX:b:i:t=cresc.	!	!	!	!
16.DDLL	p	(16.F#LL	p	(16ff#LL	p	(16.aaaLL	p	IV
.	.	.	.	32eeL	.	.	.	.
32F#JJk	.	32AJJk)	.	32ddJJJ)	.	32aaJJk)	.	.
!	!	!	!	!	!	!LO:TX:b:i:t=cresc.	!	!
(16.F#LL	.	[8d	.	(16ddLL	.	(16.aaLL	.	.
.	.	.	.	32eeL	.	.	.	.
32G#XJJk)	.	.	.	32ddJJJ)	.	32bbJJk)	.	.
4GG#	.	(16dLL]	.	8dd	.	[4bb	.	V65
.	.	32eL	.	.	.	.	.	.
.	.	32dJJJ)	.	.	.	.	.	.
.	.	(16f#LL	.	8r	.	.	.	.
.	.	32eL	.	.	.	.	.	.
.	.	32dJJJ)	.	.	.	.	.	.
=62	=62	=62	=62	=62	=62	=62	=62	=62
(16.G#LL	.	8c#	.	16r	.	(16.bbLL]	.	.
.	.	.	.	(32ddLLL	.	.	.	.
32AJJk)	.	.	.	32cc#JJJ	.	32ccc#JJk)	.	.
8AA	.	8r	.	16eeLL	.	[8ccc#	.	I
.	.	.	.	32ddL	.	.	.	.
.	.	.	.	32cc#JJJ)	.	.	.	.
(16.ALL	.	16r	.	8dd	.	(16.ccc#LL]	.	.
.	.	(32aLLL	.	.	.	.	.	.
32BJJk)	.	32g#JJJ	.	.	.	32dddJJk)	.	.
8BB	>]	16bLL	>	8r	.	[8ddd	>]	V43
.	.	32aL	.	.	.	.	.	.
.	.	32g#JJJ)	]]	.	.	.	.	.
=63	=63	=63	=63	=63	=63	=63	=63	=63
(32BLLL	p	(16aLL	p	16r	p	(32dddLLL]	p	I6
32B#X)	.	.	.	.	.	32ddd#X	.	.
(32B#	.	32f#L	.	(32aLLL	.	32ddd#	.	.
32c#JJJ)	.	32eJJJ)	.	32eeJJJ)	.	32eeeJJJ)	.	.
(32c#LLL	.	16a#XLL	.	(32eeLLL	.	(32eeeLLL	.	V43/vi
32f#)	.	.	.	32cc#)	.	32ff#)	.	.
(32e	.	(32a#L	.	(32cc#	.	(32ccc#	.	.
32dJJJ)	.	32f#JJJ)	.	32bJJJ)	.	32dddnJJJ)	.	vi6
(32BnLLL	.	16g#LL	.	(32ddLLL	.	(32dddLLL	.	V43
32e)	.	.	.	32b)	.	32ee)	.	.
(32d	.	(32g#L	.	(32b	.	(32bb	.	.
32c#JJJ)	.	32eJJJ)	.	32aJJJ)	.	32ccc#JJJ)	.	I6
(32ELLL	.	(32eLLL	.	(32aLLL	.	(32ccc#LLL	.	V(64)
32G#)	.	32B)	.	32b)	.	32ee)	.	.
(32F#	.	(32B	.	(32a	.	(32ddd#X	.	V7/V
32EJJJ)	.	32G#JJJ)	.	32bJJJ)	.	32eeeJJJ)	.	V
=64	=64	=64	=64	=64	=64	=64	=64	=64
!	!	!	!	!	!	!LO:TX:b:i:t=dim.	!	!
(32AALLL	.	(32eLLL	.	(32cc#LLL	.	(16eeeLL	.	I\\
32C#)	.	32c#)	.	32a)	.	.	.	.
(32BB	.	(32d	.	(32g#	.	32dddnL	.	.
32AAJJJ)	.	32AnJJJ)	.	32aJJJ)	.	32ccc#JJJ)	.	.
8r	.	8r	.	8r	.	(16ccc#LL	.	.
.	.	.	.	.	.	32bbL	.	.
.	.	.	.	.	.	32aaJJJ)	.	.
4r	.	4r	.	4r	.	(16aaLL	.	.
.	.	.	.	.	.	32ff#L	.	.
.	.	.	.	.	.	32dd#XJJJ)	.	.
.	.	.	.	.	.	(16ddnLL	.	.
.	.	.	.	.	.	32bL	.	.
.	.	.	.	.	.	32eeJJJ)	.	.
=65||	=65||	=65||	=65||	=65||	=65||	=65||	=65||	=65||
*M4/4	*	*M4/4	*	*M4/4	*	*M4/4	*	*
*met(c)	*	*met(c)	*	*met(c)	*	*met(c)	*	*
!	!	!	!	!	!	!LO:TX:a:B:t=Più mosso.	!	!
1r	.	8AL	.	8c#L 8e	pp	4a	pp	I
.	.	8r	pp	8r	.	.	.	.
.	.	8AJ	.	8c#J 8e	.	4r	.	.
.	.	8r	.	8r	.	.	.	.
.	.	8AL	.	8c#L 8e	.	2r	.	.
.	.	8r	.	8r	.	.	.	.
.	.	8AJ	.	8c#J 8e	.	.	.	.
.	.	8r	.	8r	.	.	.	.
=66	=66	=66	=66	=66	=66	=66	=66	=66
1r	.	8AL	.	8c#L 8e	.	8r	.	I
.	.	8r	.	8r	.	(8eeL	<	.
.	.	8AJ	.	8c#J 8e	.	8aa	.	.
.	.	8r	.	8r	.	8gg#J	.	.
.	.	8AL	.	8c#L 8e	.	8aaL	[ >	.
.	.	8r	.	8r	.	8ee	.	.
.	.	8AJ	.	8c#J 8e	.	8ccc#	.	.
.	.	8r	.	8r	.	8aaJ)	]]	.
=67	=67	=67	=67	=67	=67	=67	=67	=67
1r	.	8G#L	.	8BL 8e	.	4ddd	.	V65
.	.	8r	.	8r	.	.	.	.
.	.	8G#J	.	8BJ 8e	.	4r	.	.
.	.	8r	.	8r	.	.	.	.
.	.	8G#L	.	8BL 8e	.	2r	.	.
.	.	8r	.	8r	.	.	.	.
.	.	8G#J	.	8BJ 8e	.	.	.	.
.	.	8r	.	8r	.	.	.	.
=68	=68	=68	=68	=68	=68	=68	=68	=68
8r	pp	8G#L	.	8BL 8e	.	1r	.	V43
(8EEL	<	8r	.	8r	.	.	.	.
8BB	.	8G#J	.	8BJ 8e	.	.	.	.
8AA#XJ	.	8r	.	8r	.	.	.	.
8BBL	[ >	8G#L	.	8BL 8e	.	.	.	.
8EE	.	8r	.	8r	.	.	.	.
8D	.	8G#J	.	8BJ 8e	.	.	.	.
8BBJ)	]]	8r	.	8r	.	.	.	.
=69	=69	=69	=69	=69	=69	=69	=69	=69
4E	.	8C#L	.	8AL 8e	.	1r	.	I6
.	.	8r	.	8r	.	.	.	.
4r	.	8C#J	.	8AJ 8e	.	.	.	.
.	.	8r	.	8r	.	.	.	.
2r	.	8C#L	.	8AL 8e	.	.	.	.
.	.	8r	.	8r	.	.	.	.
.	.	8C#J	.	8AJ 8e	.	.	.	.
.	.	8r	.	8r	.	.	.	.
=70	=70	=70	=70	=70	=70	=70	=70	=70
4r	.	8C#L	.	8AL 8e	.	8r	.	.
.	.	8r	.	8r	.	(8aaL	.	.
8a	.	8C#J	.	8AJ 8e	.	8aaa	.	.
8r	.	8r	.	8r	.	8ggg#J	.	.
8aL	.	8C#L	.	8AL 8e	.	8aaaL	.	V65/IV
8r	.	8r	.	8r	.	8gggn	.	.
8CC#J	.	8C#J	.	8AJ 8a	.	8eee	.	.
8r	.	8r	.	8r	.	8fffnJ	.	.
=71	=71	=71	=71	=71	=71	=71	=71	=71
4r	.	8DL	.	8dL 8f#	.	8fff#X'L)	.	IV
.	.	8r	.	8r	.	(8ff#	.	.
*clefC4	*	*	*	*	*	*	*	*
8f#	.	8A#XJ	.	8c#J	.	8fff#	.	V65/II
8r	.	8r	.	8r	.	8fffnJ	.	.
8f#L	.	8A#L	.	8c#L	.	8fff#XL	.	.
8r	.	8r	.	8r	.	8eee	.	.
*clefF4	*	*	*	*	*	*	*	*
8FF#J	.	8A#J	.	8c#J	.	8ccc#	.	V7/II
8r	.	8r	.	8r	.	8eeeJ	.	.
=72	=72	=72	=72	=72	=72	=72	=72	=72
8FF#L	.	8AnL	.	8BL	.	8ddd#X'L)	.	V65/V
8r	.	8r	.	8r	.	(8bb	.	.
8EEJ	.	8G#J	.	8eJ 8b	.	8eee	.	V7
8r	.	8r	.	8r	.	8dddnJ	.	.
8AAL	.	8AL	.	8e 8cc#	.	8ccc#'L)	.	I
8r	.	8r	.	8r	.	8bb	.	.
8FF#J	.	8F#J 8A	.	8dd#X	.	8ccc#	.	V43(+9)/V
8r	.	8r	.	8r	.	8aaJ	.	.
=73	=73	=73	=73	=73	=73	=73	=73	=73
8EEL	.	8EL 8B	.	8eeL	.	(8aaL	.	V[V
8r	.	8r	.	8r	.	8gg#	.	.
*clefC4	*	*	*	*	*	*	*	*
8eJ	.	8F#J 8B	.	8aJ	.	8aa	.	V7(4)/V
8r	.	8r	.	8r	.	8ff#J)	.	.
8eL	.	8G#L 8B	.	8bL	.	(8ff#L	.	V
8r	.	8r	.	8r	.	8ee	.	.
8eJ	.	8EJ 8B	.	8ddnJ	.	8ff#	.	V7
8r	.	8r	.	8r	.	8gg#J)	.	.
=74	=74	=74	=74	=74	=74	=74	=74	=74
8e	.	8AL	.	4cc#	.	8aaL	.	I
8r	.	8r	.	.	.	8r	.	.
!	!	!	!	!	!LO:DY:a	!	!	!
4r	.	8c#J 8e	pp	4r	pp	8cc#J 8ee	.	I6
.	.	8r	.	.	.	8r	.	.
2r	.	8c#L 8e	.	8r	.	8cc#L 8ee	.	.
.	.	8r	.	(8eL	<	8r	.	.
.	.	8c#J 8e	.	8a	>	8cc#J 8ee	.	.
.	.	8r	.	8g#J)	] ]]	8r	.	.
=75	=75	=75	=75	=75	=75	=75	=75	=75
8r	.	8c#L 8e	.	4a	.	8cc#L 8ee	.	.
(8EEL	<	8r	.	.	.	8r	.	.
8AA	.	8c#J 8e	.	4r	.	8cc#J 8ee	.	.
8GG#J	.	8r	.	.	.	8r	.	.
8AAL	[ >	8c#L 8e	.	2r	.	8cc#L 8ee	.	.
8EE	.	(8A	<	.	.	8r	.	.
8C#	.	8e	>	.	.	8cc#J 8ee	.	I
8AAJ)	]]	8c#J)	] ]]	.	.	8r	.	.
=76	=76	=76	=76	=76	=76	=76	=76	=76
4D	.	8EL 8B	.	2r	.	8g#L 8ee	.	V2
.	.	8r	.	.	.	8r	.	.
4r	.	8g#J 8b	.	.	.	8ddJ 8ee	.	V65
.	.	8r	.	.	.	8r	.	.
2r	.	8g#L 8b	.	8r	.	8ddL 8ee	.	.
.	.	8r	.	(8eL	<	8r	.	.
.	.	8G#J	.	8b	>	8ddJ 8ee	.	.
.	.	8r	.	8a#XJ)	] ]]	8r	.	.
=77	=77	=77	=77	=77	=77	=77	=77	=77
8r	.	8G#L	.	8bL	.	8ddL 8ee	.	.
(8EEL	<	8r	.	8r	.	8r	.	.
8BB	.	8G#J	.	8eJ 8dd	.	8ddJ 8ee	.	.
8AA#XJ	.	8r	.	8r	.	8r	.	.
8BBL	[ >	8G#L	.	8eL 8dd	.	8ddL 8ee	.	.
8EE	.	(8E	<	8r	.	8r	.	.
8D	.	8B	>	8eJ	.	8g#J 8ee	.	V43
8BBJ)	]]	8G#J)	] ]]	8r	.	8r	.	.
=78	=78	=78	=78	=78	=78	=78	=78	=78
8EL	.	8c#L	.	8eL	.	8aL 8ee	.	I64
(8An	p	8r	.	8r	.	8r	.	.
8a	.	8cc#J	.	8eeJ	.	8ccc#J	.	.
8g#J	.	8r	.	8r	.	8r	.	.
8aL	.	8cc#L	.	8eeL	.	8ccc#L	.	V2/IV
8gn	.	8r	.	(8a	.	8r	.	.
8e	.	8aJ	.	8cc#	.	8ccc#J	.	V43/IV
8fnJ	.	8r	.	8aJ)	.	8r	.	.
=79	=79	=79	=79	=79	=79	=79	=79	=79
8f#X'L)	.	8aL	.	8ddL	.	8dddL	.	IV6
(8F#	.	8r	.	8r	.	8r	.	.
8f#	.	8a#XJ	.	8cc#J	.	8aa#XJ	.	VI
8fnJ	.	8r	.	8r	.	8r	.	.
8f#XL	.	8r	.	8cc#L	.	8aa#L	.	V2/II
8e	.	(8f#L	.	8r	.	8r	.	.
8c#	.	8a#	.	8cc#J	.	8aa#J	.	.
8eJ	.	8f#J)	.	8r	.	8r	.	.
=80	=80	=80	=80	=80	=80	=80	=80	=80
8d#X'L)	.	8f#L	.	8bL	.	8bbL	.	V6/V
(8B	.	8r	.	(8g#	.	8r	.	.
8e	.	8g#J	.	8b	.	8bbJ	.	V2
8dnJ	.	8r	.	8g#J	.	8r	.	.
8c#L)	.	8anL	.	8eeL)	.	8ccc#L	.	I6
(8B	.	8r	.	(8dd	.	8r	.	.
8c#	.	8aJ	.	8ee	.	8ccc#J	.	I
8AJ)	.	8r	.	8cc#J)	.	8r	.	.
=81	=81	=81	=81	=81	=81	=81	=81	=81
(8AL	.	8aL	.	(8cc#L	.	8ccc#L	.	.
8G#	.	8r	.	8b	.	8r	.	.
8A	.	8aJ	.	8cc#	.	8eeeJ	.	vi7
8F#J)	.	8r	.	8aJ)	.	8r	.	.
*clefF4	*	*	*	*	*	*	*	*
(8F#L	.	8eL 8b	.	(8aL	.	8eeeL	.	V
8E	.	8r	.	8g#	.	8r	.	.
8BB	.	8G#J 8e	.	8b	.	8eeeJ	.	V6
8GG#J)	.	8rA	.	8eeJ)	.	8rg	.	.
=82	=82	=82	=82	=82	=82	=82	=82	=82
!LO:TX:b:i:t=cresc.	!	!LO:TX:b:i:t=cresc.	!	!LO:TX:b:i:t=cresc.	!	!LO:TX:b:i:t=cresc.	!	!
(8FF#L	.	8G#L 8B	.	(8gg#L	.	8eeeL	.	V
8EE	.	8r	.	8bb	.	8r	.	.
8GG#	.	8G#J 8B	.	8gg#	.	8eeeJ	.	V6
8BBJ	.	8r	.	[8eeJ	.	8r	.	.
8DL	.	8G#L 8B	.	8eeL]	.	8eeeL	.	V2
8E	.	8r	.	8b	.	8r	.	.
8G#	.	8G#J 8B	.	8g#	.	8eeeJ	.	V65
8BJ	.	8r	.	8eJ	.	8rg	.	.
=83	=83	=83	=83	=83	=83	=83	=83	=83
8c#L	.	8G#L 8e	.	8BL	.	8eeeL	.	V2
8d	.	8r	.	8G#J)	.	(8e	.	.
8B	.	8EJ	.	(12c#L	.	8g#	.	V7
.	.	.	.	12d	.	.	.	.
8G#J	.	8r	.	.	.	8bJ	.	.
.	.	.	.	12BJ)	.	.	.	.
8EL	.	8G#L 8B	.	4r	.	8eeL	.	V2
8D	.	8r	.	.	.	8gg#	.	.
8BB	.	8G#J 8B	.	(12cc#L	.	8bb	.	V65
.	.	.	.	12dd	.	.	.	.
8GG#J)	.	8rA	.	.	.	[8eeeJ)	.	.
.	.	.	.	12bJ)	.	.	.	.
=84	=84	=84	=84	=84	=84	=84	=84	=84
(8GGnL	.	8C#L 8A	.	(8eeL	.	8eeeL]	.	V2/IV
8CC#	.	8r	.	8e	.	(8gggn	.	.
8EE	.	8C#J 8A	.	8gn	.	8eee	.	.
8GGJ	.	8r	.	8aJ	.	8ccc#J	.	.
8AAL	.	8C#L 8A	.	8cc#L	.	8aaL	.	V7/IV
8C#	.	8r	.	8ee	.	8ggn	.	.
8E	.	8C#J 8A	.	8ggn	.	8ee	.	.
8GnJ	.	8rA	.	8aaJ	.	8cc#J	.	.
=85	=85	=85	=85	=85	=85	=85	=85	=85
8AL	.	8EL 8A	.	8ccc#L	.	8gnL	.	V7/IV
8Gn	.	8r	.	8eeeJ)	.	8cc#	.	.
8E	.	8GnJ 8A	.	(12f#L	.	8ee	.	.
.	.	.	.	12gn	.	.	.	.
8C#J	.	8r	.	.	.	8ggnJ	.	.
.	.	.	.	12eJ)	.	.	.	.
8AAL	.	8EL 8A	.	4r	.	8ccc#L	.	.
8GGn	.	8r	.	.	.	8eee)	.	.
8EE	.	8EJ 8A	.	(12ff#L	.	8gggn	.	.
.	.	.	.	12ggn	.	.	.	.
8CC#J)	.	8r	.	.	.	8gggJ	.	.
.	.	.	.	12eeJ)	.	.	.	.
=86	=86	=86	=86	=86	=86	=86	=86	=86
!	!LO:DY:a	!	!	!	!	!	!	!
8DDL	f f	8DL 8d	.	8ff#L	f	8fff#L	f	IV
(8AA	.	(8A	.	(8A	.	(8a	.	.
8D	.	8d	.	8d	.	8dd	.	.
8C#J	.	8c#J	.	8c#J	.	8cc#J	.	.
8DL	.	8dL	.	8dL	.	8ddL	.	.
8F#	.	8f#	.	8f#	.	8ff#	.	.
8G#X	sf	8g#X	sf	8g#X	sf	8gg#X	sf	.
8EJ)	.	8eJ)	.	8eJ)	.	8eeJ)	.	.
=87	=87	=87	=87	=87	=87	=87	=87	=87
(8AAL	.	(8AL	.	(8aL	.	(8aaL	.	.
8AA#X	.	8A#X	.	8a#X	.	8aa#X	.	.
8BB	sf	8B	sf	8b	sf	8bb	sf	.
8GG#J)	.	8G#J)	.	8g#J)	.	8gg#J)	.	.
(8BB#XL	.	(8B#XL	.	(8b#XL	.	(8bb#XL	.	.
8C#	.	8c#	.	8cc#	.	8ccc#	.	.
8D	sf	8d	sf	8dd	sf	8ddd	sf	.
8BBnJ)	.	8BnJ)	.	8bnJ)	.	8bbnJ)	.	.
=88	=88	=88	=88	=88	=88	=88	=88	=88
(8D#XL	.	(8d#XL	.	(8dd#XL	.	(8ddd#XL	.	.
8E	.	8e	.	8ee	.	8eee	.	.
8F#	sf	8f#	sf	8ff#	sf	8fff#	sf	.
8DnJ)	.	8dnJ)	.	8ddnJ)	.	8dddnJ)	.	.
(8C#L	.	(8c#L	.	(8cc#L	.	(8ccc#L	.	.
8BB	.	8B	.	8b	.	8bb	.	.
!	!LO:DY:a	!	!	!	!	!	!	!
8E	sf sf	8e	.	8ee	sf	8eee	sf	V
8EEJ)	.	8EJ)	.	8eJ)	.	8eeJ)	.	.
=89	=89	=89	=89	=89	=89	=89	=89	=89
8AA	.	8A	.	8aL	.	(8aaL	sf	I\\
8r	.	8r	.	8r	.	8aJ)	.	.
4r	.	4r	.	(8ee	sf	4r	.	.
.	.	.	.	8eJ)	.	.	.	.
4r	.	(8eL	sf	2r	.	2r	.	.
.	.	8EJ)	.	.	.	.	.	.
(8EL	sf	4r	.	.	.	.	.	.
8EEJ)	.	.	.	.	.	.	.	.
=90	=90	=90	=90	=90	=90	=90	=90	=90
(8FF#L	p	4r	.	8G#L	p	8r	.	V7
!LO:TX:b:i:t=cresc.	!	!	!	!LO:TX:b:i:t=cresc.	!	!	!	!
8EE	.	.	.	8r	.	(8dddL	p	.
!	!	!	!	!	!	!LO:TX:b:i:t=cresc.	!	!
8GG#	.	(12c#L	p	8eJ 8b	.	8bb	.	.
.	.	12d	.	.	.	.	.	.
8BBJ	.	.	.	8r	.	8gg#J	.	.
!	!	!LO:TX:b:i:t=cresc.	!	!	!	!	!	!
.	.	12BJ)	.	.	.	.	.	.
8DL	.	4r	.	8g#L 8b	.	8eeL	.	V2
8E	.	.	.	8r	.	8dd	.	.
8G#	.	(12c#L	.	8eJ	.	8b	.	.
.	.	12d	.	.	.	.	.	.
8BJ	.	.	.	8r	.	8g#J	.	.
.	.	12BJ)	.	.	.	.	.	.
=91	=91	=91	=91	=91	=91	=91	=91	=91
8c#L	.	8EL 8B	.	4r	.	8f#L	.	.
8d	.	8r	.	.	.	8e	.	.
8B	.	8eJ	.	(12cc#L	.	8g#	.	.
.	.	.	.	12dd	.	.	.	.
8G#J	.	8r	.	.	.	8bJ	.	.
.	.	.	.	12bJ)	.	.	.	.
8EL	.	8G#L 8B	.	4r	.	8eeL	.	V7
8D	.	8r	.	.	.	8gg#	.	.
8BB	.	8EJ 8B	.	(12cc#L	.	8bb	.	.
.	.	.	.	12dd	.	.	.	.
8GG#J)	.	8r	.	.	.	[8eeeJ)	.	.
.	.	.	.	12bJ)	.	.	.	.
=92	=92	=92	=92	=92	=92	=92	=92	=92
(8GGnL	.	8E 8c#	.	8aL 8ee	.	(8eeeL]	.	V2/IV
8CC#	.	8r	.	8r	.	8gggn	.	.
8EE	.	(12F#L	.	8gnJ 8a	.	8eee	.	.
.	.	12Gn	.	.	.	.	.	.
8GGJ	.	.	.	8r	.	8ccc#J	.	.
.	.	12EJ)	.	.	.	.	.	.
8AAL	.	4r	.	8eL 8a	.	8aaL	.	V7/IV
8C#	.	.	.	8r	.	8ggn	.	.
8E	.	(12F#L	.	8gJ 8a	.	8ee	.	.
.	.	12G	.	.	.	.	.	.
8GnJ	.	.	.	8r	.	8cc#J	.	.
.	.	12EJ)	.	.	.	.	.	.
=93	=93	=93	=93	=93	=93	=93	=93	=93
8AL	.	8c#L 8e	.	8gn 8a	.	8gnL	.	.
8Gn	.	8r	.	8r	.	8cc#	.	.
8E	.	8AJ 8e	.	(12ff#L	.	8ee	.	.
.	.	.	.	12ggn	.	.	.	.
8C#J	.	8r	.	.	.	8ggnJ	.	.
.	.	.	.	12eeJ)	.	.	.	.
8AAL	.	8c#L 8e	.	4r	.	8ccc#L	.	.
8GGn	.	8r	.	.	.	8eee)	.	.
8EE	.	8AJ 8e	.	(12ff#L	.	8gggn	.	.
.	.	.	.	12gg	.	.	.	.
8CC#J)	.	8r	.	.	.	8gggJ	.	.
.	.	.	.	12eeJ)	.	.	.	.
=94	=94	=94	=94	=94	=94	=94	=94	=94
8DDL	f	8DL 8d	f	8aL 8ff#	f	8fff#L	f	IV
(8AA	.	(8A	.	(8A	.	(8a	.	.
8D	.	8d	.	8d	.	8dd	.	.
8C#J	.	8c#J	.	8c#J	.	8cc#J	.	.
8DL	.	8dL	.	8dL	.	8ddL	.	@none
8F#	.	8f#	.	8f#	.	8ff#	.	.
!	!	!	!LO:DY:a	!	!	!	!	!
8G#X	sf	8g#	sf sf	8g#X	.	8gg#X	sf	.
8EJ)	.	8eJ)	.	8eJ)	.	8eeJ)	.	.
=95	=95	=95	=95	=95	=95	=95	=95	=95
(8AAL	.	(8AL	.	(8aL	.	(8aaL	.	.
8AA#X	.	8A#X	.	8a#X	.	8aa#X	.	.
8BB	sf	8B	sf	8b	sf	8bb	sf	.
8GG#J)	.	8G#J)	.	8g#J)	.	8gg#J)	.	.
(8BB#XL	.	(8B#XL	.	(8b#XL	.	(8bb#XL	.	.
8C#	.	8c#	.	8cc#	.	8ccc#	.	.
8D	sf	8d	sf	8dd	sf	8ddd	sf	.
8BBnJ)	.	8BnJ)	.	8bnJ)	.	8bbnJ)	.	.
=96	=96	=96	=96	=96	=96	=96	=96	=96
(8D#XL	.	(8d#XL	.	(8dd#XL	.	(8ddd#XL	.	.
8E	.	8e	.	8ee	.	8eee	.	.
8F#	sf	8f#	sf	8ff#	sf	8fff#	sf	.
8DnJ)	.	8dnJ)	.	8ddnJ)	.	8dddnJ)	.	.
(8C#L	.	(8c#L	.	(8cc#L	.	(8ccc#L	.	.
8BB	.	8B	.	8b	.	8bb	.	.
!	!LO:DY:a	!	!	!	!	!	!	!
8E	sf sf	8e	.	8ee	sf	8eee	sf	V
8EEJ)	.	8EJ)	.	8eJ)	.	8eeJ)	.	.
=97	=97	=97	=97	=97	=97	=97	=97	=97
8AA	.	8A	.	8aL	.	(8aaL	sf	I\\
8r	.	8r	.	8r	.	8aJ)	.	.
4r	.	4r	.	(8ee	sf	4r	.	.
.	.	.	.	8eJ)	.	.	.	.
!	!LO:DY:a	!	!	!	!	!	!	!
4r	sf	(8c#L	.	2r	.	2r	.	.
.	.	8C#J)	.	.	.	.	.	.
(8AL	sf	4r	.	.	.	.	.	.
8AAJ)	.	.	.	.	.	.	.	.
=98||	=98||	=98||	=98||	=98||	=98||	=98||	=98||	=98||
!	!	!	!	!	!	!LO:TX:a:B:t=Andante moderato e lusinghiero	!	!
4r	.	1r	.	1r	.	1r	.	I
*clefC4	*	*	*	*	*	*	*	*
(8.AL	p	.	.	.	.	.	.	.
16BJk	.	.	.	.	.	.	.	.
!LO:TX:b:i:t=dolce	!	!	!	!	!	!	!	!
8.c#L	.	.	.	.	.	.	.	.
16BJk	.	.	.	.	.	.	.	.
4A	.	.	.	.	.	.	.	.
=99	=99	=99	=99	=99	=99	=99	=99	=99
4G#	.	4r	.	1r	.	1r	.	ii64
!	!	!LO:TX:b:i:t=dolce	!	!	!	!	!	!
2F#)	.	(8.BL	.	.	.	.	.	.
.	.	16c#Jk	.	.	.	.	.	.
.	.	8.dL	.	.	.	.	.	.
.	.	16c#Jk	.	.	.	.	.	.
4r	.	4B	.	.	.	.	.	.
=100	=100	=100	=100	=100	=100	=100	=100	=100
4r	.	4A	.	1r	.	1r	.	V65
(8.dL	.	2G#)	.	.	.	.	.	.
16eJk)	.	.	.	.	.	.	.	.
(8.f#L	.	.	.	.	.	.	.	.
16eJk)	.	.	.	.	.	.	.	.
(8.eL	.	4r	.	.	.	.	.	.
16dJk)	.	.	.	.	.	.	.	.
=101	=101	=101	=101	=101	=101	=101	=101	=101
(8.dL	.	4r	.	1r	.	1r	.	IV43/IV
16c#Jk)	.	.	.	.	.	.	.	.
4r	.	(8.eL	.	.	.	.	.	.
.	.	16f#Jk)	.	.	.	.	.	.
4r	.	(8.gnL	.	.	.	.	.	.
.	.	16f#Jk)	.	.	.	.	.	.
!LO:TX:b:i:t=cresc.	!	!	!	!	!	!	!	!
(8.aL	.	(8.f#L	.	.	.	.	.	.
16gnJk)	.	16eJk)	.	.	.	.	.	.
=102	=102	=102	=102	=102	=102	=102	=102	=102
(8.gnL	.	(8.eL	.	1r	.	1r	.	@none
16f#Jk)	.	16dJk)	.	.	.	.	.	.
(8.eL	.	4r	.	.	.	.	.	.
16aJk)	.	.	.	.	.	.	.	.
(8.aL	>	4r	.	.	.	.	.	.
16gJk)	.	.	.	.	.	.	.	.
!	!	!LO:TX:b:i:t=cresc.	!	!	!	!	!	!
4e	] p	(8.bL	.	.	.	.	.	.
.	.	16aJk)	.	.	.	.	.	.
=103	=103	=103	=103	=103	=103	=103	=103	=103
2r	.	(8.aL	.	1r	.	1r	.	.
.	.	16gnJk)	.	.	.	.	.	.
.	.	(8.f#L	.	.	.	.	.	.
.	.	16bJk)	.	.	.	.	.	.
4r	.	(8.bL	>	.	.	.	.	.
.	.	16a#XJk)	.	.	.	.	.	.
!LO:TX:b:i:t=cresc.	!	!	!	!	!	!	!	!
(8.aL	.	4f#	] p	.	.	.	.	.
16f#Jk)	.	.	.	.	.	.	.	.
=104	=104	=104	=104	=104	=104	=104	=104	=104
(8.eL	.	4r	.	1r	.	1r	.	V43
16d#XJk)	.	.	.	.	.	.	.	.
!	!	!LO:TX:b:i:t=cresc.	!	!	!	!	!	!
[4dn	.	(8.bL	.	.	.	.	.	.
.	.	16g#XJk)	.	.	.	.	.	.
(8dL]	.	(8.f#L	.	.	.	.	.	.
8c#)	.	.	.	.	.	.	.	.
.	.	16eJk)	.	.	.	.	.	.
(8c#	.	(8.eL	.	.	.	.	.	.
8BJ)	.	.	.	.	.	.	.	.
.	.	16dJk)	.	.	.	.	.	.
=105	=105	=105	=105	=105	=105	=105	=105	=105
(8BL	p	(8d	p	1r	.	1r	.	V43
8A)	.	4c#)	.	.	.	.	.	.
8F#'	.	.	.	.	.	.	.	.
8B'J	.	8d#Xt	.	.	.	.	.	.
.	.	16qqc#/LL	.	.	.	.	.	.
.	.	16qqd#/JJ	.	.	.	.	.	.
8E	.	8e'L	.	.	.	.	.	.
4f#	.	8dn'J	.	.	.	.	.	.
.	.	8B'L	.	.	.	.	.	.
8g#t	.	8e'J	.	.	.	.	.	.
=106	=106	=106	=106	=106	=106	=106	=106	=106
4a	.	1f#	.	1r	.	4r	.	vi
!	!	!	!	!	!	!LO:TX:b:i:t=dolce	!	!
4r	.	.	.	.	.	(8.aL	.	.
.	.	.	.	.	.	16bJk	.	.
2r	.	.	.	.	.	8.cc#L	.	.
.	.	.	.	.	.	16bJk	.	.
.	.	.	.	.	.	4a	.	.
=107	=107	=107	=107	=107	=107	=107	=107	=107
1d	.	1r	.	4r	.	4g#	.	ii6(4)
!	!	!	!	!LO:TX:b:i:t=dolce	!	!	!	!
.	.	.	.	(8.bL	.	2f#)	.	ii6
.	.	.	.	16cc#Jk	.	.	.	.
.	.	.	.	8.ddL	.	.	.	.
.	.	.	.	16cc#Jk	.	.	.	.
.	.	.	.	4b	.	4r	.	.
=108	=108	=108	=108	=108	=108	=108	=108	=108
1r	.	1e	.	4a	.	4r	.	V(4)
.	.	.	.	2g#)	.	(8.ddL	.	V7
.	.	.	.	.	.	16eeJk)	.	.
.	.	.	.	.	.	(8.ff#L	.	.
.	.	.	.	.	.	16eeJk)	.	.
.	.	.	.	4r	.	(8.eeL	.	.
.	.	.	.	.	.	16ddJk)	.	.
*clefF4	*	*	*	*	*	*	*	*
=109	=109	=109	=109	=109	=109	=109	=109	=109
1A	.	1r	.	4r	.	(8.ddL	.	I
.	.	.	.	.	.	16cc#Jk)	.	.
.	.	.	.	(8.eeL	.	4r	.	.
.	.	.	.	16ff#Jk)	.	.	.	.
.	.	.	.	(8.ggnL	.	4r	.	V7/IV
.	.	.	.	16ff#Jk)	.	.	.	.
!	!	!	!	!	!	!LO:TX:b:i:t=cresc.	!	!
.	.	.	.	(8.ff#L	.	(8.aaL	.	.
.	.	.	.	16eeJk)	.	16ggnJk)	.	.
=110	=110	=110	=110	=110	=110	=110	=110	=110
1r	.	2a	.	(8.eeL	.	(8.ggnL	.	IV64
.	.	.	.	16ddJk)	.	16ff#Jk)	.	.
.	.	.	.	4r	.	(8.eeL	.	.
.	.	.	.	.	.	16aaJk)	.	.
.	.	2c#	.	4r	.	(8.aaL	>	V65/IV
.	.	.	.	.	.	16ggJk)	.	.
.	.	.	.	(8.bbL	.	4ee	]	.
.	.	.	.	16aaJk)	.	.	.	.
=111	=111	=111	=111	=111	=111	=111	=111	=111
2d	.	1r	.	(8.aaL	.	2r	.	IV
.	.	.	.	16ggnJk)	.	.	.	.
.	.	.	.	(8.ff#L	.	.	.	.
.	.	.	.	16bbJk)	.	.	.	.
2F#	.	.	.	(8.bbL	>	4r	.	VI
.	.	.	.	16aa#XJk)	.	.	.	.
.	.	.	.	4ff#	]	(8.aaL	.	vi
.	.	.	.	.	.	16ff#Jk)	.	.
=112	=112	=112	=112	=112	=112	=112	=112	=112
2r	.	2b	.	4r	.	(8.eeL	.	V(4)/V
.	.	.	.	.	.	16dd#XJk)	.	V/V
.	.	.	.	(8.bbL	.	[4ddn	.	V43
.	.	.	.	16gg#XJk)	.	.	.	.
*clefC4	*	*	*	*	*	*	*	*
2e	.	(8g#L	.	(8.ff#L	.	(8ddL]	.	V7
.	.	8a	.	.	.	8cc#)	.	.
.	.	.	.	16eeJk)	.	.	.	.
.	.	8f#	.	(8.eeL	.	(8cc#	.	.
.	.	8g#J)	.	.	.	[8bJ)	.	.
.	.	.	.	16ddJk)	.	.	.	.
=113	=113	=113	=113	=113	=113	=113	=113	=113
[2E	.	(8G#	.	(8dd	.	(8bL]	.	.
.	.	4A)	.	4cc#)	.	8a)	.	I64
.	.	.	.	.	.	8f#'	.	V43(7)/V
.	.	8A'	.	8dd#Xt	.	8b'J	.	.
.	.	.	.	16qqcc#/LL	.	.	.	.
.	.	.	.	16qqdd#/JJ	.	.	.	.
8E]	.	(8G#L	.	4ee	.	4e	.	V
*clefF4	*	*	*	*	*	*	*	*
4CC#	.	8A)	.	.	.	.	.	.
.	.	8F#'	.	4r	.	4r	.	V6/V
8DD#Xt	.	8B'J	.	.	.	.	.	.
16qqCC#/LL	.	.	.	.	.	.	.	.
16qqDD#/JJ	.	.	.	.	.	.	.	.
=114	=114	=114	=114	=114	=114	=114	=114	=114
!LO:TX:b:i:t=cresc.	!	!	!	!	!	!	!	!
4EE'	.	4E	.	1r	.	1r	.	V
4FF#T	.	4r	.	.	.	.	.	.
16qqEE/LL	.	.	.	.	.	.	.	.
16qqFF#/JJ	.	.	.	.	.	.	.	.
4GG#'	.	2r	.	.	.	.	.	.
[4AA	sfp	.	.	.	.	.	.	.
=115	=115	=115	=115	=115	=115	=115	=115	=115
!	!	!LO:TX:b:i:t=cresc.	!	!	!	!	!	!
(8AAL]	.	4F#'	.	1r	.	1r	.	IV
8GG#)	.	.	.	.	.	.	.	.
8FF#'	.	4G#t	.	.	.	.	.	.
8EE'J	.	.	.	.	.	.	.	.
.	.	16qqF#/LL	.	.	.	.	.	.
.	.	16qqG#/JJ	.	.	.	.	.	.
8DD#X'L	.	4A'	.	.	.	.	.	.
8DDn'J	.	.	.	.	.	.	.	.
4r	.	[4B	sfp	.	.	.	.	.
=116	=116	=116	=116	=116	=116	=116	=116	=116
!LO:TX:b:i:t=cresc.	!	!	!	!	!	!	!	!
4AA'	.	8BL]	.	1r	.	1r	.	I6
.	.	8A	.	.	.	.	.	.
4BBT	.	8G#'	.	.	.	.	.	.
.	.	8F#'J	.	.	.	.	.	.
16qqAA/LL	.	.	.	.	.	.	.	.
16qqBB/JJ	.	.	.	.	.	.	.	.
4C#'	.	8E#X'L	.	.	.	.	.	.
.	.	8En'J	.	.	.	.	.	.
[4D	sfp	4r	.	.	.	.	.	.
=117	=117	=117	=117	=117	=117	=117	=117	=117
!	!	!LO:TX:b:i:t=cresc.	!	!	!	!	!	!
(8DL]	.	4B	.	1r	.	1r	.	vii
8C#)	.	.	.	.	.	.	.	.
8BB'	.	4c#t	.	.	.	.	.	.
8AA'J	.	.	.	.	.	.	.	.
.	.	16qqB/LL	.	.	.	.	.	.
.	.	16qqc#/JJ	.	.	.	.	.	.
8GG#'L	.	4d'	.	.	.	.	.	.
8GGn'J	.	.	.	.	.	.	.	.
4r	.	[4e	sfp	.	.	.	.	.
=118	=118	=118	=118	=118	=118	=118	=118	=118
!LO:TX:b:i:t=cresc   .	!	!	!	!	!	!	!	!
4FF#	.	(8eL]	.	1r	.	1r	.	I
.	.	8d)	.	.	.	.	.	.
4GG#Xt	.	8c#'	.	.	.	.	.	.
.	.	8B'J	.	.	.	.	.	.
16qqFF#/LL	.	.	.	.	.	.	.	.
16qqGG#/JJ	.	.	.	.	.	.	.	.
4AA'	.	8B-X'L	.	.	.	.	.	.
.	.	8A'J	.	.	.	.	.	.
*clefC4	*	*	*	*	*	*	*	*
[4d	sfp	4r	.	.	.	.	.	.
=119	=119	=119	=119	=119	=119	=119	=119	=119
(8dL]	.	4G#	.	1r	.	1r	.	V43
8c#)	.	.	.	.	.	.	.	.
8B'	.	4AT	.	.	.	.	.	.
8A'J	.	.	.	.	.	.	.	.
.	.	16qqG#/LL	.	.	.	.	.	.
.	.	16qqA/JJ	.	.	.	.	.	.
8G#'L	.	4Bn	.	.	.	.	.	.
8d'	.	.	.	.	.	.	.	.
8c#'	.	[4ee	.	.	.	.	.	.
8B'J	.	.	.	.	.	.	.	.
=120	=120	=120	=120	=120	=120	=120	=120	=120
!LO:TX:b:i:t=cresc.	!	!	!	!	!	!	!	!
4c#'	.	(8eeL]	.	1r	.	1r	.	vi64
.	.	8dd)	.	.	.	.	.	.
4dT	.	8cc#'	.	.	.	.	.	.
.	.	8b'J	.	.	.	.	.	.
16qqc#/LL	.	.	.	.	.	.	.	.
16qqd/JJ	.	.	.	.	.	.	.	.
4e	.	8a'L	.	.	.	.	.	.
.	.	8ee'	.	.	.	.	.	.
4f#T	.	8dd'	.	.	.	.	.	.
.	.	8cc#'J	.	.	.	.	.	.
16qqe/LL	.	.	.	.	.	.	.	.
16qqf#/JJ	.	.	.	.	.	.	.	.
=121	=121	=121	=121	=121	=121	=121	=121	=121
8f#	sfp	4dd'	.	1r	.	1r	.	V
4a	.	.	.	.	.	.	.	.
.	.	4eeT	.	.	.	.	.	.
!LO:TX:b:i:t=cresc.	!	!	!	!	!	!	!	!
8g#	.	.	.	.	.	.	.	.
.	.	16qqdd/LL	.	.	.	.	.	.
.	.	16qqee/JJ	.	.	.	.	.	.
8aL	.	4ff#'	.	.	.	.	.	.
*clefF4	*	*	*	*	*	*	*	*
8D	.	.	.	.	.	.	.	.
8E	.	4g#t	.	.	.	.	.	.
8EJ	.	.	.	.	.	.	.	.
.	.	16qqf#/LL	.	.	.	.	.	.
.	.	16qqg#/JJ	.	.	.	.	.	.
=122	=122	=122	=122	=122	=122	=122	=122	=122
!	!	!	!	!	!LO:DY:a	!LO:TX:b:i:t=cresc.	!	!
4E	.	8g#	sfp	1r	sfp	4e'	.	V
.	.	4b	.	.	.	.	.	.
4r	.	.	.	.	.	4f#T	.	.
!	!	!LO:TX:b:i:t=cresc.	!	!	!	!	!	!
.	.	8a	.	.	.	.	.	.
.	.	.	.	.	.	16qqe/LL	.	V6
.	.	.	.	.	.	16qqf#/JJ	.	.
2r	.	8bL	.	.	.	4g#'	.	.
.	.	8EJ	.	.	.	.	.	.
.	.	4F#T	.	.	.	[4a	.	IV6
.	.	16qqE/LL	.	.	.	.	.	.
.	.	16qqF#/JJ	.	.	.	.	.	.
=123	=123	=123	=123	=123	=123	=123	=123	=123
!LO:TX:b:i:t=cresc.	!	!	!	!LO:TX:b:i:t=cresc.	!	!	!	!
4FF#'	.	(8f#L	p	4aa'	.	(8aL]	.	IV6
.	.	8e)	.	.	.	8g#)	.	.
4GG#t	.	8d#X'	.	4bbT	.	8f#'	.	iii43
.	.	8c#'J	.	.	.	8e'J	.	.
16qqFF#/LL	.	.	.	16qqaa/LL	.	.	.	.
16qqGG#/JJ	.	.	.	16qqbb/JJ	.	.	.	.
4AA'	.	8F#	.	4ccc#'	.	8d#X'L	.	@none
.	.	4F#	.	.	.	8dn'J	.	.
[4BB	sfp	.	.	[4ddd	sfp	4r	.	ii
.	.	8B	.	.	.	.	.	.
=124	=124	=124	=124	=124	=124	=124	=124	=124
!	!	!LO:TX:b:i:t=cresc.	!	!	!	!LO:TX:b:i:t=cresc.	!	!
(8BBL]	.	4c#'	.	8dddL]	.	4a'	.	I
8AA)	.	.	.	8ccc#	.	.	.	.
8GG#'	.	4dnT	.	8bb'	.	4bT	.	viio
8FF#'J	.	.	.	8aa'J	.	.	.	.
.	.	16qqc#/LL	.	.	.	16qqg#/LL	.	V6/vi
.	.	16qqd/JJ	.	.	.	16qqb/JJ	.	.
!	!LO:DY:a	!	!	!	!	!	!	!
8EE#X'L	sfp	8G#'	.	8gg#'L	.	4cc#'	.	.
8EEn'J	.	4e	.	8ggn'J	.	.	.	.
4r	.	.	.	4r	.	[4dd	sfp	IV
.	.	8d	.	.	.	.	.	.
=125	=125	=125	=125	=125	=125	=125	=125	=125
!LO:TX:b:i:t=cresc.	!	!	!	!LO:TX:b:i:t=cresc.	!	!	!	!
4BB'	.	(8BL	.	4d'	.	(8ddL]	.	ii
.	.	8A)	.	.	.	8cc#)	.	.
4C#t	.	8G#'	.	4eT	.	8b'	.	vi43
.	.	8F#'J	.	.	.	8a'J	.	.
16qqBB/LL	.	.	.	16qqd/LL	.	.	.	.
16qqC#/JJ	.	.	.	16qqe/JJ	.	.	.	.
4D'	.	8Fn	.	4B'	.	8g#'L	.	vii2
.	.	4E	.	.	.	8gn'J	.	.
[4E	sfp	.	.	[4gn	sfp	4r	.	.
.	.	8E	.	.	.	.	.	.
=126	=126	=126	=126	=126	=126	=126	=126	=126
!	!	!LO:TX:b:i:t=cresc.	!	!	!	!LO:TX:b:i:t=cresc.	!	!
(8EL]	.	4D'	.	(8gL]	.	4f#'	.	IV
8D)	.	.	.	8f#)	.	.	.	.
8C#'	.	4ET	.	8e'	.	4g#Xt	.	V43
8BB'J	.	.	.	8d'J	.	.	.	.
.	.	16qqD/LL	.	.	.	16qqf#/LL	.	I
.	.	16qqE/JJ	.	.	.	16qqg#/JJ	.	.
8BB'L	.	4c#'	.	8d'L	.	4a'	.	.
8AA'J	.	.	.	8c#'J	.	.	.	.
4r	.	[4f#X	sfp	4r	.	[4ddd	sfp	IV6
=127	=127	=127	=127	=127	=127	=127	=127	=127
!LO:TX:b:i:t=cresc.	!	!	!	!LO:TX:b:i:t=cresc.	!	!	!	!
4GG#'	.	(8f#L]	.	4b'	.	(8dddL]	.	vii%7
.	.	8e)	.	.	.	8ccc#)	.	.
4AAT	.	8d'	.	4cc#t	.	8bb'	.	I
.	.	8c#'J	.	.	.	8aa'J	.	.
16qqGG#/LL	.	.	.	16qqb/LL	.	.	.	.
16qqAA/JJ	.	.	.	16qqcc#/JJ	.	.	.	.
4BB'	.	8B'L	.	4dd'	.	8gg#'L	.	V43
.	.	8f#'	.	.	.	8ddd'	.	.
*clefC4	*	*	*	*	*	*	*	*
[4e	sfp	8e'	.	[4ggn	sfp	8ccc#'	.	iii%7
.	.	8d'J	.	.	.	8bb'J	.	.
=128	=128	=128	=128	=128	=128	=128	=128	=128
!LO:TX:b:i:t=cresc.	!	!LO:TX:b:i:t=cresc.	!	!LO:TX:b:i:t=cresc.	!	!LO:TX:b:i:t=cresc.	!	!
(8eL]	.	4a'	.	(8ggL]	.	4ccc#'	.	V(64)
8d)	.	.	.	8ff#)	.	.	.	.
8c#'	.	4bT	.	8ee'	.	4dddT	.	V43
8B'J	.	.	.	8dd'J	.	.	.	.
.	.	16qqa/LL	.	.	.	16qqccc#/LL	.	I
.	.	16qqb/JJ	.	.	.	16qqddd/JJ	.	.
8A'L	.	4cc#'	.	8cc#'L	.	4eee'	.	.
8e'	.	.	.	8ggn'	.	.	.	.
8d'	.	4ddT	.	8ff#'	.	4fff#T	.	IV
8c#'J	.	.	.	8ee'J	.	.	.	.
.	.	16qqcc#/LL	.	.	.	16qqeee/LL	.	.
.	.	16qqdd/JJ	.	.	.	16qqfff#/JJ	.	.
=129	=129	=129	=129	=129	=129	=129	=129	=129
4d'	sf	8a	sf	4ff#'	sf p	8fff#	sf	IV
.	.	4cc#	p	.	.	4aaa	p	V
!	!LO:DY:a	!	!	!	!	!	!	!
4eT	p	.	.	4gg#Xt	.	.	.	.
!	!	!LO:TX:b:i:t=cresc.	!	!	!	!	!	!
.	.	8b	.	.	.	8ggg#	.	.
16qqd/LL	.	.	.	16qqff#/LL	.	.	.	.
!LO:TX:b:i:t=cresc.	!	!	!	!LO:TX:b:i:t=cresc.	!	!LO:TX:b:i:t=cresc.	!	!
16qqe/JJ	.	.	.	16qqgg#/JJ	.	.	.	.
4f#'	.	8a	.	8ddL	.	8aaaL	.	IV6
.	.	4dd	.	8aaJ	.	8fff#	.	.
4g#t	.	.	.	4bbT	.	8eee	.	V65
.	.	8dd	.	.	.	8eeeJ	.	.
16qqf#/LL	.	.	.	16qqaa/LL	.	.	.	.
16qqg#/JJ	.	.	.	16qqbb/JJ	.	.	.	.
*clefG2	*	*	*	*	*	*	*	*
=130||	=130||	=130||	=130||	=130||	=130||	=130||	=130||	=130||
*M6/8	*	*M6/8	*	*M6/8	*	*M6/8	*	*
!	!	!	!	!	!	!LO:TX:a:B:t=Adagio	!	!
(16gg#KL	sfp	(8dd	sfp	(16bbKL	.	(8eeeL	sfp	V2
8bb	.	.	.	8ddd	sfp	.	.	.
.	.	[4ee)	.	.	.	16aaL	.	I(4)
16aaK)	.	.	.	16ccc#K)	.	16ee	.	I
8aaJ	.	.	.	[8ccc#J	.	16cc#	.	.
.	.	.	.	.	.	16ddJJ	.	.
8aaL	.	16eeLL]	.	16ccc#LL]	.	16eeLL	.	.
.	.	(16eeJ	.	(16cc#J	.	16ff#	.	.
8r	.	8dd	.	8b	.	16gg#	.	viio6
.	.	.	.	.	.	16aa	.	.
[8aaJ	.	8cc#J)	.	8aJ)	.	16bb	.	I6
.	.	.	.	.	.	16ccc#JJ)	.	.
=131	=131	=131	=131	=131	=131	=131	=131	=131
(8aaL]	.	8bL	.	8eL	.	8dddL	.	V7
8gg#	.	8r	.	8r	.	8r	.	.
8ff#J	.	8eJ	.	8bJ	.	8dddJ	.	.
8gg#L)	.	8e	.	8bL	.	8ddd	.	.
8r	.	8r	.	8eJ 8dd 8bb	.	8r	.	.
*clefF4	*	*	*	*	*	*	*	*
!LO:TX:b:t=pizz.	!	!	!	!LO:TX:a:t=pizz.	!	!	!	!
8EEJ	.	8r	.	8r	.	8r	.	.
=132	=132	=132	=132	=132	=132	=132	=132	=132
!	!	!	!	!LO:TX:a:t=arco	!	!	!	!
2.r	.	((8g#L	.	8r	.	(8.bbL	.	V65
.	.	16g#L)	.	(16eLL	.	.	.	.
.	.	16b	.	16g#	.	16gg#L	.	.
.	.	16dd	.	16b	.	16ee	.	.
.	.	16cc#JJ	.	16aJJ	.	16ff#JJ	.	.
.	.	16bLL	.	16g#LL	.	16gg#LL	.	.
.	.	16a	.	16f#	.	16aa	.	.
.	.	16g#	.	16e	.	16bb	.	.
.	.	16f#	.	16d	.	16ccc#	.	.
.	.	16e)	.	16c#	.	16ddd	.	.
.	.	16eJJ	.	16BJJ)	.	16eeeJJ)	.	.
=133	=133	=133	=133	=133	=133	=133	=133	=133
4r	.	(16eLL	.	8AL	.	8ccc#L	.	I
.	.	16c#	.	.	.	.	.	.
.	.	16d	.	8r	.	8r	.	.
.	.	16e	.	.	.	.	.	.
8r	.	16f#	.	8AJ 8e	.	8ccc#J	.	.
.	.	16g#JJ)	.	.	.	.	.	.
!LO:TX:a:t=pizz.	!	!	!	!LO:TX:a:t=pizz.	!	!	!	!
4r	sf	8a	.	8AL 8e	.	8ccc#	.	I\\
.	.	8r	.	8eJ 8cc# 8aa	.	8r	.	.
8AA	.	8r	.	8r	.	8r	.	.
=134	=134	=134	=134	=134	=134	=134	=134	=134
!LO:TX:b:i:t=cresc.	!	!	!	!LO:TX:b:i:t=cresc.	!	!	!	!
!LO:TX:a:t=arco	!	!LO:TX:b:i:t=cresc.	!	!LO:TX:a:t=arco	!	!LO:TX:b:i:t=cresc.	!	!
8r	.	8r	.	8r	.	(8.eeeL	.	I6
(16aLL	.	(16c#LL	.	(16aLL	.	.	.	.
16e	.	16a	.	16cc#	.	16ccc#L	.	.
16c#	.	16cc#	.	16ee	.	16aa	.	.
16dJJ	.	16bJJ	.	16ddJJ	.	16bbJJ	.	.
16eLL	.	16aLL	.	16cc#LL	.	16ccc#LL	.	I64
16f#	.	16g#	.	16b	.	16ddd	.	.
16g#	.	16f#	.	16a	.	16eee	.	.
16a	.	16e	.	16g#	.	16fff#	.	.
16a	.	16d	.	16f#	.	16ggg#	.	.
16aJJ)	.	16c#JJ)	.	16eJJ)	.	16aaaJJ)	.	.
=135	=135	=135	=135	=135	=135	=135	=135	=135
8gnL	p	8cc#L	p	8eL	p	4aaa	p	V43/IV
8r	.	8r	.	8r	.	.	.	.
8gJ	.	8cc#J	.	8eeJ	.	8r	.	.
!	!	!	!	!LO:TX:a:t=pizz.	!	!	!	!
8gL	.	8cc#L	.	8eeL	.	8aaL	.	V43/IV
8r	.	8r	.	8c# 8e	.	8r	.	.
8f#J	.	8cc#J	.	8eeJ	.	8aa#XJ	.	V7/ii
=136	=136	=136	=136	=136	=136	=136	=136	=136
!LO:TX:b:t=pizz.	!	!	!	!LO:TX:a:t=arco	!	!	!	!
8f#L	.	8cc#L	.	8eeL	.	8aa#XL	.	.
8F#	.	8r	.	8r	.	8r	.	.
8BJ	.	8f#J	.	8dd#XJ	.	8bbJ	.	V/V
8EL	.	8bL	.	8ddnL	.	8gg#L	.	V7
8e	.	8r	.	8r	.	8r	.	.
8AJ	.	8c#J 8e	.	8cc#J	.	8aanJ	.	I
=137	=137	=137	=137	=137	=137	=137	=137	=137
8d#XL	.	8f#L	.	8ccnL	.	8aaL	.	#viio7/V
8D#X	.	8r	.	8r	.	8r	.	.
8DD#XJ	.	8F#J	.	8aJ	.	8ccnJ	.	.
!LO:TX:b:i:t=cresc.	!	!	!	!	!	!	!	!
!LO:TX:b:t=arco	!	!	!	!	!	!	!	!
(8EEL	.	8G#L	.	(8g#L	.	8bL	.	V
8FF#	.	8E	.	8A	.	8r	.	.
8GG#J)	.	8EJ	.	8BJ)	.	8eeJ	.	V6
=138	=138	=138	=138	=138	=138	=138	=138	=138
(8.AAL	p <	(8EL	<	(8.c#XL	<	8r	<	I
.	.	16AL	.	.	.	(16cc#XLL	.	.
16EEL	.	16E	.	16eL	.	16ee	.	.
16CC#	.	16C#	.	16a	.	16aa	.	.
16DDnJJ	.	16DJJ	.	16g#JJ	.	16gg#JJ	.	.
16EELL	[ >	16ELL	[ >	16f#LL	[ >	16ff#LL	[ >	I64
16FF#	.	16F#	.	16e	.	16ee	.	.
16GG#	.	16G#	.	16d	.	16dd	.	.
16AA	.	16A	.	16c#	.	16cc#	.	.
16BB	.	16B	.	16B	.	16b	.	.
16C#JJ)	]]	16c#JJ)	]]	16AJJ)	]]	16aJJ)	]]	.
=139	=139	=139	=139	=139	=139	=139	=139	=139
8DL	.	8dL	.	8G#L	.	8g#L	.	V2
8r	.	8r	.	8r	.	8r	.	.
8DJ	.	8dJ	.	8BJ 8e	.	8g#J	.	.
!	!	!LO:TX:a:t=pizz.	!	!	!	!	!	!
8D	.	8dL	.	8B 8e	.	8g#L	.	.
8r	.	8eJ 8b	.	8r	.	8r	.	.
8r	]]	8r	]]	8r	]]	8g#J 8ee 8bb	sf ]]	.
=140	=140	=140	=140	=140	=140	=140	=140	=140
!	!	!	!	!	!	!LO:TX:a:t=arco	!	!
!	!	!LO:TX:a:t=arco	!	!	!	!LO:TX:a:t=pizz.	!	!
8r	< <	8r	< <	(16eLL	< <	(8.bbL	< <	V
.	.	.	.	16g#J	.	.	.	.
(16ELL	.	(16eLL	.	8b	.	.	.	.
16G#	.	16g#	.	.	.	16gg#L	.	.
16B	.	16b	.	16ddL	.	16ee	.	.
16AJJ	.	16aJJ	.	16cc#JJ	.	16ff#JJ	.	.
16G#LL	.	16g#LL	.	16bLL	.	16gg#LL	.	V65
16F#	.	16f#	.	16a	.	16aa	.	.
16E	[ >	16e	[ >	16g#	[ >	16bb	[ >	.
16D	.	16d	.	16f#	.	16ccc#	.	.
16C#	.	16c#	.	16e	.	16ddd	.	V43
16BBJJ)	]]	16BJJ)	]]	16dJJ)	]]	16eeeJJ)	]]	.
=141	=141	=141	=141	=141	=141	=141	=141	=141
(16AALL	.	8AL	.	8eL	.	8ccc#L	.	I
16C#	.	.	.	.	.	.	.	.
16E	.	8r	.	8r	.	8r	.	.
16D	.	.	.	.	.	.	.	.
16C#	.	8AJ	.	8eJ	.	8ccc#J	.	.
16BBJJ	.	.	.	.	.	.	.	.
!	!	!LO:TX:a:t=pizz.	!	!	!	!	!	!
16AALL	.	8AL	.	8eL	.	8ccc#L	.	.
16GG#	.	.	.	.	.	.	.	.
16AA	.	8AJ 8e 8cc#	.	8r	.	8r	.	.
16FF#	.	.	.	.	.	.	.	.
16EE	.	8r	.	8cc#J 8aa	sf	8aJ 8ee 8eee	sf	.
16DDJJ)	.	.	.	.	.	.	.	.
=142	=142	=142	=142	=142	=142	=142	=142	=142
!	!	!	!	!LO:TX:b:i:t=dolce	!	!	!	!
!	!	!	!	!LO:TX:a:t=arco	!	!	!	!
!	!	!	!	!LO:TX:a:t=pizz.	!	!LO:TX:a:t=pizz.	!	!
(16DDLL	.	4r	.	(8.eeL	p	4r	.	I6
16CC#	.	.	.	.	.	.	.	.
16EE	.	.	.	.	.	.	.	.
16AAJJ)	.	.	.	16cc#L	.	.	.	.
8r	.	8r	.	16g#	.	8r	.	.
.	.	.	.	16aJJ)	.	.	.	.
!	!	!LO:TX:a:t=arco	!	!	!	!LO:TX:a:t=arco	!	!
4r	.	16r	.	4r	.	(8.aaL	.	V65/IV
.	.	(16C#LL	.	.	.	.	.	.
.	.	16E	.	.	.	.	.	.
.	.	16AJJ)	.	.	.	16ggnL	.	.
8r	.	8r	.	8r	.	16ee	.	.
.	.	.	.	.	.	16ee#XJJ)	.	.
=143	=143	=143	=143	=143	=143	=143	=143	=143
(16BBLL	.	4r	.	(8.cc#L	.	8ff#	.	V6/ii
16AA#X	.	.	.	.	.	.	.	.
16C#	.	.	.	.	.	8r	.	.
16F#JJ)	.	.	.	16a#XL	.	.	.	.
8r	.	8r	.	16e#X	.	8r	.	.
.	.	.	.	16f#JJ)	.	.	.	.
4r	.	16r	.	4r	.	(8.ff#L	.	VI65
.	.	(16A#XLL	.	.	.	.	.	.
.	.	16c#	.	.	.	.	.	.
.	.	16f#JJ)	.	.	.	16eenL	.	.
8r	.	8r	.	8r	.	16cc#	.	.
.	.	.	.	.	.	16eeJJ)	.	.
=144	=144	=144	=144	=144	=144	=144	=144	=144
16AAnLL	.	4r	.	16f#LL	.	16dd#XLL	.	V2/V
(16GG#	.	.	.	(16dd	.	8r	.	V65
16BB	.	.	.	16b	.	.	.	.
16E	.	.	.	16ddJ	.	8r	.	I
16AA)	.	16r	.	8cc#J)	.	.	.	.
8r	.	(16E#X	.	.	.	16bJJ	.	.
.	.	16G#LL	.	4r	.	(16g#LL	.	V7/vi
8r	.	16c#	.	.	.	16b	.	.
.	.	16F#JJ)	.	.	.	16aJJ	.	vi
(16F#	<	16r	.	.	.	16a)	.	.
16C#	.	8r	.	8r	.	8r	.	.
16D#XJJ	[[	.	.	.	.	.	.	.
=145	=145	=145	=145	=145	=145	=145	=145	=145
16BLL	>	8r	.	4r	.	4r	.	V
16G#	.	.	.	.	.	.	.	.
16EJJ)	.	16r	.	.	.	.	.	.
16r	]	(16c#LL	<	.	.	.	.	.
8r	.	16G#	.	4r	.	4r	.	V65
.	.	16AJJ	.	.	.	.	.	.
4r	.	16dLL	[ >	.	.	.	.	.
.	.	16B	.	.	.	.	.	.
.	.	16G#JJ)	.	16r	.	16r	.	.
.	.	16r	]	(16c#LL	<	(16eeLL	<	.
8r	.	8r	.	16G#	>	16b	>	.
.	.	.	.	16A#XJJ)	] > ]]	16cc#JJ)	] ]]	.
=146	=146	=146	=146	=146	=146	=146	=146	=146
(16EELL	p <	4r	p	[4.d	] p <	[4.ff#	p <	V7(+9)
16FF#	.	.	.	.	.	.	.	.
16GG#	.	.	.	.	.	.	.	.
16AA	.	.	.	.	.	.	.	.
16BB	.	8r	.	.	.	.	.	.
16C#JJ	.	.	.	.	.	.	.	.
16DLL	[ >	4r	.	(8dL]	>	(8ff#L]	>	.
16E	.	.	.	.	.	.	.	.
16F#	.	.	.	8c#	]	8ee	]	.
16G#	.	.	.	.	.	.	.	.
16A	.	(16F#LL	.	8BJ)	]]	8ddJ)	]]	V65
16BJJ	]]	16G#JJ	.	.	.	.	.	.
=147	=147	=147	=147	=147	=147	=147	=147	=147
16cc#LL	p	16ALL	.	[4.B	p	[4.dd	p	I(42)
16dd	.	16B	.	.	.	.	.	.
16ee	.	16c#	.	.	.	.	.	.
16ff#	.	16d	.	.	.	.	.	.
16gg#	.	16e	.	.	.	.	.	.
16aaJJ)	.	16f#JJ	.	.	.	.	.	.
8bbL	.	16g#LL	.	(8BL]	.	(8ddL]	.	V43
.	.	16a	.	.	.	.	.	.
8EJ	.	16b	.	8A	.	8cc#	.	V(64)
.	.	16cc#	.	.	.	.	.	.
8r	.	16dd	.	16G#L	.	8bJ)	.	V65
.	.	16eeJJ)	.	16GnJJ)	.	.	.	.
=148	=148	=148	=148	=148	=148	=148	=148	=148
!LO:TX:b:i:t=cresc.	!	!LO:TX:b:i:t=cresc.	!	!LO:TX:b:i:t=cresc.	!	!LO:TX:b:i:t=cresc.	!	!
2.FF#	.	(16F#LL	.	[4.e	.	[4.ggn	.	V7(+9)/ii
.	.	16G#	.	.	.	.	.	.
.	.	16A#X	.	.	.	.	.	.
.	.	16B	.	.	.	.	.	.
.	.	16c#	.	.	.	.	.	.
.	.	16dJJ	.	.	.	.	.	.
.	.	16eLL	.	(8eL]	.	(8ggL]	.	.
.	.	16f#	.	.	.	.	.	.
.	.	16g#	.	8d	.	8ff#	.	V(64)/ii
.	.	16a#X	.	.	.	.	.	.
.	.	16b	.	8c#J)	.	8eeJ)	.	V7/ii
.	.	16cc#JJ)	.	.	.	.	.	.
=149	=149	=149	=149	=149	=149	=149	=149	=149
(16F#LL	.	[4.F#	.	[4.c#	.	[4.ee	.	.
16G#	.	.	.	.	.	.	.	.
16A#X	.	.	.	.	.	.	.	.
16B	.	.	.	.	.	.	.	.
16c#	.	.	.	.	.	.	.	.
16dJJ	.	.	.	.	.	.	.	.
16eLL	.	(8.F#L]	.	(8c#L]	.	(8eeL]	.	.
16fn	.	.	.	.	.	.	.	.
16f#X	.	.	.	8B	.	8dd	.	ii64
16gn	.	16GnL)	.	.	.	.	.	.
16g	.	(16G	.	16A#XL	.	8cc#J)	.	#io2
16gJJ)	.	16eJJ)	.	16AnJJ)	.	.	.	.
=150	=150	=150	=150	=150	=150	=150	=150	=150
(8.gnL	p <	(8.eL	p <	16aLL	p <	(16cc#LL	p <	V2/IV
.	.	.	.	(16cc#	>	16aa	>	.
.	.	.	.	16cc#)	]	16ggn)	]	.
16eL	.	16c#L	.	8r	]	8r	]	.
16c#	[ >	16A	[ >	.	.	.	.	.
16f#JJ)	.	16dJJ)	.	16aJJ	.	16ff#JJ	.	IV
(8.DL	] <	(8.dL	] <	16r	.	16r	.	IV
.	.	.	.	(16eeLL	<	(16ggLL	<	.
.	.	.	.	16dd)	.	16ff#)	.	.
16BBL	.	16BL	.	8r	[	8r	[	.
16GG#X	[ >	16G#X	[ >	.	.	.	.	.
16C#JJ)	]]	16c#JJ)	]]	16a#XJJ	p [[	16eeJJ	p	V43/ii
=151	=151	=151	=151	=151	=151	=151	=151	=151
(8.eL	[ < <	4r	.	(8.ggnL	< <	16r	.	V2(+9)/ii
.	.	.	.	.	.	(16dddLL	.	.
.	.	.	.	.	.	16ccc#)	.	.
16c#L	.	.	.	16eeL	.	8r	.	.
16A#X	[ >	8r	.	16cc#	[ >	.	.	.
16dJJ)	.	.	.	16ff#JJ)	.	16bbJJ	.	ii
4r	]	(8.ddL	<	(8.ff#L	] <	16r	.	ii6
.	.	.	.	.	.	(16ccc#LL	.	.
.	.	.	.	.	.	16bb)	.	.
.	.	16bL	.	16ddL	.	8r	.	.
8r	.	16g#	[ >	16b	[ >	.	.	.
.	.	16cc#JJ)	]]	[16eeJJ)	]]	16aaJJ	.	I6
=152	=152	=152	=152	=152	=152	=152	=152	=152
!	!	!LO:TX:b:i:t=cresc.	!	!LO:TX:b:i:t=cresc.	!	!LO:TX:b:i:t=cresc.	!	!
2.r	.	(16cc#LL	.	16eeLL]	.	16r	.	.
.	.	16a	.	(16ee	.	(16ccc#LL	.	.
.	.	16f#	.	16dd#X)	.	16cccn)	.	#viio65/V
.	.	16g#	.	(16ddn	.	(16ccc	.	viio7
.	.	16b	.	16dd)	.	16bb)	.	.
.	.	16e#XJJ	.	(16ddJJ	.	(16bbJJ	.	#viio7/vi
!	!	!LO:TX:b:i:t=dim.	!	!LO:TX:b:i:t=dim.	!	!LO:TX:b:i:t=dim.	!	!
.	.	16f#LL	.	16cc#LL)	.	16aaLL)	.	vi
.	.	16a	.	(16cc#	.	(16aa	.	.
.	.	16d#X	.	16ccn)	.	16aa)	.	#viio7/V
.	.	16en	.	(16b	.	(16aa	.	V(4)
.	.	16f#	.	16b)	.	16gg#)	.	V
.	.	16eJJ)	.	(16bJJ	.	(16gg#JJ	.	.
=153	=153	=153	=153	=153	=153	=153	=153	=153
4r	.	(16aLL	.	8cc#XL)	.	8aa)	.	I
.	.	16f#	.	.	.	.	.	.
.	.	16d#XJJ)	.	16r	.	8r	.	V65/V
.	.	16r	.	(16bL	>	.	.	.
8r	.	8r	.	16f#	.	8r	.	.
.	.	.	.	16g#JJ)	.	.	.	.
8r	.	(16dnLL	>	4r	]	(16ddLL	>	V65
.	.	16B	.	.	.	16b	.	.
16r	.	16G#)	.	.	.	16g#JJ)	.	.
(16f#LL	<	(16d	] <	.	.	16r	]	.
16c#	.	16A#X	.	8r	.	8r	.	.
16dJJ)	[[	16BJJ)	[[	.	.	.	.	.
=154	=154	=154	=154	=154	=154	=154	=154	=154
!	!	!	!	!	!LO:DY:a	!	!	!
[4.f#	p <	[4.d	p <	4r	p	(16G#LL	<	#vii%7
.	.	.	.	.	.	16A	.	.
.	.	.	.	.	.	16B	.	.
.	.	.	.	.	.	16c#	.	.
.	.	.	.	8r	.	16d	.	.
.	.	.	.	.	.	16eJJ	.	.
8f#L]	>	8dL]	>	16r	>	16f#LL	>	.
.	.	.	.	(16G#LL	.	16g#	.	.
8e	]	8c#	]	16A	.	16a	]	I
.	.	.	.	16B	.	16b	.	.
8dJ	]]	8BJ	]]	16c#	.	16cc#	.	V43
.	.	.	.	16dJJ	]]	16ddJJ	]]	.
=155	=155	=155	=155	=155	=155	=155	=155	=155
!	!	!	!LO:DY:a	!	!	!	!	!
[4.d	p	[4.B	p p	16eLL	.	16eeLL	p	V43
.	.	.	.	16f#	.	16ff#	.	.
.	.	.	.	16g#	.	16gg#	.	.
.	.	.	.	16a	.	16aa	.	.
.	.	.	.	16b	.	16bb	.	.
.	.	.	.	16cc#JJ)	.	16ccc#JJ)	.	.
(8dL]	.	(8BL]	.	(16ddLL	.	(16dddLL	.	.
.	.	.	.	16dd#X)	.	16ddd#X)	.	.
8c#	.	8A	.	(16dd#	.	(16ddd#	.	I
.	.	.	.	16ee)	.	16eee)	.	.
8BJ)	.	16G#L	.	16ee	.	16eee	.	V6
.	.	16GnJJ)	.	16eeJJ	.	16eeeJJ	.	v6
=156	=156	=156	=156	=156	=156	=156	=156	=156
!LO:TX:b:i:t=cresc.	!	!LO:TX:b:i:t=cresc.	!	!LO:TX:b:i:t=cresc.	!	!LO:TX:b:i:t=cresc.	!	!
2.FF#	.	(16F#LL	.	[4.ggn	.	[4.eee	.	V7(+9)/ii
.	.	16G#X	.	.	.	.	.	.
.	.	16A#X	.	.	.	.	.	.
.	.	16B	.	.	.	.	.	.
.	.	16c#	.	.	.	.	.	.
.	.	16dJJ	.	.	.	.	.	.
.	.	16eLL	.	(8ggL]	.	(8eeeL]	.	.
.	.	16f#	.	.	.	.	.	.
.	.	16g#	.	8ff#	.	8dddn	.	.
.	.	16a#X	.	.	.	.	.	.
.	.	16b	.	8eeJ)	.	8ccc#J)	.	.
.	.	16cc#JJ)	.	.	.	.	.	.
=157	=157	=157	=157	=157	=157	=157	=157	=157
(16F#LL	.	[4.F#	.	[4.ee	.	[4.ccc#	.	V7(+9)/ii
16G#	.	.	.	.	.	.	.	.
16A#X	.	.	.	.	.	.	.	.
16B	.	.	.	.	.	.	.	.
16c#	.	.	.	.	.	.	.	.
16dJJ)	.	.	.	.	.	.	.	.
(16eLL	.	(8.F#L]	.	(8eeL]	.	(8ccc#L]	.	.
16f#)	.	.	.	.	.	.	.	.
(16f#	.	.	.	8dd	.	8bb	.	.
16gn)	.	16GnL)	.	.	.	.	.	.
16g	.	(16G	.	8cc#J)	.	16aa#XL	.	.
16gJJ	.	16eJJ)	.	.	.	16aanJJ)	.	.
=158	=158	=158	=158	=158	=158	=158	=158	=158
(8.EL	<	(8.eL	<	(16gnLL	p <	(8.ggnL	<	V43/IV
.	.	.	.	16dd	.	.	.	.
.	.	.	.	16cc#)	.	.	.	.
16C#L	>	16c#L	>	8r	[ >	16eeL	>	.
16AAn	]	16A	]	.	.	16cc#	]	.
16DJJ)	.	16dJJ)	.	16f#JJ	.	16ff#JJ)	.	IV
*clefC4	*	*	*	*	*	*	*	*
(8.f#L	]	(8.dL	]	16r	]	16r	]	.
.	.	.	.	(16eeLL	<	(16ggLL	<	.
.	.	.	.	16dd)	.	16ff#)	.	.
16dL	.	16BL	.	8r	[	8r	[	.
16B	.	16G#X	.	.	.	.	.	.
16eJJ)	.	16c#JJ)	.	16a#XJJ	[[	16eeJJ	[[	V43/ii
=159	=159	=159	=159	=159	=159	=159	=159	=159
!	!	!	!	!	!	!	!LO:DY:a	!
16r	.	16r	.	(8.eL	p < <	(8.eeL	p < <	V7/ii
(16GGnLL	<	(16BLL	<	.	.	.	.	.
16FF#)	.	16A#X)	.	.	.	.	.	.
8r	[	8r	[	16c#L	>	16cc#L	>	.
.	.	.	.	16A#X	]	16a#X	]	.
16FF#JJ	.	16F#JJ	.	16dJJ)	.	16bJJ)	.	ii64
16r	p	16r	p	(8.ddL	] <	(8.dddL	] <	V7
(16FFnLL	.	(16AnLL	.	.	.	.	.	.
16EE)	.	16G#)	.	.	.	.	.	.
8r	.	8r	.	16bL	>	16bbL	>	.
.	.	.	.	16g#X	]	16gg#X	]	.
16EEJJ	.	16EJJ	.	16cc#JJ)	]]	16ccc#JJ)	]]	I64
=160	=160	=160	=160	=160	=160	=160	=160	=160
!LO:TX:b:i:t=cresc.	!	!LO:TX:b:i:t=cresc.	!	!LO:TX:b:i:t=cresc.	!	!LO:TX:b:i:t=cresc.	!	!
16r	.	16r	.	(16cc#LL	.	(16ccc#LL	.	.
(16ELL	.	(16c#LL	.	16an	.	16aan	.	.
16D#X)	.	16cn)	.	16f#	.	16ff#	.	.
(16Dn	.	(16B	.	16g#	.	16gg#	.	V7
16D)	.	16B)	.	16b	.	16bb	.	.
(16C#JJ	.	(16BJJ	.	16e#XJJ	.	16ee#XJJ	.	V7/vi
!LO:TX:b:i:t=dim.	!	!LO:TX:b:i:t=dim.	!	!LO:TX:b:i:t=dim.	!	!LO:TX:b:i:t=dim.	!	!
16C#LL)	.	16ALL)	.	16f#LL	.	16ff#LL	.	vi64
(16Cn	.	(16A	.	16a	.	16aa	.	.
16BB)	.	16A)	.	16d#X	.	16dd#X	.	V7/V
(16BB	.	(16G#	.	16en	.	16een	.	V64
16BB)	.	16G#)	.	16f#	.	16ff#	.	.
16BBJJ	.	16G#JJ	.	16eJJ)	.	16eeJJ)	.	.
=161	=161	=161	=161	=161	=161	=161	=161	=161
16r	p	16r	p	(8.eeL	.	(8.eeeL	.	I\\
(16BBLL	.	(16DLL	.	.	.	.	.	.
16AAJ)	.	16C#XJ)	.	.	.	.	.	.
16r	.	16r	.	16cc#L	.	16ccc#L	.	.
8AJ	.	8c#J 8e	.	16a	.	16aa	.	.
.	.	.	.	16bJJ	.	16bbJJ	.	.
!	!	!LO:TX:b:t=pizz.	!	!LO:TX:b:i:t=cresc.	!	!LO:TX:b:i:t=cresc.	!	!
8AL	.	8c#L 8e	.	16cc#LL	.	16ccc#LL	.	.
.	.	.	.	16ddn	.	16dddn	.	.
8r	.	8A 8e 8cc#	.	16ee	.	16eee	.	.
.	.	.	.	16ff#	.	16fff#	.	.
8AAJ	.	8C#J	.	16gg#	.	16ggg#	.	.
.	.	.	.	16aaJJ)	.	16aaaJJ)	.	.
=162||	=162||	=162||	=162||	=162||	=162||	=162||	=162||	=162||
*M2/4	*	*M2/4	*	*M2/4	*	*M2/4	*	*
!LO:TX:a:t=pizz.	!	!	!	!	!	!LO:TX:a:B:t=Allegretto	!	!
2r	.	2r	sf	8aa	.	8aaa	p	I
!	!	!	!	!	!	!LO:TX:b:i:t=dolce	!	!
.	.	.	.	4r	.	(4.ee	.	.
*	*	*	*	*	*	*^	*	*
.	.	.	.	8r	.	.	(8a	.	.
=163	=163	=163	=163	=163	=163	=163	=163	=163	=163
2r	.	2r	.	8re	.	(2ee)	(8a)	.	I
!	!	!	!	!LO:TX:b:i:t=dolce	!	!	!	!	!
.	.	.	.	(4.e	p	.	(4.a)	.	.
*	*	*	*	*^	*	*	*	*	*
.	.	.	.	.	(8B	.	.	.	.	.
=164	=164	=164	=164	=164	=164	=164	=164	=164	=164	=164
!LO:TX:b:t=arco	!	!	!	!	!	!	!	!	!	!
8rGG	p	2r	.	(2e)	(2B)	.	(2ee)	(2g#)	.	V43
!LO:TX:b:i:t=dolce	!	!	!	!	!	!	!	!	!	!
(4.E	.	.	.	.	.	.	.	.	.	.
*^	*	*	*	*	*	*	*	*	*	*
.	(8BB	.	.	.	.	.	.	.	.	.	.
=165	=165	=165	=165	=165	=165	=165	=165	=165	=165	=165	=165
!	!	!	!LO:TX:b:t=arco	!	!	!	!	!	!	!	!
(2E)	(8BB)	.	8rF	p	2e)	8B)	.	8ee)	8g#)	.	.
*	*	*	*	*	*	*	*	*v	*v	*	*
!	!	!	!LO:TX:b:i:t=dolce	!	!	!	!	!	!	!
.	(4.C#)	.	(4.c#	.	.	4.A	.	(4.ee	.	I6
*	*	*	*^	*	*	*	*	*^	*	*
.	.	.	.	(8E	.	.	.	.	.	(8a	.	.
=166	=166	=166	=166	=166	=166	=166	=166	=166	=166	=166	=166	=166
8EL)	8C#)	.	8c#L)	8E)	.	8e	8A	.	8ee)	8a)	.	.
*v	*v	*	*	*	*	*v	*v	*	*v	*v	*	*
*	*	*v	*v	*	*	*	*	*	*
(8c#J	.	(8eJ	.	8re	.	4aa	.	IV
*	*	*	*	*	*	*^	*	*
8d)	.	8f#L)	.	8re	.	.	4rff	.	IV
8rD	.	(8a#XJ	.	(8cc#	.	[8ff#	.	.	V6/ii
*	*	*	*	*	*	*v	*v	*	*
=167	=167	=167	=167	=167	=167	=167	=167	=167
8r	.	8bL)	.	8dd)	.	8ff#]	.	ii
*clefF4	*	*	*	*	*	*	*	*
(8F#	.	(8AnJ	.	8r	.	4dd	.	V65
8G#)	.	8BL)	.	8r	.	.	.	.
8r	.	(8G#J	.	[8e	.	[8b	.	.
=168	=168	=168	=168	=168	=168	=168	=168	=168
8r	.	8AL)	.	8eL]	.	8b]	.	I
(8AA	.	(8AJ	.	(8eJ	.	4cc#	.	V7/V
8FF#L)	.	8AL)	.	8d#XL)	.	.	.	.
(8BBJ	.	(8F#J	.	(8d#J	.	[8a	.	.
=169	=169	=169	=169	=169	=169	=169	=169	=169
4EE)	.	8E)	.	4e)	.	(8a]	.	V
*	*	*^	*	*	*	*	*	*
.	.	(4B	4.E	.	.	.	4g#	.	V7
4r	.	.	.	.	8r	.	.	.	.
.	.	8d)	.	.	[8e	.	8b	.	.
=170	=170	=170	=170	=170	=170	=170	=170	=170	=170
8rGG	.	2c#	2E	.	2A 2e_	.	8a)	.	I64
(4.E	.	.	.	.	.	.	8r	.	.
.	.	.	.	.	.	.	4r	.	.
*^	*	*	*	*	*	*	*	*	*
.	(8AA	.	.	.	.	.	.	.	.	.
=171	=171	=171	=171	=171	=171	=171	=171	=171	=171	=171
*	*	*	*	*	*	*^	*	*	*	*
(2E)	(8AA)	.	[2B	(2E	.	8e]	8B	.	2r	.	V6
.	(4.GG#)	.	.	.	.	(4.e	8rc	.	.	.	.
.	.	.	.	.	.	.	8rc	.	.	.	.
.	.	.	.	.	.	.	(8B	.	.	.	.
=172	=172	=172	=172	=172	=172	=172	=172	=172	=172	=172	=172
(2E)	4.GG#)	.	8B]	8E)	.	4.e)	4.B)	.	2r	.	V43
.	.	.	4.b	8rD	.	.	.	.	.	.	.
.	.	.	.	8rD	.	.	.	.	.	.	.
.	(8BB	.	.	(8e	.	[8G#	8rff	.	.	.	.
*	*	*	*	*	*	*v	*v	*	*	*	*
=173	=173	=173	=173	=173	=173	=173	=173	=173	=173	=173
2E)	8BB)	.	8rb	8e)	.	8G#]	.	8raa	.	I6
.	(4.C#	.	(4.c#	8rD	.	[4.A [4.e	.	(4.ee	.	.
.	.	.	.	8rD	.	.	.	.	.	.
*	*	*	*	*	*	*	*	*^	*	*
.	.	.	.	(8E	.	.	.	.	(8a	.	.
=174	=174	=174	=174	=174	=174	=174	=174	=174	=174	=174	=174
8E	8C#)	.	8c#)	8E)	.	8A] 8e]	.	8eeL)	8a)	.	.
*v	*v	*	*	*	*	*	*	*v	*v	*	*
*	*	*v	*v	*	*	*	*	*	*
*clefC4	*	*	*	*	*	*	*	*
4a	.	8rb	.	8r	.	(8c#J	.	.
.	.	8rb	.	8r	.	8d)	.	VI
[8f#	.	(8a#X	.	(8cc#	.	8re	.	V/ii
=175	=175	=175	=175	=175	=175	=175	=175	=175
8f#]	.	8b)	.	8dd)	.	8r	.	ii64
4d	.	4f#	.	4ff#	.	(8ccc#	.	.
.	.	.	.	.	.	8ddd)	.	V7
[8B	.	(8g#	.	[8dd	.	8r	.	.
=176	=176	=176	=176	=176	=176	=176	=176	=176
8B]	.	8eL)	.	8ddL]	.	8r	.	I
4c#	.	(8AJ	.	(8cc#J	.	(4ccc#	.	.
.	.	8F#L)	.	8aL)	.	.	.	.
[8B	.	[8F#J	.	[8aJ	.	8ddd#X)	.	V43/V
=177	=177	=177	=177	=177	=177	=177	=177	=177
8B]	.	(8F#]	.	(8a]	.	(8ddd#X	.	.
*clefF4	*	*	*	*	*	*	*	*
(4.BB	.	4E)	.	4g#)	.	4eee)	.	V64\\
*^	*	*	*	*	*	*	*	*
.	(8EE	.	(8B	.	8r	.	8r	.	.
=178!|:	=178!|:	=178!|:	=178!|:	=178!|:	=178!|:	=178!|:	=178!|:	=178!|:	=178!|:
*	*	*	*^	*	*^	*	*	*	*
(2BB)	(2EE)	.	(2B)	4rD	.	8raa	4rc	.	4r	.	V7
.	.	.	.	.	.	(4.d	.	.	.	.	.
.	.	.	.	8rD	.	.	8rc	.	8r	.	.
.	.	.	.	(8E	.	.	(8G#	.	[8bb	.	.
=179	=179	=179	=179	=179	=179	=179	=179	=179	=179	=179	=179
(2BB)	(2EE)	> <	(2B)	(2E)	> <	2d)	2G#)	< >	(8bbL]	<	.
.	.	.	.	.	.	.	.	.	8ccc#J	.	.
.	.	.	.	.	.	.	.	.	8dddL	[ >	.
.	.	.	.	.	.	.	.	.	8eeeJ)	]]	.
*	*	*	*	*	*	*v	*v	*	*	*	*
=180	=180	=180	=180	=180	=180	=180	=180	=180	=180	=180
8AA)	8EE)	[ [	8A)	8E)	[ [	4c#	] ]	8ccc#	]	I64
*v	*v	*	*	*	*	*	*	*	*	*
*	*	*v	*v	*	*	*	*	*	*
8rGG	.	8rF	.	.	.	(4.ee	.	.
4rGG	.	4rF	.	8r	.	.	.	.
*	*	*	*	*	*	*^	*	*
.	.	.	.	(8e	.	.	(8a	.	.
=181	=181	=181	=181	=181	=181	=181	=181	=181	=181
*	*	*	*	*^	*	*	*	*	*
4r	.	8rF	.	(2e)	(8e	.	(2ee)	(2a)	.	V2/IV
.	.	(4.Gn	.	.	(4.A)	.	.	.	.	.
8r	.	.	.	.	.	.	.	.	.	.
*clefC4	*	*	*	*	*	*	*	*	*	*
*	*	*^	*	*	*	*	*	*	*	*
[8e	.	.	(8C#	.	.	.	.	.	.	.	.
=182	=182	=182	=182	=182	=182	=182	=182	=182	=182	=182	=182
(8eL]	<	2Gn)	2C#)	> <	2e)	2A)	< >	2ee)	2a)	> <	V65/IV
8f#J	.	.	.	.	.	.	.	.	.	.	.
8gnL	[ >	.	.	.	.	.	.	.	.	.	.
8aJ)	]]	.	.	.	.	.	.	.	.	.	.
*	*	*v	*v	*	*	*	*	*v	*v	*	*
*	*	*	*	*v	*v	*	*	*	*
=183	=183	=183	=183	=183	=183	=183	=183	=183
!LO:TX:b:i:t=cresc.	!	!LO:TX:b:i:t=cresc.	!	!LO:TX:b:i:t=cresc.	!	!	!	!
(4.ff#	.	8DL	[ [	8AL 8f#	] ]	4a	[ [	IV
.	.	(8dJ	.	(8f#J	.	.	.	.
!	!	!	!	!	!	!LO:TX:b:i:t=cresc.	!	!
.	.	8B)	.	8ddL)	.	8r	.	.
8gg#X	.	8r	.	(8bJ	.	(8bb	.	V43
=184	=184	=184	=184	=184	=184	=184	=184	=184
4.aa	.	8r	.	8cc#L)	.	8ee)	.	I6
.	.	(8F#	.	(8aaJ	.	8r	.	.
.	.	8f#L	.	8ddL)	.	8r	.	V65
8bb)	.	8g#J)	.	(8eeJ	.	[8eee	.	.
=185	=185	=185	=185	=185	=185	=185	=185	=185
!LO:TX:b:i:t=dim.	!	!LO:TX:b:i:t=dim.	!	!LO:TX:b:i:t=dim.	!	!LO:TX:b:i:t=dim.	!	!
(8ccc#L	.	(8aL	.	8a)	.	(8eeeL]	.	I
8dddJ	.	8dJ	.	(4a	.	8fff#J	.	.
8ccc#L	.	8eL)	.	.	.	8eeeL	.	V
8eeeJ)	.	(8eJ	.	8g#	.	8bbJ)	.	.
=186	=186	=186	=186	=186	=186	=186	=186	=186
!	!LO:DY:a	!	!	!	!	!	!	!
8ccc#	p	8A)	p	8a)	p	8ccc#	p	I\\
*clefF4	*	*	*	*	*	*	*	*
4.BB	.	8r	.	8r	.	8r	.	.
.	.	4r	.	4r	.	4r	.	V
*^	*	*	*	*	*	*	*	*
.	8EE	.	.	.	.	.	.	.	.
*v	*v	*	*	*	*	*	*	*	*
=187:|!	=187:|!	=187:|!	=187:|!	=187:|!	=187:|!	=187:|!	=187:|!	=187:|!
8ccc#	p	8AL	p	8aL	p	8ccc#L	p	I
4.E	.	(8BJ	.	(8g#J	.	(8ddJ	.	.
.	.	8AL	<	8aL	<	8cc#L	<	V65
*^	*	*	*	*	*	*	*	*
.	8GG#	<	8EJ) 8B	[[	8bJ)	[[	8eeJ)	[[	.
*v	*v	*	*	*	*	*	*	*	*
=188||	=188||	=188||	=188||	=188||	=188||	=188||	=188||	=188||
*M9/4	*	*M9/4	*	*M9/4	*	*M9/4	*	*
!	!	!	!	!	!	!LO:TX:a:B:t=Adagio ma non troppo e semplice	!	!
4r	[	4r	.	4r	.	4r	.	.
!LO:TX:b:i:t=sotto voce	!	!LO:TX:b:i:t=sotto voce	!	!LO:TX:b:i:t=sotto voce	!	!LO:TX:b:i:t=sotto voce	!	!
(4AA'	.	(4E'	.	(4c#'	.	(4a'	.	I
4AA')	.	4E')	.	4c#')	.	4a')	.	.
(4AA'	.	(4E'	.	(4c#'	.	(4a'	.	.
4GG#'	.	4E'	.	4d'	.	4b'	.	V65
4AA')	.	4E')	.	4c#')	.	4a')	.	I
(4AA'	.	(4E'	.	(4c#'	.	(4a'	.	.
4GG#'	.	4E'	.	4d'	.	4b'	.	V65
4AA')	.	4E')	.	4c#')	.	4a')	.	I
=189	=189	=189	=189	=189	=189	=189	=189	=189
4r	.	4r	.	4r	.	4r	.	.
(4GG#'	.	(4E'	.	(4B'	.	(4dd'	.	V65
4GG#')	.	4E')	.	4B')	.	4dd')	.	.
(4GG#'	.	(4E'	.	(4B'	.	(4dd'	.	.
4FF##X'	.	4E'	.	4A#X'	.	4ee'	.	#viio7/vii
4GG#')	.	4E')	.	4B')	.	4dd')	.	V65
(4GG#'	.	(4E'	.	(4B'	.	(4dd'	.	.
4FF##'	.	4E'	.	4A#'	.	4ee'	.	#viio7/vii
4GG#')	.	4E')	.	4B')	.	4dd')	.	V65
=190	=190	=190	=190	=190	=190	=190	=190	=190
4r	.	4r	.	4r	.	4r	.	.
(4D'	.	(4E'	.	(4G#' 4g#	.	(4b'	.	V2
4D')	.	4E')	.	4G#') 4g#	.	4b')	.	.
(4D'	.	(4E'	.	(4G#' 4g#	.	(4b'	.	.
4C#'	.	4E' 4A#X	.	4Gn' 4gn	.	4cc#'^	.	#viio65/ii
4D')	.	4E')	.	4G#X') 4g#X	.	4b')	.	V2
(4D'	.	(4E'	.	(4G#' 4g#	.	(4b'	.	.
4C#'	.	4E' 4A#	.	4Gn' 4gn	.	4cc#'	.	#viio65/ii
4D')	.	4E')	.	4G#X') 4g#X	.	4b')	.	V2
=191	=191	=191	=191	=191	=191	=191	=191	=191
4r	.	4r	.	4r	.	4r	.	.
(4C#'	.	(4E'	.	(4A' 4a	.	(4ee'	.	I6
4C#')	.	4E')	.	4A') 4a	.	4ee')	.	.
(4C#'	.	(4E'	.	(4A' 4a	.	(4ee'	.	.
4BB#X'	.	4D#X'	.	4A' 4a	.	4ff#'	.	#vio7/iii
4C#')	.	4E')	.	4A') 4a	.	4ee')	.	I6
(4C#'	.	(4E'	.	(4A' 4a	.	(4ee'	.	.
4BB#'	.	4D#'	.	4A' 4a	.	4ff#'	.	#viio7/iii
4C#')	.	4E')	.	4A') 4a	.	4ee')	.	I6
=192	=192	=192	=192	=192	=192	=192	=192	=192
4r	.	4r	.	4r	.	4r	.	.
!LO:TX:b:i:t=cresc.	!	!LO:TX:b:i:t=cresc.	!	!LO:TX:b:i:t=cresc.	!	!LO:TX:b:i:t=cresc.	!	!
(4GGn' 4AA	.	(4Gn' 4A	.	(4gn' 4a	.	(4ee'	.	V2/IV
4GG') 4AA	.	4G') 4A	.	4g') 4a	.	4ee')	.	.
(4GG' 4AA	.	(4G' 4A	.	(4g' 4a	.	(4ee'	.	.
4GG' 4AA	.	4G' 4A	.	4g' 4a	.	4aa'	.	.
4GG') 4AA	.	4G') 4A	.	4g') 4a	.	4aa')	.	.
(4GG' 4AA	.	(4G' 4A	.	(4g' 4a	.	(4aa'	.	.
4GG' 4AA	.	4G' 4A	.	4g' 4a	.	4aa'	.	.
4GG') 4AA	.	4G') 4A	.	4g') 4a	.	4aa')	.	.
=193	=193	=193	=193	=193	=193	=193	=193	=193
(4FF#' 4AA	.	4r	.	(4a'	.	[2.aa	.	#viio7/V
4FF#' 4AA	.	(4F#' 4A	.	4dd#X'	.	.	.	.
4FF#') 4AA	.	4F#') 4A	.	4dd#')	.	.	.	.
(4FF#' 4AA	>	(4F#' 4A	>	(4dd#'	>	(2.aa]	>	.
4FF#' 4AA	.	4F#' 4A	.	4dd#'	.	.	.	.
4FF#') 4AA	.	4F#') 4A	.	4dd#')	.	.	.	.
(4FF#' 4AA	.	(4F#' 4A	.	(4dd#'	.	(4aa)	.	.
4FF#' 4AA	.	4F#' 4A	.	4dd#'	.	4gg#	.	.
4FF#') 4AA	]]	4F#') 4A	]]	4dd#')	]]	4ff#)	]]	.
=194	=194	=194	=194	=194	=194	=194	=194	=194
(4GG#'	p	(4E' 4B	p	(4ddn	p	(4ff#	p	V65
!	!	!	!	!LO:TX:b:i:t=cantabile	!	!LO:TX:b:i:t=cantabile	!	!
4GG#'	.	4E' 4B	.	4cc#	.	4ee	.	.
4GG#')	.	4E') 4B	.	4b)	.	4dd)	.	.
.	.	.	.	.	.	8qqdd/	.	I
(4AA'	.	(4E' 4c#	.	(4e	.	(4cc#	.	.
4AA'	.	4E' 4c#	.	4g#	.	4b	.	.
4AA')	.	4E') 4c#	.	4a	.	4cc#	.	.
4AA'	.	(4E 4c#	.	4cc#	.	4ee	.	.
(4D	.	4F#)	.	4b	.	4dd	.	ii6
4D#X)	.	4F#	.	4a)	.	4cc#)	.	#vii%7/V
=195	=195	=195	=195	=195	=195	=195	=195	=195
(4E'	.	(4F#	.	(4a	.	(4cc#	.	V(64)
4E'	.	4G#	.	4g#	.	4b	.	V
4E')	.	4d#X	.	4f#)	.	4a)	.	V(42#7)
(4E'	.	4e	.	4B	.	(4g#	.	V
4E'	.	4F#	.	(4B	.	4a	.	.
4E')	.	4A	.	4d#X)	.	4f#)	.	.
(4E	.	4G#	.	(4dn'	.	(4e	.	V7
4Dn	.	4A	.	4d'	.	4f#	.	IV
4BB)	.	4E) 4B	.	4d') 4e	.	4g#)	.	V43
=196	=196	=196	=196	=196	=196	=196	=196	=196
!LO:TX:a:i:t=non troppo marcato	!	!	!	!	!	!	!	!
4AA	.	4E	.	4c# 4e	.	4a	.	I
4r	.	(4cc#'	.	(4e' 4ee	.	(4aa'	.	I64
(16FF#LL	<	4cc#')	.	4e') 4ee	.	4aa')	.	.
16EE	.	.	.	.	.	.	.	.
16FF#	.	.	.	.	.	.	.	.
16EEJJ)	.	.	.	.	.	.	.	.
4AA	[ >	(4cc#'	.	(4e' 4ee	.	(4aa'	.	I
4r	.	4ddn'	.	4e' 4ee	.	4bb'	.	V7
4r	.	4cc#')	.	4e') 4ee	.	4aa')	.	I
2r	.	(4cc#'	.	(4e' 4ee	.	(4aa'	.	.
.	.	4dd'	.	4e' 4ee	.	4bb'	.	V7
4r	]]	4cc#')	.	4e') 4ee	.	4aa')	.	I
=197	=197	=197	=197	=197	=197	=197	=197	=197
2r	.	(4cc#'	.	(4e' 4ee	.	(4aa'	.	.
.	.	4g#'	.	4e' 4ee	.	4ddd'	.	V7
(16FF#LL	<	4g#')	.	4e') 4ee	.	4ddd')	.	.
16EE	.	.	.	.	.	.	.	.
16FF#	.	.	.	.	.	.	.	.
16EEJJ)	.	.	.	.	.	.	.	.
4BB	[ >	(4g#'	.	(4e' 4ee	.	(4ddd'	.	.
4r	.	4f##X'	.	4e' 4ee	.	4eee'	.	#viio7/vii
4r	.	4g#')	.	4e') 4ee	.	4ddd')	.	V7
2r	.	(4g#'	.	(4e' 4ee	.	(4ddd'	.	.
.	.	4f##'	.	4e' 4ee	.	4eee'	.	#viio7/vii
4r	]]	4g#')	.	4e') 4ee	.	4ddd')	.	V7
=198	=198	=198	=198	=198	=198	=198	=198	=198
2r	.	(4g#' 4b	.	(4e' 4ee	.	(4ccc#'	.	V(6)
.	.	4g#' 4b	.	4e' 4ee	.	4bb'	.	V
(16FF#LL	<	4g#') 4b	.	4e') 4ee	.	4bb')	.	.
16EE	.	.	.	.	.	.	.	.
16FF#	.	.	.	.	.	.	.	.
16EEJJ)	.	.	.	.	.	.	.	.
4D	[ >	(4g#' 4b	.	(4e' 4ee	.	(4bb'	.	V2
4r	.	4g#' 4b	.	4e' 4ee	.	4ccc#'	.	V(6)
4r	.	4g#') 4b	.	4e') 4ee	.	4bb')	.	V
2r	.	(4g#' 4b	.	(4e' 4ee	.	(4bb'	.	.
.	.	4g#' 4b	.	4e' 4ee	.	4ccc#'	.	V(6)
4r	]]	4g#') 4b	.	4e') 4ee	.	4bb')	.	V
=199	=199	=199	=199	=199	=199	=199	=199	=199
2r	.	(4g#' 4b	.	(4e' 4ee	.	(4bb'	.	.
.	.	4a' 4cc#	.	4e' 4ee	.	4eee'	.	I64
(16FF#LL	<	4a') 4cc#	.	4e') 4ee	.	4eee')	.	.
16EE	.	.	.	.	.	.	.	.
16FF#	.	.	.	.	.	.	.	.
16EEJJ)	.	.	.	.	.	.	.	.
4C#	[ >	(4a' 4cc#	.	(4e' 4ee	.	(4eee'	.	I6
4r	.	4b#X'	.	4a' 4aa	.	4fff#'	.	#viio7/iii
4r	.	4cc#')	.	4a') 4aa	.	4eee')	.	I
2r	.	(4cc#'	.	(4a' 4aa	.	(4eee'	.	.
.	.	4b#'	.	4a' 4aa	.	4fff#'	.	#viio7/iii
4r	]]	4cc#')	.	4a') 4aa	.	4eee')	.	I
=200	=200	=200	=200	=200	=200	=200	=200	=200
!LO:TX:b:i:t=cresc.	!	!LO:TX:b:i:t=cresc.	!	!LO:TX:b:i:t=cresc.	!	!LO:TX:b:i:t=cresc.	!	!
(4GGn' 4AA	.	(4cc#'	.	(4gn' 4a	.	(4eee'	.	V2/IV
4GG' 4AA	.	4cc#'	.	4g' 4a	.	4aaa'	.	.
4GG') 4AA	.	4cc#')	.	4g') 4a	.	4aaa')	.	.
(4GG' 4AA	.	(4cc#'	.	(4g' 4a	.	(4aaa'	.	.
4GG' 4AA	.	4cc#'	.	4g' 4a	.	4aaa'	.	.
4GG') 4AA	.	4cc#')	.	4g') 4a	.	4aaa')	.	.
(4GG' 4AA	.	(4cc#'	.	(4g' 4a	.	(4aaa'	.	.
4GG' 4AA	.	4cc#'	.	4g' 4a	.	4aaa'	.	.
4GG') 4AA	.	4cc#')	.	4g') 4a	.	4aaa')	.	.
=201	=201	=201	=201	=201	=201	=201	=201	=201
(4FF#' 4AA	.	(4dd#X'	.	(4f#' 4a	.	[2.aaa	.	#viio6/V
4FF#' 4AA	.	4dd#'	.	4f#' 4a	.	.	.	.
4FF#') 4AA	.	4dd#')	.	4f#') 4a	.	.	.	.
(4FF#' 4AA	>	(4dd#'	>	(4f#' 4a	>	(2.aaa]	>	.
4FF#' 4AA	.	4dd#'	.	4f#' 4a	.	.	.	.
4FF#') 4AA	.	4dd#')	.	4f#') 4a	.	.	.	.
(4FF#' 4AA	.	(4dd#'	.	(4f#' 4a	.	(4aaa)	.	.
4FF#' 4AA	.	4ee'	.	4f#' 4a	.	4ggg#	.	.
4FF#') 4AA	]]	4dd#')	]]	4f#') 4a	]]	4fff#)	]]	.
=202	=202	=202	=202	=202	=202	=202	=202	=202
(4GG#'	p	(4ddn'	p	(4e' 4b	p	(4fff#	p	V65
4G#'	.	4cc#'	.	4e' 4ee	.	4eee	.	.
4G#')	.	4b')	.	4e') 4ee	.	4ddd)	.	.
.	.	8qqb/	.	.	.	16qqccc#/	.	I
(4A'	.	(4a'	.	(4e' 4ee	.	(4ccc#	.	.
4A'	.	4g#'	.	4e' 4ee	.	4bb	.	.
4A')	.	4a')	.	4e') 4ee	.	4ccc#)	.	.
*clefC4	*	*	*	*	*	*	*	*
(4A	.	(4cc#	.	(4e 4ee	.	(4eee	.	.
4d	.	4f# 4b	.	4dd	.	4ddd	.	ii6
4d#X)	.	4a)	.	4cc#)	.	4ccc#)	.	vii%7
=203	=203	=203	=203	=203	=203	=203	=203	=203
(4d#X	.	(4a	.	(4cc#	.	(4ccc#	.	.
4e)	.	4g#	.	4b	.	4bb	.	V
4e	.	4c#)	.	4a)	.	4aa)	.	I6
4e	.	(4B	.	(4g#	.	(4gg#	.	V64
4E	.	4c#	.	4e	.	4aa	.	I64
!LO:TX:b:i:t=poco cresc.	!	!LO:TX:b:i:t=poco cresc.	!	!LO:TX:b:i:t=poco cresc.	!	!LO:TX:b:i:t=poco cresc.	!	!
4E	.	4A	.	4d#X)	.	4ff#	.	V43(2)/V
(4E	.	4G#	.	(4B'	.	4ee	.	V
4F#	.	4A	.	4B'	.	4dd#X	.	V43/V
!	!LO:DY:a	!	!	!	!	!	!	!
4G#)	p	4E)	p	4B')	p	4ddn)	p	V65
=204	=204	=204	=204	=204	=204	=204	=204	=204
2r	f	2r	.	2r	.	4%9r	.	IV+64
(16FF#LL	.	4r	.	4r	.	.	.	.
16EE	.	.	.	.	.	.	.	.
16FF#	.	.	.	.	.	.	.	.
16EEJJ)	.	.	.	.	.	.	.	.
4BB'	.	4r	.	4r	.	.	.	.
4r	.	(4D'	pp	(4dn'	pp	.	.	.
4r	.	4D')	.	4d')	.	.	.	.
2r	.	4D'	.	4d'	.	.	.	.
.	.	(4A#X'	.	(4a#X'	.	.	.	.
4r	.	4A#')	.	4a#')	.	.	.	.
=205	=205	=205	=205	=205	=205	=205	=205	=205
!	!LO:DY:a	!	!	!	!	!	!	!
2r	pp	(4A#X'	.	(4a#X'	.	4r	.	IV+6
.	.	4d'	.	4dd'	.	(4aa#X'	pp	.
(16FF#LL	.	4d')	.	4dd')	.	4aa#')	.	.
16EE	.	.	.	.	.	.	.	.
16FF#	.	.	.	.	.	.	.	.
16EEJJ)	.	.	.	.	.	.	.	.
2r	.	(4d	.	(4dd'	.	(4aa#	.	.
.	.	4G#)	.	4e' 4b	.	4bb)	.	V65
(16FF#LL	.	4G#	.	4e') 4b	.	4bb	.	.
16EE	.	.	.	.	.	.	.	.
16FF#	.	.	.	.	.	.	.	.
16EEJJ)	.	.	.	.	.	.	.	.
2r	.	(4G#	.	(4e' 4b	.	(4bb	.	.
.	.	4An	.	4e' 4cc#	.	4aan	.	I
(16FF#LL	.	4B)	.	4e') 4dd	.	4gg#	.	V7
16EE	.	.	.	.	.	.	.	.
16FF#	.	.	.	.	.	.	.	.
16EEJJ)	.	.	.	.	.	.	.	.
=206	=206	=206	=206	=206	=206	=206	=206	=206
2r	.	(4G#	.	(4e' 4b	.	4bb	.	V65
.	.	4A)	.	4e' 4cc#	.	4aa	.	I
(16DDLL	ff	4E 4A	.	4e') 4ee	.	4ggn)	.	V65/IV
16CC#	.	.	.	.	.	.	.	.
16DD	.	.	.	.	.	.	.	.
16CC#JJ)	.	.	.	.	.	.	.	.
4GGn'	.	4r	.	4r	.	2r	.	V2/IV
4r	.	(4Gn'	.	(4gn'	pp	.	.	.
4r	.	4G')	pp	4g')	.	4r	.	.
2r	.	4G'	.	4g'	.	2r	.	V65/IV
.	.	(4c#'	.	(4cc#'	.	.	.	.
4r	.	4c#')	.	4cc#')	.	4r	.	.
=207	=207	=207	=207	=207	=207	=207	=207	=207
2r	.	(4c#'	.	(4cc#'	.	4r	.	V65/IV
.	.	4C#' 4Gn	.	4c#' 4gn	.	(4ggn'	pp	.
(16DDLL	.	4C#') 4G	.	4c#') 4g	.	4gg')	.	.
16CC#	.	.	.	.	.	.	.	.
16DD	.	.	.	.	.	.	.	.
16CC#JJ)	.	.	.	.	.	.	.	.
4GGn'	.	(4C#' 4G	.	(4c#' 4g	.	(4gg'	.	V2/IV
(4gn'	.	4a#X'	.	4ee'	.	4ccc#'	.	#viio2/ii
4g')	.	4a#')	.	4ee')	.	4ccc#')	.	.
(4g	.	(4a#	.	(4ee	.	(4ccc#	.	.
4f#)	.	4b	.	4dd	.	4ddd	.	ii64
4f#	.	4a#)	.	4cc#)	.	4eee)	.	V7/ii
=208	=208	=208	=208	=208	=208	=208	=208	=208
4f#	.	4a#X	.	(4cc#	.	(4eee	.	.
(4f#	.	(4a#	.	4ee	.	4ccc#	.	.
4B)	.	4f#)	.	4dd)	.	4ddd)	.	ii
!LO:TX:b:i:t=cresc.	!	!LO:TX:b:i:t=cresc.	!	!LO:TX:b:i:t=cresc.	!	!LO:TX:b:i:t=cresc.	!	!
4B	.	(4f#'	.	(4dd'	.	(4ddd	.	.
(4B	.	4f#'	.	4dd'	.	4fff#	.	.
4c#)	.	4f#')	.	4a')	.	4fff#)	.	V(64)/vi
(4c#'	.	(4f#	.	(4a	.	(4fff#	.	.
4c#'	.	4g#X	.	4b)	.	4eee#X	.	V7/vi
4c#')	.	4e#X)	.	4b	.	4ggg#X)	.	.
=209	=209	=209	=209	=209	=209	=209	=209	=209
(4d'	.	(4e#X	.	(4b	.	(4ggg#	.	IV(642)
4d'	.	4f#)	.	4a)	.	4fff#	.	IV
4d')	.	4f#	.	4a	.	4aaa)	.	.
(4d'	.	(4f#'	.	(4a'	.	(4aaa'	.	.
*clefF4	*	*	*	*	*	*	*	*
4D'	.	4F#' 4An	.	4f#' 4a	.	4aaa'	.	IV
4BB')	.	4F#') 4A	.	4f#') 4a	.	4aaa')	.	V7/V
(4BB'	>	(4F#' 4A	>	(4f#' 4a	>	(4aaa	>	.
4BB'	.	4F#' 4A	.	4f#' 4a	.	4fff#	.	.
4BB')	]]	4F#') 4A	]]	4f#') 4a	]]	4ddd#X)	]]	.
=210	=210	=210	=210	=210	=210	=210	=210	=210
(4D'	p	(4F#' 4A	p	(4f#' 4a	p	(4fff#	p	IV
4D'	.	4F#' 4A	.	4f#' 4a	.	4dddn	.	.
4D')	.	4F#') 4A	.	4f#') 4a	.	4bb)	.	ii65
(4E'	.	(4A'	.	(4a	.	(4ddd	.	V[V(764)
4E'	.	4A'	.	4cc#	.	4ccc#	.	V(64)
4E')	.	4A')	.	4ccn)	.	4eee	.	iv64/V
(4E'	.	(4F#	.	(4cn	.	4ddd#X	.	viio7/V
4E')	.	4G#	.	4B	.	4dddn)	.	V7]
(16FF#LL	.	4B)	.	4d)	.	4gg#	.	.
16EE	.	.	.	.	.	.	.	.
16FF#	.	.	.	.	.	.	.	.
16EEJJ)	.	.	.	.	.	.	.	.
=211	=211	=211	=211	=211	=211	=211	=211	=211
(4EE	.	(4G#	.	(4d	.	(4bb	.	.
4AA)	.	4A	.	4c#X)	.	4aa)	.	I
4AA	.	4C#)	.	(4c#	.	(4aa	.	.
4AA	.	4C#	.	4B	.	4gg#	.	.
(4AA	.	(4C#	.	4c#	.	4aa	.	.
!LO:TX:b:i:t=poco cresc.	!	!LO:TX:b:i:t=poco cresc.	!	!LO:TX:b:i:t=poco cresc.	!	!LO:TX:b:i:t=poco cresc.	!	!
4BB)	.	4D#X	.	4A	.	4ff#	.	V7/V
4BB	.	4E	.	4G#	.	4ee	.	V64
(4BB	.	4F#	.	4a	.	4dd#X	.	V7/V
4E)	p	4G#)	p	4b)	p	4ddn)	p	V7
=212	=212	=212	=212	=212	=212	=212	=212	=212
2r	.	2r	.	2r	.	2r	.	.
(16FF#LL	f	4r	.	4r	.	4r	.	.
16EE	.	.	.	.	.	.	.	.
16FF#	.	.	.	.	.	.	.	.
16EEJJ)	.	.	.	.	.	.	.	.
4BB'	.	4r	.	4r	.	2r	.	V65
4r	.	(4Dn'	p	(4d'	p	.	.	.
4r	.	4D')	.	4d')	.	(16ff#LL	f	.
.	.	.	.	.	.	16ee	.	.
.	.	.	.	.	.	16ff#	.	.
.	.	.	.	.	.	16eeJJ)	.	.
2r	.	4D'	.	4d'	.	4bb'	.	V(4)/ii
.	.	(4A#X'	pp	(4a#X'	pp	(4aa#X'	pp	V/ii
(16FF#LL	pp	4A#')	.	4a#')	.	4aa#')	.	.
16EE	.	.	.	.	.	.	.	.
16FF#	.	.	.	.	.	.	.	.
16EEJJ)	.	.	.	.	.	.	.	.
=213	=213	=213	=213	=213	=213	=213	=213	=213
2r	.	(4A#X'	.	(4a#X'	.	(4aa#X'	.	.
.	.	4d'	.	4dd'	.	4ddd'	.	V+/ii
(16FF#LL	.	4b')	.	4bb')	.	4ddd')	.	V7
16EE	.	.	.	.	.	.	.	.
16FF#	.	.	.	.	.	.	.	.
16EEJJ)	.	.	.	.	.	.	.	.
2r	.	(4b	.	(4gg#	.	(4ddd	.	V7
.	.	4an)	.	4aan)	.	4ccc#)	.	I
(16FF#LL	.	4a	.	4aa	.	4ccc#	.	I64
16EE	.	.	.	.	.	.	.	.
16FF#	.	.	.	.	.	.	.	.
16EEJJ)	.	.	.	.	.	.	.	.
2r	.	(4a	.	(4cc#	.	(4ccc#	.	I
.	.	4g#)	.	4dd)	.	4bb)	.	V65
(16FF#LL	.	4g#	.	4b	.	(4eee	.	V7
16EE	.	.	.	.	.	.	.	.
16FF#	.	.	.	.	.	.	.	.
16EEJJ)	.	.	.	.	.	.	.	.
=214	=214	=214	=214	=214	=214	=214	=214	=214
2r	.	(4g#	.	(4b	.	4ddd	.	V65
.	.	4e)	.	4a)	.	4ccc#	.	I64
(16FF#LL	f	4A 4e	.	4a	.	4eee)	.	I64
16EE	.	.	.	.	.	.	.	.
16FF#	.	.	.	.	.	.	.	.
16EEJJ)	.	.	.	.	.	.	.	.
4GGn'	.	4r	f	4r	.	2r	.	@none
(4GG'	.	(4Gn'	.	(4gn'	f	.	.	.
4GG')	.	4G')	.	4g')	.	(16ddLL	f	.
.	.	.	.	.	.	16cc#	.	.
.	.	.	.	.	.	16dd	.	.
.	.	.	.	.	.	16cc#JJ)	.	.
(4GG'	.	4G'	.	4g'	.	4ggn'	.	.
4GG')	pp	(4c#'	pp	(4cc#'	pp	(4ccc#'	pp	.
(16GGLL	.	4c#')	.	4cc#')	.	4ccc#')	.	.
16FF#	.	.	.	.	.	.	.	.
16GG	.	.	.	.	.	.	.	.
16FF#JJ)	.	.	.	.	.	.	.	.
=215	=215	=215	=215	=215	=215	=215	=215	=215
2r	.	(4c#	.	(4cc#'	.	(4ccc#	.	V7/ii
.	.	4A#X)	.	4cc#'	.	4eee)	.	.
(16GGnLL	.	4A#	.	4cc#')	.	4eee	.	.
16FF#	.	.	.	.	.	.	.	.
16GG	.	.	.	.	.	.	.	.
16FF#JJ)	.	.	.	.	.	.	.	.
2r	.	(4A#	.	(4cc#	.	(4eee	.	.
.	.	4B)	.	4dd)	.	4ddd)	.	ii
(16GGLL	.	4F#	.	4b	.	4ddd	.	ii64
16FF#	.	.	.	.	.	.	.	.
16GG	.	.	.	.	.	.	.	.
16FF#JJ)	.	.	.	.	.	.	.	.
2r	.	(4F#	.	(4b	.	(4ddd	.	ii64
.	.	4A#)	.	4cc#)	.	4ccc#	.	V7/ii
(16GGLL	.	4A#	.	4cc#	.	4eee)	.	.
16FF#	.	.	.	.	.	.	.	.
16GG	.	.	.	.	.	.	.	.
16FF#JJ)	.	.	.	.	.	.	.	.
=216	=216	=216	=216	=216	=216	=216	=216	=216
2r	.	(4A#X	.	(4cc#	.	(4eee	.	V65/ii
.	.	4B)	.	4dd)	.	4ddd	.	ii
(16C#LL	.	4B	.	4dd	.	4fff#)	.	.
16BB	.	.	.	.	.	.	.	.
16C#	.	.	.	.	.	.	.	.
16BBJJ)	.	.	.	.	.	.	.	.
!	!	!LO:TX:b:i:t=cresc.	!	!LO:TX:b:i:t=cresc.	!	!LO:TX:b:i:t=cresc.	!	!
2r	.	(4B'	.	(4dd'	.	(4fff#'	.	.
.	.	4B'	.	4dd'	.	4fff#'	.	.
!LO:TX:b:i:t=cresc.	!	!	!	!	!	!	!	!
(16DDLL	.	4c#')	.	4a')	.	4fff#')	.	V(764)/vi
16CC#	.	.	.	.	.	.	.	.
16DD	.	.	.	.	.	.	.	.
16CC#JJ)	.	.	.	.	.	.	.	.
2r	.	(4C#	.	(4a	.	(4fff#	.	.
.	.	4G#	.	4b)	.	4eee#X	.	V/vi
16DDLL	.	4E#X)	.	4b	.	4ggg#)	.	#viio65/vi
16DD	.	.	.	.	.	.	.	.
16DD	.	.	.	.	.	.	.	.
16DDJJ	.	.	.	.	.	.	.	.
=217	=217	=217	=217	=217	=217	=217	=217	=217
2r	.	(4Fn	.	(4b	.	(4ggg#	.	.
.	.	4F#X) 4An	.	4f#) 4a	.	4fff#	.	vi
(16EELL	.	(4F#' 4A	.	(4f#' 4a	.	4aaa)	.	vi2
16DD	.	.	.	.	.	.	.	.
16EE	.	.	.	.	.	.	.	.
16DDJJ)	.	.	.	.	.	.	.	.
2r	.	4F#' 4A	.	4f#' 4a	.	(4aaa'	.	vi
.	.	4F#' 4A	.	4f#' 4a	.	4aaa'	.	.
(16C#LL	.	4F#') 4A	.	4f#') 4a	.	4aaa')	.	.
16BB	.	.	.	.	.	.	.	.
16C#	.	.	.	.	.	.	.	.
16BBJJ)	.	.	.	.	.	.	.	.
2r	.	(4F#' 4A	>	(4f#' 4a	>	(4aaa	>	.
.	.	4F#' 4A	.	4f#' 4a	.	4fff#	.	.
(16BBLL	.	4F#') 4A	]]	4f#') 4a	]]	4ddd#X)	]]	V7/V
16BB	.	.	.	.	.	.	.	.
16BB	.	.	.	.	.	.	.	.
16BBJJ)	.	.	.	.	.	.	.	.
=218	=218	=218	=218	=218	=218	=218	=218	=218
2r	p	(4F#' 4A	p	(4f#' 4a	p	(4fff#	p	vi
.	.	4F#' 4A	.	4f#' 4a	.	4dddn	.	IV6
(16EELL	.	4F#') 4A	.	4f#') 4a	.	4bb	.	ii65
16DD	.	.	.	.	.	.	.	.
16EE	.	.	.	.	.	.	.	.
16DDJJ)	.	.	.	.	.	.	.	.
2r	.	4E 4A	.	4e 4a	.	4ddd	.	I64(7)
.	.	(4E 4A	.	(4e 4a	.	4ccc#	.	I64
(16FF#LL	.	4E	.	4cc#	.	4eee	.	I64
16EE	.	.	.	.	.	.	.	.
16FF#	.	.	.	.	.	.	.	.
16EEJJ)	.	.	.	.	.	.	.	.
2r	.	4F#	.	4ccn	.	4ddd#X	.	V65(#754)
.	.	4G#	.	4b	.	4dddn	.	V65
16FF#LL	.	4B)	.	4d)	.	4gg#)	.	V7
16EE	.	.	.	.	.	.	.	.
16FF#	.	.	.	.	.	.	.	.
16EEJJ	.	.	.	.	.	.	.	.
=219	=219	=219	=219	=219	=219	=219	=219	=219
!	!	!LO:TX:b:i:t=cresc.	!	!LO:TX:b:i:t=cresc.	!	!LO:TX:b:i:t=cresc.	!	!
2r	.	(4G#	.	(4d	.	(4bb	.	V65
.	.	4A	.	4c#X	.	4aa	.	I
!LO:TX:b:i:t=cresc.	!	!	!	!	!	!	!	!
(16BBLL	.	4C#	.	4e	.	4ggn	.	V7/IV
16AA	.	.	.	.	.	.	.	.
16BB	.	.	.	.	.	.	.	.
16AAJJ)	.	.	.	.	.	.	.	.
2r	.	4D	.	4f#	.	4ff#	.	IV
.	.	4E	.	4Gn	.	4ee	.	v
(16DLL	.	4F#	.	4A	.	4dd	.	IV64
16AA	.	.	.	.	.	.	.	.
16D	.	.	.	.	.	.	.	.
16AAJJ)	.	.	.	.	.	.	.	.
!	!	!LO:TX:b:i:t=dim.	!	!LO:TX:b:i:t=dim.	!	!LO:TX:b:i:t=dim.	!	!
2r	.	4G#)	.	4B	.	4cc#	.	V65(4)
.	.	4G#	.	4d	.	4b	.	V65
!LO:TX:b:i:t=dim.	!	!	!	!	!	!	!	!
(16BBLL	.	4A	.	4c#)	.	4ee)	.	I
16AA	.	.	.	.	.	.	.	.
16BB	.	.	.	.	.	.	.	.
16AAJJ)	.	.	.	.	.	.	.	.
=220	=220	=220	=220	=220	=220	=220	=220	=220
!	!	!LO:TX:b:i:t=cresc.	!	!LO:TX:b:i:t=cresc.	!	!LO:TX:b:i:t=cresc.	!	!
2r	.	(4C#	.	(4A	.	(4ee	.	I6
.	.	4D	.	4B	.	4a	.	.
!LO:TX:b:i:t=cresc.	!	!	!	!	!	!	!	!
(16BBLL	.	4E	.	4c#	.	4gn	.	V7/IV
16AA	.	.	.	.	.	.	.	.
16BB	.	.	.	.	.	.	.	.
16AAJJ)	.	.	.	.	.	.	.	.
2r	.	4F#	.	4d	.	4f#	.	IV6
.	.	4Gn	.	4e	.	4e	.	.
(16DLL	.	4F#	.	4f#	.	4d	.	IV64
16AA	.	.	.	.	.	.	.	.
16D	.	.	.	.	.	.	.	.
16AAJJ)	.	.	.	.	.	.	.	.
2r	.	4E	.	4A	.	4c#	.	V(64)
.	.	4D	.	4G#X	.	4B	.	V2
(16BBLL	.	4C#)	.	4A)	.	4e)	.	I
16AA	.	.	.	.	.	.	.	.
16BB	.	.	.	.	.	.	.	.
16AAJJ)	.	.	.	.	.	.	.	.
=221	=221	=221	=221	=221	=221	=221	=221	=221
!	!	!	!	!	!	!LO:TX:b:i:t=sotto voce	!	!
4FF#	p	4D#X	p	4A	p	(2.a	.	V65/V
4r	.	4r	.	4r	.	.	.	.
4r	.	4r	.	4r	.	.	.	.
4F#	.	4A	.	4d#X	.	12aL)	.	.
.	.	.	.	.	.	(12g#X	.	.
.	.	.	.	.	.	12f#	.	.
4r	.	4r	.	4r	.	12e	.	.
.	.	.	.	.	.	12d#X	.	.
.	.	.	.	.	.	12f#	.	.
4r	.	4r	.	4r	.	12a	.	.
.	.	.	.	.	.	12b	.	.
.	.	.	.	.	.	12dd#XJ	.	.
2r	.	2r	.	2r	.	12ff#L	.	.
.	.	.	.	.	.	12ee	.	.
.	.	.	.	.	.	12dd#	.	.
.	.	.	.	.	.	12aa	.	.
.	.	.	.	.	.	12gg#	.	.
.	.	.	.	.	.	12ff#	.	.
4r	.	4r	.	4r	.	12ccc#	.	.
.	.	.	.	.	.	12bb	.	.
.	.	.	.	.	.	12aaJ)	.	.
=222	=222	=222	=222	=222	=222	=222	=222	=222
[2.E	.	[2.B	.	[2.dn	.	(2.aa	.	V7(4)
4E]	.	4B]	.	4d]	.	(12aaL)	.	.
.	.	.	.	.	.	12bb	.	.
.	.	.	.	.	.	12aa	.	.
4r	.	4r	.	4r	.	8gg#	.	.
.	.	.	.	.	.	8aa	.	.
4r	.	4r	.	4r	.	8bb	.	.
.	.	.	.	.	.	8ccc#J)	.	.
4r	.	4r	.	4r	.	4dddn	.	.
(8dL	.	(8eL	.	(8g#L	.	4r	.	V2
8c#	.	8f#	.	8a	.	.	.	.
8B	.	8g#	.	8b	.	4r	.	V43
8AJ)	.	8aJ)	.	8cc#J)	.	.	.	.
=223	=223	=223	=223	=223	=223	=223	=223	=223
4G#	.	(2.B	.	4e 4dd	.	4%9r	.	V7
4r	.	.	.	4r	.	.	.	.
4r	.	.	.	4r	.	.	.	.
4EE	.	(12BL)	.	4e 4dd	.	.	.	.
.	.	12E	.	.	.	.	.	.
.	.	12G#	.	.	.	.	.	.
4r	.	12B	.	4r	.	.	.	.
.	.	12c#	.	.	.	.	.	.
.	.	12d	.	.	.	.	.	.
4r	.	12e	.	4r	.	.	.	.
.	.	12f#	.	.	.	.	.	.
.	.	12g#J	.	.	.	.	.	.
2r	.	12aL	.	2r	.	.	.	.
.	.	12b	.	.	.	.	.	.
.	.	12cc#	.	.	.	.	.	.
.	.	12dd	.	.	.	.	.	.
.	.	12dd#X	.	.	.	.	.	.
.	.	12ee	.	.	.	.	.	.
4r	.	12ff#	.	4r	.	.	.	.
.	.	12ee	.	.	.	.	.	.
.	.	12ddnJ)	.	.	.	.	.	.
=224	=224	=224	=224	=224	=224	=224	=224	=224
2r	.	(2.dd	.	2r	.	2r	.	.
4r	.	.	.	4r	.	4r	.	.
(4E	.	12ddL)	.	(4gn	.	2r	.	V43/IV
.	.	(12ee	.	.	.	.	.	.
.	.	12dd	.	.	.	.	.	.
(8EL)	.	8cc#	.	(8gL)	.	.	.	.
8D	.	8dd	.	8f#	.	.	.	.
8C#	.	8ee	.	8e	.	4r	.	V65/IV
8BBJ)	.	8ff#J	.	8dJ)	.	.	.	.
4AA	.	4ggn)	.	4c#	.	4r	.	V7/IV
4r	.	(8gnL	.	(8aL	.	(8cc#L	.	V2/IV
.	.	8f#	.	8b	.	8dd	.	.
4r	.	8e	.	8cc#	.	8ee	.	.
.	.	8dJ)	.	8ddJ)	.	8ff#J)	.	.
=225	=225	=225	=225	=225	=225	=225	=225	=225
!LO:TX:b:i:t=cresc.	!	!LO:TX:b:i:t=cresc.	!	!LO:TX:b:i:t=cresc.	!	!LO:TX:b:i:t=cresc.	!	!
(2.ee	.	4c#	.	4ee	.	4a 4ggn	.	V65/IV
.	.	4r	.	4r	.	4r	.	.
.	.	4r	.	4r	.	4r	.	.
(12eeL)	.	4C#	.	4a	.	4ee 4gg	.	.
12a	.	.	.	.	.	.	.	.
12b	.	.	.	.	.	.	.	.
12cc#	.	4r	.	4r	.	4r	.	.
12dd	.	.	.	.	.	.	.	.
12ee	.	.	.	.	.	.	.	.
12ff#	.	4r	.	4r	.	4r	.	.
12gg#	.	.	.	.	.	.	.	.
12aaJ	.	.	.	.	.	.	.	.
12bbL	.	2r	.	2r	.	2r	.	.
12ccc#	.	.	.	.	.	.	.	.
12ddd	.	.	.	.	.	.	.	.
!LO:TX:b:i:t=dim.	!	!	!	!	!	!	!	!
12eee	.	.	.	.	.	.	.	.
12ddd	.	.	.	.	.	.	.	.
12ccc#	.	.	.	.	.	.	.	.
12bb	.	4r	.	4r	.	4r	.	.
12aa	.	.	.	.	.	.	.	.
12ggnJ)	.	.	.	.	.	.	.	.
=226	=226	=226	=226	=226	=226	=226	=226	=226
!LO:TX:b:i:t=cresc.	!	!LO:TX:b:i:t=cresc.	!	!LO:TX:b:i:t=cresc.	!	!LO:TX:b:i:t=cresc.	!	!
4ff#	.	4A#X	.	(2.cc#	.	4ccc#	.	V6/ii
4r	.	4r	.	.	.	4r	.	.
4r	.	4r	.	.	.	4r	.	.
4AA#X	.	4F# 4c#	.	(12ccnL)	.	4ccc#	.	.
.	.	.	.	12f#	.	.	.	.
.	.	.	.	12a#X	.	.	.	.
4r	.	4r	.	12cc	.	4r	.	.
.	.	.	.	12ff#	.	.	.	.
.	.	.	.	12aa#X	.	.	.	.
4r	.	4r	.	12ccc#X	.	4r	.	.
.	.	.	.	12bb	.	.	.	.
.	.	.	.	12aa#J	.	.	.	.
2r	.	2r	.	12ggnL	.	2r	.	.
.	.	.	.	12ff#	.	.	.	.
.	.	.	.	12ee#X	.	.	.	.
!	!	!	!	!LO:TX:b:i:t=dim.	!	!	!	!
.	.	.	.	12ff#	.	.	.	.
.	.	.	.	12cc	.	.	.	.
.	.	.	.	12dd	.	.	.	.
4r	.	4r	.	12een	.	4r	.	.
.	.	.	.	12cc	.	.	.	.
.	.	.	.	12ff#J)	.	.	.	.
=227	=227	=227	=227	=227	=227	=227	=227	=227
!LO:TX:b:i:t=cresc.	!	!LO:TX:b:i:t=cresc.	!	!LO:TX:b:i:t=cresc.	!	!LO:TX:b:i:t=cresc.	!	!
4An	.	4f#	.	4dd#X	.	(2.bb	.	V2/V
4r	.	4r	.	4r	.	.	.	.
4r	.	4r	.	4r	.	.	.	.
4G#	.	4B	.	4e 4ddn	.	(12bbL)	.	V65
.	.	.	.	.	.	12aa	.	.
.	.	.	.	.	.	12gg#	.	.
4r	.	4r	.	4r	.	12ff#	.	.
.	.	.	.	.	.	12ee	.	.
.	.	.	.	.	.	12dd#X	.	.
4r	.	4r	.	4r	.	12ee	.	.
.	.	.	.	.	.	12ff#	.	.
.	.	.	.	.	.	12ddnJ	.	.
4A	.	4c#	.	4e	.	12cc#L	.	I
.	.	.	.	.	.	12dd	.	.
.	.	.	.	.	.	12cc#	.	.
!	!	!	!	!	!	!LO:TX:b:i:t=dim.	!	!
4r	.	4r	.	4r	.	12ee	.	.
.	.	.	.	.	.	12dd	.	.
.	.	.	.	.	.	12cc#	.	.
4D	p	4B	p	4f#	p	12ee	.	ii6
.	.	.	.	.	.	12dd	.	.
.	.	.	.	.	.	12bJ)	.	.
=228	=228	=228	=228	=228	=228	=228	=228	=228
4r	.	2r	.	2r	.	(2.bT	.	V
(4E	p	.	.	.	.	.	.	.
4G#	.	4r	.	4r	.	.	.	.
4B)	.	4r	.	2r	.	(2.b)	p	.
4r	.	(4e	p	.	.	.	.	.
4r	.	4g#	.	4r	.	.	.	.
2r	.	4b)	.	4r	.	(2.b)	.	.
.	.	4r	.	(4ee	p	.	.	.
4r	.	4r	.	4gg#	.	.	.	.
=229	=229	=229	=229	=229	=229	=229	=229	=229
4r	.	2r	.	4bb)	.	4b)	.	.
(4E	.	.	.	4r	.	(2cc#t	.	V(64)
!LO:TX:b:i:t=piu p	!	!	!	!	!	!	!	!
4A	.	4r	.	4r	.	.	.	.
!	!	!	!	!	!	!LO:TX:b:i:t=piu p	!	!
4c#)	.	4r	.	2r	.	(2.cc#)	.	.
!	!	!LO:TX:b:i:t=piu p	!	!	!	!	!	!
4r	.	(4e	.	.	.	.	.	.
4r	.	4a	.	4r	.	.	.	.
2r	.	4cc#)	.	4r	.	(2.cc#)	.	.
!	!	!	!	!LO:TX:b:i:t=piu p	!	!	!	!
.	.	4r	.	(4ee	.	.	.	.
4r	.	4r	.	4aa	.	.	.	.
=230	=230	=230	=230	=230	=230	=230	=230	=230
4r	.	2r	.	(4ccc#)	.	4b)	.	.
!	!	!	!	!	!	!LO:TX:b:i:t=morendo	!	!
(4E	.	.	.	4cccn)	.	(2ccnT	.	.bIII.vi64
!LO:TX:b:i:t=morendo	!	!	!	!	!	!	!	!
4A	.	4r	.	4r	.	.	.	.
4cn)	.	4r	.	2r	.	(2.cc)	.	.
!	!	!LO:TX:b:i:t=morendo	!	!	!	!	!	!
4r	.	(4e	.	.	.	.	.	.
!	!	!	!	!LO:TX:b:i:t=morendo	!	!	!	!
4r	.	4a	.	4r	.	.	.	.
2r	.	4ccn)	.	4r	.	(2.cc)	.	.
.	.	4r	.	(4ee	.	.	.	.
4r	.	4r	.	4aa	.	.	.	.
=231	=231	=231	=231	=231	=231	=231	=231	=231
4r	.	2r	.	4cccn)	.	4ccn)	.	.
(4Fn	ppp	.	.	4r	.	(2ccT	.	IV
4A	.	4r	.	4r	.	.	.	.
4cn)	.	4r	.	2r	.	(2.cc)	ppp	.
4r	.	(4fn	ppp	.	.	.	.	.
4r	.	4a	.	4r	.	.	.	.
2r	.	4ccn)	.	4r	.	(2cc)	.	.
.	.	4r	.	(4ffn	ppp	.	.	.
4r	.	4r	.	4aa	.	8ccL)	.	.
.	.	.	.	.	.	(8bJ	.	.
=232||	=232||	=232||	=232||	=232||	=232||	=232||	=232||	=232||
*k[]	*	*k[]	*	*k[]	*	*k[]	*	*
*a:	*	*a:	*	*a:	*	*a:	*	*
*M2/4	*	*M2/4	*	*M2/4	*	*M2/4	*	*
!	!	!	!	!	!	!LO:TX:a:B:t=Allegretto	!	!
8GL	.	8enL	.	8cccL)	.	8cc)	.	V[I
8GJ	p	8cJ	p	8enJ	p	(4cc	p	.
8G	.	8c	.	8e	.	.	.	.
!	!	!	!	!	!	!LO:TX:b:i:t=dolce	!	!
8r	.	8r	.	8r	.	16ddnLL	.	.
.	.	.	.	.	.	16ccJJ)	.	.
=233	=233	=233	=233	=233	=233	=233	=233	=233
8r	.	8r	.	8r	.	8b	.	V7
8G	.	8d	.	8f	.	(4b	.	.
8G	.	8d	.	8f	.	.	.	.
8r	.	8r	.	8r	.	16ccLL	.	.
.	.	.	.	.	.	16bJJ)	.	.
=234	=234	=234	=234	=234	=234	=234	=234	=234
8r	.	8r	.	8r	.	8ff	.	.
8G	.	8B	.	8d	.	(4ff	.	.
8G	.	8B	.	8d	.	.	.	.
8r	.	8r	.	8r	.	16ggLL	.	.
.	.	.	.	.	.	16ffJJ)	.	.
=235	=235	=235	=235	=235	=235	=235	=235	=235
8r	.	8r	.	8r	.	8ee	.	I]
8G	.	8c	.	8e	.	(4ee	.	.
8G	.	8c	.	8e	.	.	.	.
8r	.	8r	.	8r	.	16ffLL	.	.
.	.	.	.	.	.	16eeJJ)	.	.
=236	=236	=236	=236	=236	=236	=236	=236	=236
8r	.	8r	.	8r	.	8ee	.	I
!LO:TX:b:i:t=cresc.	!	!LO:TX:b:i:t=cresc.	!	!LO:TX:b:i:t=cresc.	!	!LO:TX:b:i:t=cresc.	!	!
8c	.	8e	.	8g	.	(4ee	.	.
8c	.	8e	.	8g	.	.	.	.
8r	.	8r	.	8r	.	16ffLL	.	.
.	.	.	.	.	.	16eeJJ)	.	.
=237	=237	=237	=237	=237	=237	=237	=237	=237
8r	.	8r	.	8r	.	8ee	.	V43/vi
8B	.	8d	.	8g#X	.	(4ee	.	.
8B	.	8d	.	8g#	.	.	.	.
8r	.	8r	.	8r	.	16ffLL	.	.
.	.	.	.	.	.	16eeJJ)	.	.
=238	=238	=238	=238	=238	=238	=238	=238	=238
8r	.	8r	.	8r	.	8ee	.	vi
8A	.	8c	.	8a	.	(4ee	.	.
8A	.	8c	.	8a	.	.	.	.
8r	.	8r	.	8r	.	16ffLL	.	.
.	.	.	.	.	.	16eeJJ)	.	.
=239	=239	=239	=239	=239	=239	=239	=239	=239
!	!	!	!	!	!	!LO:TX:a:i:t=sempre più allegro	!	!
8r	.	8r	.	8r	.	8ee	.	V/vi
8G#X	.	8B	.	8b	.	(4ee	.	.
8G#	.	8B	.	8b	.	.	.	.
8r	.	8r	.	8r	.	16ffLL	.	.
.	.	.	.	.	.	16eeJJ)	.	.
=240	=240	=240	=240	=240	=240	=240	=240	=240
2r	.	2r	.	2r	.	8ee	.	I.V
.	.	.	.	.	.	(4ee	.	.
.	.	.	.	.	.	16ffLL	.	.
.	.	.	.	.	.	16eeJJ)	.	.
=241	=241	=241	=241	=241	=241	=241	=241	=241
2r	.	2r	.	2r	.	(8eeL	.	.
.	.	.	.	.	.	16ffL	.	.
.	.	.	.	.	.	16eeJJ)	.	.
.	.	.	.	.	.	(8eeL	.	.
.	.	.	.	.	.	16ff#XL	.	.
.	.	.	.	.	.	16eeJJ)	.	.
=242	=242	=242	=242	=242	=242	=242	=242	=242
!	!	!	!	!LO:TX:a:i:t=dim. e rit.	!	!LO:TX:a:B:t=in tempo	!	!
2r	.	2r	.	2r	.	(24eeLL	p	.
!	!	!	!	!	!	!LO:TX:b:i:t=piu p	!	!
.	.	.	.	.	.	24ff#X	.	.
.	.	.	.	.	.	24ee	.	.
.	.	.	.	.	.	24ff#	.	.
.	.	.	.	.	.	24ee	.	.
.	.	.	.	.	.	24ff#JJ)	.	.
.	.	.	.	.	.	(4eeT	pp	.
=243	=243	=243	=243	=243	=243	=243	=243	=243
!	!	!	!	!	!	!LO:TX:b:i:t=cresc.	!	!
2r	.	2r	.	2r	.	8.eeL)	.	.
.	.	.	.	.	.	16dd#XtJk	.	.
.	.	.	.	.	.	16ddnTKL	.	.
.	.	.	.	.	.	8et	.	.
.	.	.	.	.	.	16eetJk	.	.
.	.	.	.	.	.	32qqdd#X/LLL	.	.
.	.	.	.	.	.	32qqee/JJJ	.	.
=244||	=244||	=244||	=244||	=244||	=244||	=244||	=244||	=244||
*k[f#c#g#]	*	*k[f#c#g#]	*	*k[f#c#g#]	*	*k[f#c#g#]	*	*
*A:	*	*A:	*	*A:	*	*A:	*	*
(64AALLLL	p	8E 8A	p	8c# 8a	p	8.cc#tL	p	I
64C#J	.	.	.	.	.	.	.	.
32EJJJ)	.	.	.	.	.	.	.	.
16r	.	.	.	.	.	.	.	.
(64AALLLL	.	(4E 4A	.	(4c# 4a	.	.	.	.
64C#J	.	.	.	.	.	.	.	.
32EJJJ)	.	.	.	.	.	.	.	.
16r	.	.	.	.	.	32bLL	.	.
.	.	.	.	.	.	32cc#JJJ	.	.
(64AALLLL	.	.	.	.	.	8.ccc#tL	.	.
64C#J	.	.	.	.	.	.	.	.
32EJJJ)	.	.	.	.	.	.	.	.
16r	.	.	.	.	.	.	.	.
(64AALLLL	.	16ELL 16B	.	16bLL	.	.	.	.
64C#J	.	.	.	.	.	.	.	.
32EJJJ)	.	.	.	.	.	.	.	.
16r	.	16AJJ	.	16aJJ	.	32bbLL	.	.
.	.	.	.	.	.	32ccc#JJJ	.	.
=245	=245	=245	=245	=245	=245	=245	=245	=245
(64BBLLLL	.	8G#)	.	8g#)	.	8.eTL	.	V43
64DJ	.	.	.	.	.	.	.	.
32EJJJ)	.	.	.	.	.	.	.	.
16r	.	.	.	.	.	.	.	.
(64BBLLLL	.	(4G#	.	(4g#	.	.	.	.
64DJ	.	.	.	.	.	.	.	.
32EJJJ)	.	.	.	.	.	.	.	.
16r	.	.	.	.	.	32d#XLL	.	.
.	.	.	.	.	.	32eJJJ	.	.
(64BBLLLL	.	.	.	.	.	8.ddnTL	.	.
64DJ	.	.	.	.	.	.	.	.
32EJJJ)	.	.	.	.	.	.	.	.
16r	.	.	.	.	.	.	.	.
(64BBLLLL	.	16ALL	.	16aLL	.	.	.	.
64DJ	.	.	.	.	.	.	.	.
32EJJJ)	.	.	.	.	.	.	.	.
16r	.	16G#JJ	.	16g#JJ	.	32ccnLL	.	.
.	.	.	.	.	.	32ddJJJ	.	.
=246	=246	=246	=246	=246	=246	=246	=246	=246
(64GG#LLLL	.	8d)	.	8dd)	.	16.eTLL	.	V65
64BBJ	.	.	.	.	.	.	.	.
32EJJJ)	.	.	.	.	.	.	.	.
16r	.	.	.	.	.	.	.	.
.	.	.	.	.	.	64d#XLL	.	.
.	.	.	.	.	.	64eJJJJ	.	.
(64GG#LLLL	.	(4E 4d	.	(4dd	.	16.bTLL	.	.
64BBJ	.	.	.	.	.	.	.	.
32EJJJ)	.	.	.	.	.	.	.	.
16r	.	.	.	.	.	.	.	.
.	.	.	.	.	.	64a#XLL	.	.
.	.	.	.	.	.	64bJJJJ	.	.
(64GG#LLLL	.	.	.	.	.	8.bbTL	.	.
64BBJ	.	.	.	.	.	.	.	.
32EJJJ)	.	.	.	.	.	.	.	.
16r	.	.	.	.	.	.	.	.
(64GG#LLLL	.	16eLL	.	16eeLL	.	.	.	.
64BBJ	.	.	.	.	.	.	.	.
32EJJJ)	.	.	.	.	.	.	.	.
16r	.	16dJJ	.	16ddJJ	.	32aa#XLL	.	.
.	.	.	.	.	.	32bbJJJ	.	.
=247	=247	=247	=247	=247	=247	=247	=247	=247
(64AALLLL	.	8E) 8c#	.	8cc#)	.	8.eTL	.	I
64C#J	.	.	.	.	.	.	.	.
32EJJJ)	.	.	.	.	.	.	.	.
16r	.	.	.	.	.	.	.	.
(64AALLLL	.	(4E' 4c#	.	(4e' 4cc#	.	.	.	.
64C#J	.	.	.	.	.	.	.	.
32EJJJ)	.	.	.	.	.	.	.	.
16r	.	.	.	.	.	32d#XLL	.	.
.	.	.	.	.	.	32eJJJ	.	.
(64AALLLL	.	.	.	.	.	16.eeTLL	.	.
64C#J	.	.	.	.	.	.	.	.
32EJJJ)	.	.	.	.	.	.	.	.
16r	.	.	.	.	.	.	.	.
.	.	.	.	.	.	64dd#XLL	.	.
.	.	.	.	.	.	64eeJJJJ	.	.
(64AALLLL	.	16dLL	.	16ddLL	.	16.aanTLL	.	.
64C#J	.	.	.	.	.	.	.	.
32EJJJ)	.	.	.	.	.	.	.	.
16r	.	16c#JJ	.	16cc#JJ	.	.	.	.
.	.	.	.	.	.	64gg#LL	.	.
.	.	.	.	.	.	64aaJJJJ	.	.
=248	=248	=248	=248	=248	=248	=248	=248	=248
*	*	*^	*	*	*	*	*	*
(64CC#LLLL	.	8a)	8r	.	8aa)	.	8.eTL	.	I6
64EEJ	.	.	.	.	.	.	.	.	.
32AAJJJ)	.	.	.	.	.	.	.	.	.
16r	.	.	.	.	.	.	.	.	.
(64CC#LLLL	.	(4a	(4A	<	(4aa	<	.	.	.
64EEJ	.	.	.	.	.	.	.	.	.
32AAJJJ)	.	.	.	.	.	.	.	.	.
16r	.	.	.	.	.	.	32d#XLL	.	.
.	.	.	.	.	.	.	32eJJJ	.	.
(64CC#LLLL	.	.	.	.	.	.	16.eeTLL	.	.
64EEJ	.	.	.	.	.	.	.	.	.
32AAJJJ)	.	.	.	.	.	.	.	.	.
16r	.	.	.	.	.	.	.	.	.
.	.	.	.	.	.	.	64ddnLL	.	.
.	.	.	.	.	.	.	64eeJJJJ	.	.
(64CC#LLLL	.	16gnLL	16A)	>	16ggnLL	>	16.aaTLL	.	I65
64EEJ	.	.	.	.	.	.	.	.	.
32AAJJJ)	.	.	.	.	.	.	.	.	.
16r	.	16e#XJJ)	16r	]	16ee#XJJ)	] ]]	.	.	.
.	.	.	.	.	.	.	64gg#LL	.	.
.	.	.	.	.	.	.	64aaJJJJ	.	.
*	*	*v	*v	*	*	*	*	*	*
=249	=249	=249	=249	=249	=249	=249	=249	=249
(64DDLLLL	.	(8e#X	]	(8ee#X	.	16.dTLL	.	IV
64FF#J	.	.	.	.	.	.	.	.
32AAJJJ)	.	.	.	.	.	.	.	.
16r	.	.	.	.	.	.	.	.
.	.	.	.	.	.	64cnLL	.	.
.	.	.	.	.	.	64dJJJJ	.	.
(64DDLLLL	<	(8f#)	<	(8ff#)	<	16.ddTLL	<	.
64AAJ	.	.	.	.	.	.	.	.
32DJJJ)	.	.	.	.	.	.	.	.
16r	.	.	.	.	.	.	.	.
.	.	.	.	.	.	64cc#XLL	.	.
.	.	.	.	.	.	64ddJJJJ	.	.
(64FF#LLLL	.	(8f#)	.	(8ff#)	.	16.cc#tLL	.	V7/ii
64AA#XJ	.	.	.	.	.	.	.	.
32C#JJJ)	.	.	.	.	.	.	.	.
16r	.	.	.	.	.	.	.	.
.	.	.	.	.	.	64bLL	.	.
.	.	.	.	.	.	64cc#JJJJ	.	.
(64AA#LLLL	.	16enLL	.	16eenLL	.	16.ff#TLL	.	.
64C#J	.	.	.	.	.	.	.	.
32F#JJJ)	.	.	.	.	.	.	.	.
16r	[[	16c#JJ	[[	16cc#JJ	[[	.	.	.
.	.	.	.	.	.	64eeLL	.	.
.	.	.	.	.	.	64ff#JJJJ	[[	.
=250	=250	=250	=250	=250	=250	=250	=250	=250
(64AAnLLLL	p	8d#X)	p	8dd#X)	p	16.ff#TLL	p	ii
64BBJ	.	.	.	.	.	.	.	.
32F#JJJ)	.	.	.	.	.	.	.	.
16r	.	.	.	.	.	.	.	.
.	.	.	.	.	.	64ee#XLL	.	.
.	.	.	.	.	.	64ff#JJJJ	.	.
!LO:TX:b:i:t=cresc.	!	!LO:TX:b:i:t=cresc.	!	!LO:TX:b:i:t=cresc.	!	!LO:TX:b:i:t=cresc.	!	!
(64GG#LLLL	.	(16eLL	.	(16eeLL	.	16.bbTLL	.	V65
64BBJ	.	.	.	.	.	.	.	.
32EJJJ)	.	.	.	.	.	.	.	.
16r	.	16dnJJ	.	16ddnJJ	.	.	.	.
.	.	.	.	.	.	64aaLL	.	.
.	.	.	.	.	.	64bbJJJJ	.	.
(64AALLLL	.	16c#'LL)	.	16cc#'LL)	.	16.ccc#tLL	.	I
64C#J	.	.	.	.	.	.	.	.
32EJJJ)	.	.	.	.	.	.	.	.
16r	.	16EJJ	.	16eJJ	.	.	.	.
.	.	.	.	.	.	64bbLL	.	.
.	.	.	.	.	.	64ccc#JJJJ	.	.
(64DDLLLL	.	(16F#LL	.	(16f#LL	.	(48eeenLLL	.	ii6
64FF#J	.	.	.	.	.	.	.	.
.	.	.	.	.	.	48ddd	.	.
32BBJJJ)	.	.	.	.	.	.	.	.
.	.	.	.	.	.	48cccn	.	.
16r	.	16dJJ	.	16ddJJ	.	48eee	.	.
.	.	.	.	.	.	48ddd	.	.
.	.	.	.	.	.	48bbJJJ)	.	.
=251	=251	=251	=251	=251	=251	=251	=251	=251
!LO:TX:b:i:t=dim.	!	!LO:TX:b:i:t=dim.	!	!LO:TX:b:i:t=dim.	!	!LO:TX:b:i:t=dim.	!	!
8EE	.	24G#LL)	.	8b)	.	2bbT	.	V
.	.	(24E	.	.	.	.	.	.
.	.	24G#JJ	.	.	.	.	.	.
24r	.	24B)	.	8r	.	.	.	.
(24EELL	.	24r	.	.	.	.	.	.
24GG#JJ	.	24r	.	.	.	.	.	.
24BB)	.	24r	.	8r	.	.	.	.
24r	.	(24eLL	.	.	.	.	.	.
24r	.	24g#JJ	.	.	.	.	.	.
8r	.	24b)	.	24r	.	.	.	.
.	.	24r	.	(24eeLL	.	.	.	.
.	.	24r	.	24gg#JJ	.	.	.	.
=252	=252	=252	=252	=252	=252	=252	=252	=252
8r	.	24r	.	24bb)	.	16bbLL	.	I64
.	.	(24ELL	.	24r	.	.	.	.
.	.	.	.	.	.	16ccc#JJ	.	.
.	.	24AJJ	.	24r	.	.	.	.
24r	.	24c#)	.	8r	.	4.ccc#t	.	.
(24EELL	.	24r	.	.	.	.	.	.
24AAJJ	.	24r	.	.	.	.	.	.
8C#)	.	24r	.	8r	.	.	.	.
.	.	(24eLL	.	.	.	.	.	.
.	.	24aJJ	.	.	.	.	.	.
8r	.	24cc#)	.	24r	.	.	.	.
.	.	24r	.	(24eeLL	.	.	.	.
.	.	24r	.	24aaJJ)	.	.	.	.
=253	=253	=253	=253	=253	=253	=253	=253	=253
8r	.	24r	.	24aa	.	16ccc#LL	.	.bVI.iii64
.	.	(24ELL	.	24r	.	.	.	.
.	.	.	.	.	.	16cccnTJJ	.	.
.	.	24AJJ	.	24r	.	.	.	.
!LO:TX:b:i:t=cresc.	!	!	!	!	!	!LO:TX:b:i:t=cresc.	!	!
24r	.	8cn)	.	8r	.	4.cccT	.	.
(24EELL	.	.	.	.	.	.	.	.
24AAJJ	.	.	.	.	.	.	.	.
!	!	!LO:TX:b:i:t=cresc.	!	!	!	!	!	!
8Cn)	.	24r	.	8r	.	.	.	.
.	.	(24eLL	.	.	.	.	.	.
.	.	24aJJ	.	.	.	.	.	.
!	!	!	!	!LO:TX:b:i:t=cresc.	!	!	!	!
8r	.	8ccn)	.	24r	.	.	.	.
.	.	.	.	(24eeLL	.	.	.	.
.	.	.	.	24aaJJ)	.	.	.	.
=254	=254	=254	=254	=254	=254	=254	=254	=254
8r	.	24r	.	8aa	.	8cccn	.	I
.	.	(24FnLL	.	.	.	.	.	.
.	.	24AJJ	.	.	.	.	.	.
24r	.	8cn)	.	8r	.	(4cccT	.	.
(24FFnLL	.	.	.	.	.	.	.	.
24AAJJ	.	.	.	.	.	.	.	.
8Cn)	.	24r	.	8r	.	.	.	.
.	.	(24fnLL	.	.	.	.	.	.
.	.	24aJJ	.	.	.	.	.	.
8r	.	8ccn)	p	24r	.	(32cccLLL)	p	.
.	.	.	.	.	.	32bbJJJ	.	.
.	.	.	.	(24ffnLL	p	.	.	.
.	.	.	.	.	.	48cccLLL	.	.
.	.	.	.	24aaJJ)	.	48ddd	.	.
.	.	.	.	.	.	48eeeJJJ)	.	.
*clefC4	*	*	*	*	*	*	*	*
=255||	=255||	=255||	=255||	=255||	=255||	=255||	=255||	=255||
*k[b-]	*	*k[b-]	*	*k[b-]	*	*k[b-]	*	*
*F:	*	*F:	*	*F:	*	*F:	*	*
8fnL	p	8aL	p	8ccnL 8aa	p	8fffn	p	I
8fJ	.	8aJ	.	8ccJ	.	(4ff	.	.
8f	.	8a	.	8cc	.	.	.	.
!	!	!	!	!	!	!LO:TX:b:i:t=dolce	!	!
8r	.	8r	.	8r	.	16ggnLL	.	.
.	.	.	.	.	.	16ffnJJ)	.	.
=256	=256	=256	=256	=256	=256	=256	=256	=256
8r	.	8r	.	8r	.	8ee	.	V43
8g	.	8b-	.	8cc	.	(4ee	.	.
8g	.	8b-	.	8cc	.	.	.	.
8r	.	8r	.	8r	.	16ffLL	.	.
.	.	.	.	.	.	16eeJJ)	.	.
=257	=257	=257	=257	=257	=257	=257	=257	=257
8r	.	8r	.	8r	.	8bb-	.	V65
8e	.	8g	.	8cc	.	(4bb-	.	.
8e	.	8g	.	8cc	.	.	.	.
8r	.	8r	.	8r	.	16cccLL	.	.
.	.	.	.	.	.	16bb-JJ)	.	.
=258	=258	=258	=258	=258	=258	=258	=258	=258
8r	.	8r	.	8r	.	8aa	.	I
8f	.	8a	.	8cc	.	(4aa	.	.
8f	.	8a	.	8cc	.	.	.	.
8r	.	8r	.	8r	.	16bb-LL	.	.
.	.	.	.	.	.	16aaJJ)	.	.
=259	=259	=259	=259	=259	=259	=259	=259	=259
!LO:TX:b:i:t=cresc.	!	!LO:TX:b:i:t=cresc.	!	!LO:TX:b:i:t=cresc.	!	!LO:TX:b:i:t=cresc.	!	!
8r	.	8r	.	8r	.	8aa	.	.
8f	.	8a	.	8cc	.	(4aa	.	.
8f	.	8a	.	8cc	.	.	.	.
8r	.	8r	.	8r	.	16bb-LL	.	.
.	.	.	.	.	.	16aaJJ)	.	.
=260	=260	=260	=260	=260	=260	=260	=260	=260
8r	.	8r	.	8r	.	8aa	.	V43/vi
8e	.	8g	.	8cc#X	.	(4aa	.	.
8e	.	8g	.	8cc#	.	.	.	.
8r	.	8r	.	8r	.	16bb-LL	.	.
.	.	.	.	.	.	16aaJJ)	.	.
=261	=261	=261	=261	=261	=261	=261	=261	=261
8r	.	8r	.	8r	.	8aa	.	vi
8d	.	8f	.	8dd	.	(4aa	.	.
8d	.	8f	.	8dd	.	.	.	.
8ryy	.	8r	.	8r	.	16bb-LL	.	.
.	.	.	.	.	.	16aaJJ)	.	.
=262	=262	=262	=262	=262	=262	=262	=262	=262
8r	.	8r	.	8r	.	8aa	.	V65/vi
8c#X	.	8e	.	8ee	.	(4aa	.	.
8c#	.	8e	.	8ee	.	.	.	.
8r	.	8r	.	8r	.	16bb-LL	.	.
.	.	.	.	.	.	16aaJJ)	.	.
=263	=263	=263	=263	=263	=263	=263	=263	=263
8r	.	8r	.	8r	.	8aa	.	vi
8d	.	8f	.	8ff	.	4aa	.	.
8dL	.	8fL	.	8ffL	.	.	.	.
8d#XJ	f	8f#XJ	f	8ff#XJ	f	[8aa	f	I.#viio/V
=264	=264	=264	=264	=264	=264	=264	=264	=264
!	!	!	!	!	!	!LO:TX:b:i:t=dim. e rit.	!	!
4d#X	.	4f#X	.	4ff#X	.	8aa]	.	.
.	.	.	.	.	.	4aa	.	.
4r	.	4r	.	4r	.	.	.	.
.	.	.	.	.	.	[8aa	.	.
=265||	=265||	=265||	=265||	=265||	=265||	=265||	=265||	=265||
*k[f#c#g#]	*	*k[f#c#g#]	*	*k[f#c#g#]	*	*k[f#c#g#]	*	*
*A:	*	*A:	*	*A:	*	*A:	*	*
!	!LO:DY:a	!	!LO:DY:a	!LO:TX:a:i:t=cantabile	!LO:DY:a	!	!	!
[2e	p	[2bn	p	[2dd	p	(8aaL]	.	V7(4)
.	.	.	.	.	.	(24aaL)	.	.
.	.	.	.	.	.	24gg#	.	.
.	.	.	.	.	.	24bbnJJ	.	.
.	.	.	.	.	.	24dddLL	.	.
.	.	.	.	.	.	24bb	.	.
.	.	.	.	.	.	24gg#	.	.
.	.	.	.	.	.	24ee	.	.
.	.	.	.	.	.	24dd	.	.
.	.	.	.	.	.	24bJJ)	.	.
=266	=266	=266	=266	=266	=266	=266	=266	=266
!	!	!	!	!	!	!LO:TX:b:i:t=cresc.	!	!
8e]	.	8b]	.	8dd]	.	(48g#LLL	.	.
.	.	.	.	.	.	48e	.	.
.	.	.	.	.	.	48d	.	.
.	.	.	.	.	.	48B	.	.
.	.	.	.	.	.	48G#X	.	.
.	.	.	.	.	.	48AJJJ)	.	.
8r	.	8r	.	16e 16dd	sf	(48BLLL	.	.
.	.	.	.	.	.	48c#	.	.
.	.	.	.	.	.	48d	.	.
.	.	.	.	16r	.	48e	.	.
.	.	.	.	.	.	48f#	.	.
.	.	.	.	.	.	48gnJJJ)	.	.
8r	.	16E 16d	sf	8r	.	(64g#XLLLL	.	.
.	.	.	.	.	.	64a	.	.
.	.	.	.	.	.	64b	.	.
.	.	.	.	.	.	64cc#	.	.
.	.	16r	.	.	.	64dd	.	.
.	.	.	.	.	.	64ee	.	.
.	.	.	.	.	.	64ff#	.	.
.	.	.	.	.	.	64ggnJJJJ	.	.
*clefF4	*	*	*	*	*	*	*	*
16DD	sf	16E	sf	16B 16e	sf	64gg#XLLLL	.	.
.	.	.	.	.	.	64aa	.	.
.	.	.	.	.	.	64bb	.	.
.	.	.	.	.	.	64ccc#	.	.
16r	.	16r	.	16r	.	64ddd	.	.
.	.	.	.	.	.	64eee	.	.
.	.	.	.	.	.	64fff#	.	.
.	.	.	.	.	.	64ggg#JJJJ)	.	.
=267	=267	=267	=267	=267	=267	=267	=267	=267
*	*	*	*	*^	*	*	*	*
!LO:TX:b:i:t=cresc.	!	!LO:TX:b:i:t=cresc.	!	!LO:TX:b:i:t=cresc.	!	!	!LO:TX:b:i:t=cresc.	!	!
(4CC#	.	(4E	.	4e	(2A	.	(8ggg#	.	I6
.	.	.	.	.	.	.	4aaa	.	IV
[4DD)	.	[4F#)	.	[4f#	.	.	.	.	.
.	.	.	.	.	.	.	16fff#LL	.	.
.	.	.	.	.	.	.	16dddJJ	.	.
=268	=268	=268	=268	=268	=268	=268	=268	=268	=268
!	!	!	!	!	!	!	!	!LO:DY:a	!
8DDL]	p	8F#L]	p	8f#L]	8A#X)	p	8ccc#'L)	p	V+(7)/ii
*	*	*	*	*v	*v	*	*	*	*
(8DDJ	.	(16BL	.	(8f#J	.	(16dddL	.	ii6
.	.	16dJJ	.	.	.	16bbJJ	.	.
8EEL)	.	8c#'L)	.	8eL)	.	8aa'L)	.	V(64)
8EEJ	.	(16dL	.	8eJ	.	(16bbL	.	V7
.	.	16BJJ)	.	.	.	16gg#JJ)	.	.
=269	=269	=269	=269	=269	=269	=269	=269	=269
!LO:TX:b:i:t=cresc.	!	!LO:TX:b:i:t=cresc.	!	!LO:TX:b:i:t=cresc.	!	!LO:TX:b:i:t=cresc.	!	!
(4e	>	(4C#	>	(2An	>]	(8gg#	.	I6
.	.	.	.	.	.	4aa	.	IV
(4f#)	]]	(4D)	]]	.	.	.	.	.
.	.	.	.	.	.	16ff#LL	>	.
.	.	.	.	.	.	16eeJJ	]]	.
=270	=270	=270	=270	=270	=270	=270	=270	=270
8f#L)	p	8DL)	p	16A#XLL)	p	8cc#'L)	p	V+(7)/ii
.	.	.	.	(16A#	.	.	.	.
(16f#L	.	(8DJ	.	16B	.	(16ddL	.	ii6
16dJJ	.	.	.	16f#JJ)	.	16bJJ	.	.
8c#'L)	.	8EL)	.	16r	.	8a'L)	.	V(64)
.	.	.	.	(16eLL	.	.	.	.
(16dL	.	8EJ	.	16B	.	(16bL	.	V7
16BJJ)	.	.	.	16dJJ)	.	16g#JJ)	.	.
=271	=271	=271	=271	=271	=271	=271	=271	=271
8r	.	4r	.	8r	.	8r	.	.
(8D	.	.	.	(16dLL	.	(16ff#LL	.	ii6
.	.	.	.	16BJJ	.	16ddJJ	.	.
8EL)	.	8r	.	8An'L)	.	8cc#'L)	.	V(64)
8EJ	.	(16G#LL	.	(16BL	.	(16ddL	.	V7
.	.	16eJJ)	.	16G#JJ)	.	16bJJ)	.	.
=272	=272	=272	=272	=272	=272	=272	=272	=272
2r	.	2r	.	2r	.	2r	.	.
=273	=273	=273	=273	=273	=273	=273	=273	=273
8r	.	8r	.	8r	.	8r	.	.
8EE	.	(16ELL	.	(16G#LL	.	(16ddLL	.	V7
.	.	16G#JJ	.	16BJJ	.	16bJJ	.	.
8EEL	.	8E'L) 8A	.	8c#'L)	.	8a'L)	.	V(64)
8EEJ	.	16G#L	.	16BL	.	16bL	.	V7
.	.	16BJJ	.	16dJJ	.	16g#JJ	.	.
=274	=274	=274	=274	=274	=274	=274	=274	=274
2r	.	4r	.	2r	.	2r	.	.
.	.	[4E	.	.	.	.	.	.
=275	=275	=275	=275	=275	=275	=275	=275	=275
2EE	p	(8E]	p	2B	p	2g#	p	V7
.	.	4D	.	.	.	.	.	.
.	.	8E)	.	.	.	.	.	.
=276	=276	=276	=276	=276	=276	=276	=276	=276
8AA	.	8C#	.	8c#L	.	8a	.	I
8r	.	8r	.	(16eL	.	8r	.	.
.	.	.	.	16c#JJ)	.	.	.	.
8EE	.	8G#	.	8r	.	8ee	.	V
8r	.	8r	.	(16bLL	.	8r	.	.
.	.	.	.	16eJJ)	.	.	.	.
=277	=277	=277	=277	=277	=277	=277	=277	=277
!LO:TX:b:i:t=cresc.	!	!LO:TX:b:i:t=cresc.	!	!LO:TX:b:i:t=cresc.	!	!LO:TX:b:i:t=cresc.	!	!
8AA	.	(8GnL	.	8r	.	(4cc#	.	V7/iv
*clefC4	*	*	*	*	*	*	*	*
(4a	.	8gnJ	.	(16eeLL	.	.	.	.
.	.	.	.	16aJJ)	.	.	.	.
.	.	8fnL	.	8r	.	8ddL	.	iv
8a)	.	8dJ)	.	(16ddLL	.	8ffnJ)	.	.
.	.	.	.	16gnJJ)	.	.	.	.
=278	=278	=278	=278	=278	=278	=278	=278	=278
!LO:TX:a:t=pizz.	!	!LO:TX:a:t=pizz.	!	!	!	!	!	!
8r	.	8r	.	8r	.	8r	.	.
8a	.	8c#	.	8e	.	8aa	.	I6
!	!	!	!	!LO:TX:a:t=pizz.	!	!	!	!
8a	.	8cc#	.	8ee	.	8aa	.	I6\\
8r;	.	8r;	.	8r;	.	8r;	.	.
==	==	==	==	==	==	==	==	==
*-	*-	*-	*-	*-	*-	*-	*-	*-
!!!system-decoration: [(s1,s2,s3,s4)]
